!!!!SEGMENT: pl-cz--iii-563--002_raszek-wacllaw--missa-ex-dis-gloria.krn
!!!cenid: 17xx:1071
!!!COM: Raszek, Wacław
!!!COM-rismid: pe30020314
!!!CDT: <1848->1848
!!!CNT:
!!!OPR: Missa ex Dis
!!!OTL: Gloria
!!!OMV: 002
!!!PDT:
!!!AGN: Sacred; Mass
!!!SMS-siglum: PL-CZ
!!!SMS-shelfmark: III-563
!!!SMS-shelfwork: 001-002 M
!!!SMS-variant:
!!!SMS-altvar:
!!!NIFC-rismid: 300001050
!!!system-decoration: [(s1,s2)][(s3,s4)][(s5,s6,s7,s8)][(s9,s10,s11)][(s12)]
**kern	**dynam	**kern	**dynam	**kern	**dynam	**kern	**dynam	**kern	**text	**dynam	**kern	**text	**dynam	**kern	**text	**dynam	**kern	**text	**dynam	**kern	**dynam	**kern	**dynam	**kern	**dynam	**kern
*part12	*part12	*part11	*part11	*part10	*part10	*part9	*part9	*part8	*part8	*part8	*part7	*part7	*part7	*part6	*part6	*part6	*part5	*part5	*part5	*part4	*part4	*part3	*part3	*part2	*part2	*part1
*staff12	*	*staff11	*	*staff10	*	*staff9	*	*staff8	*staff8	*	*staff7	*staff7	*	*staff6	*staff6	*	*staff5	*staff5	*	*staff4	*	*staff3	*	*staff2	*	*staff1
*Iorgan	*	*Iviola	*	*Ivioln	*	*Ivioln	*	*Ibass	*	*	*Itenor	*	*	*Ialto	*	*	*Ivox	*	*	*Iempty	*	*Iempty	*	*Iempty	*	*Iempty
*I"Organo	*	*I"Viola obligata	*	*I"Violino 2do	*	*I"Violino Primo	*	*I"Basso.	*	*	*I"Tenore.	*	*	*I"Alto.	*	*	*I"Canto.	*	*	*I"Cornu Secundo in Dis	*	*I"Cornu Primo in Dis	*	*I"Clarinetto secondo in B	*	*I"Clarinetto primo in B
*I'Org.	*	*I'V-la	*	*I'V-no II	*	*I'V-no I	*	*I'B.	*	*	*I'T.	*	*	*I'A.	*	*	*I'C.	*	*	*I'C. II	*	*I'C. I	*	*I'Cl. II	*	*I'Cl. I
*clefF4	*	*clefC3	*	*clefG2	*	*clefG2	*	*clefF4	*	*	*clefC4	*	*	*clefC3	*	*	*clefC1	*	*	*clefG2	*	*clefG2	*	*clefG2	*	*clefG2
*	*	*	*	*	*	*	*	*	*	*	*	*	*	*	*	*	*	*	*	*ITrd5c9	*	*ITrd5c9	*	*ITrd1c2	*	*ITrd1c2
*k[b-e-a-]	*	*k[b-e-a-]	*	*k[b-e-a-]	*	*k[b-e-a-]	*	*k[b-e-a-]	*	*	*k[b-e-a-]	*	*	*k[b-e-a-]	*	*	*k[b-e-a-]	*	*	*k[b-e-a-]	*	*k[b-e-a-]	*	*k[b-e-a-]	*	*k[b-e-a-]
*E-:	*	*E-:	*	*E-:	*	*E-:	*	*E-:	*	*	*E-:	*	*	*E-:	*	*	*E-:	*	*	*E-:	*	*E-:	*	*E-:	*	*E-:
*M4/4	*	*M4/4	*	*M4/4	*	*M4/4	*	*M4/4	*	*	*M4/4	*	*	*M4/4	*	*	*M4/4	*	*	*M4/4	*	*M4/4	*	*M4/4	*	*M4/4
*met(c)	*	*met(c)	*	*met(c)	*	*met(c)	*	*met(c)	*	*	*met(c)	*	*	*met(c)	*	*	*met(c)	*	*	*met(c)	*	*met(c)	*	*met(c)	*	*met(c)
=1	=1	=1	=1	=1	=1	=1	=1	=1	=1	=1	=1	=1	=1	=1	=1	=1	=1	=1	=1	=1	=1	=1	=1	=1	=1	=1
*2\right	*	*2\right	*	*2\right	*	*2\right	*	*2\right	*	*	*2\right	*	*	*2\right	*	*	*2\right	*	*	*2\right	*	*2\right	*	*2\right	*	*
!!LO:TX:a:t=P:problem:[dynamics] p = po:global
!!LO:TX:a:t=P:problem:[dynamics] f = for:global
!	!	!	!	!	!	!	!	!	!	!	!	!	!	!	!	!	!	!	!	!	!	!	!	!	!	!LO:TX:t=P:problem:w źródle brak partii Clarinetto Primo
!LO:TX:a:Bi:t=allo	!	!LO:TX:a:Bi:t=allo	!	!LO:TX:a:Bi:t=all&colon;	!	!LO:TX:a:Bi:t=all&colon;	!	!LO:TX:a:Bi:t=all&colon;	!	!	!LO:TX:a:Bi:t=all&colon;	!	!	!LO:TX:a:Bi:t=all&colon;	!	!	!LO:TX:a:Bi:t=all&colon;	!	!	!LO:TX:a:Bi:t=allo	!	!LO:TX:a:Bi:t=allo	!	!LO:TX:a:Bi:t=Allo.	!	!
!	!	!	!	!	!	!	!	!	!	!	!	!	!	!	!	!	!	!	!	!LO:TX:a:i:t=in Dis	!	!	!	!	!	!
!	!LO:DY:a	!	!LO:DY:a	!	!	!	!	!	!	!	!	!	!	!	!	!	!	!	!	!	!LO:DY:a	!	!LO:DY:a	!	!	!
4E-\	f	4e-\	f	4e- 4G/	.	4ee- 4e- 4G/	.	2.E-\	Glo-	.	2.B-\	Glo-	.	2.g\	Glo-	.	2.ee-\	Glo-	.	4G/	f	4e-\	f	4g/	f	1ryy
4r	.	4r	.	16G/LL	.	16e-/LL	.	.	.	.	.	.	.	.	.	.	.	.	.	4r	.	4r	.	8g/L	.	.
.	.	.	.	16A-/	.	16f/	.	.	.	.	.	.	.	.	.	.	.	.	.	.	.	.	.	.	.	.
.	.	.	.	16B-/	.	16g/	.	.	.	.	.	.	.	.	.	.	.	.	.	.	.	.	.	8b-/J	.	.
.	.	.	.	16A-/JJ	.	16f/JJ	.	.	.	.	.	.	.	.	.	.	.	.	.	.	.	.	.	.	.	.
4E-\	.	4e-\	.	4G/	.	4e- 4G/	.	.	.	.	.	.	.	.	.	.	.	.	.	4G/	.	4e-\	.	4g/	.	.
4r	.	4r	.	16G/LL	.	16e-/LL	.	4E-\	-ri-	.	4B-\	-ri-	.	4g\	-ri-	.	4ee-\	-ri-	.	4r	.	4r	.	8g/L	.	.
.	.	.	.	16A-/	.	16f/	.	.	.	.	.	.	.	.	.	.	.	.	.	.	.	.	.	.	.	.
.	.	.	.	16B-/	.	16g/	.	.	.	.	.	.	.	.	.	.	.	.	.	.	.	.	.	8b-/J	.	.
.	.	.	.	16A-/JJ	.	16f/JJ	.	.	.	.	.	.	.	.	.	.	.	.	.	.	.	.	.	.	.	.
=2	=2	=2	=2	=2	=2	=2	=2	=2	=2	=2	=2	=2	=2	=2	=2	=2	=2	=2	=2	=2	=2	=2	=2	=2	=2	=2
!	!	!	!	!	!	!	!	!	!	!	!	!	!	!	!	!	!	!	!	!	!	!	!	!LO:TX:a:Bi:t=Solo.	!	!
4E-\	.	4e-\	.	4G/	.	4e-/	.	4E-\	-a	.	4B-\	-a	.	4g\	-a	.	4ee-\	-a	.	4G/	.	4e-\	.	4g/	.	1ryy
4E-\	.	4e-\	.	4G/	.	4e-/	.	4r	.	.	4r	.	.	4r	.	.	4r	.	.	4G/	.	4e-\	.	4g/	.	.
4E-\	.	4e-\	.	4G/	.	4e-/	.	2r	.	.	2r	.	.	2r	.	.	2r	.	.	4G/	.	4e-\	.	4g/	.	.
4r	.	4r	.	4r	.	4r	.	.	.	.	.	.	.	.	.	.	.	.	.	4r	.	4B-/	.	4b-\	.	.
=3	=3	=3	=3	=3	=3	=3	=3	=3	=3	=3	=3	=3	=3	=3	=3	=3	=3	=3	=3	=3	=3	=3	=3	=3	=3	=3
!	!	!LO:TX:a:t=6	!	!	!	!	!	!	!	!	!	!	!	!	!	!	!	!	!	!LO:TX:a:Bi:t=Solo	!	!LO:TX:a:Bi:t=Solo	!	!	!	!
!	!	!	!	!	!LO:DY:a	!	!LO:DY:a	!	!	!	!	!	!	!	!	!	!	!	!	!	!	!	!	!	!	!
1r	.	1r	.	4e-/	p	4e-/	p	00r	.	.	00r	.	.	00r	.	.	00r	.	.	4G/	.	4e-\	.	4g/	.	1ryy
.	.	.	.	4r	.	4r	.	.	.	.	.	.	.	.	.	.	.	.	.	8G/L	.	8e-\L	.	8g/L	.	.
.	.	.	.	.	.	.	.	.	.	.	.	.	.	.	.	.	.	.	.	8G/J	.	8e-\J	.	8g/J	.	.
.	.	.	.	2r	.	2r	.	.	.	.	.	.	.	.	.	.	.	.	.	4G/	.	4e-\	.	4g/	.	.
.	.	.	.	.	.	.	.	.	.	.	.	.	.	.	.	.	.	.	.	8B-/L	.	8f\L	.	8b-\L	.	.
.	.	.	.	.	.	.	.	.	.	.	.	.	.	.	.	.	.	.	.	8e-/J	.	8g\J	.	8ee-\J	.	.
=4	=4	=4	=4	=4	=4	=4	=4	=4	=4	=4	=4	=4	=4	=4	=4	=4	=4	=4	=4	=4	=4	=4	=4	=4	=4	=4
1r	.	1r	.	4r	.	4r	.	.	.	.	.	.	.	.	.	.	.	.	.	4B-/	.	4f\	.	8ee-\L	.	1ryy
.	.	.	.	.	.	.	.	.	.	.	.	.	.	.	.	.	.	.	.	.	.	.	.	8dd\J	.	.
.	.	.	.	4B-/	.	4B-/	.	.	.	.	.	.	.	.	.	.	.	.	.	2B-/	.	2f\	.	2dd\	.	.
.	.	.	.	4d/	.	4d/	.	.	.	.	.	.	.	.	.	.	.	.	.	.	.	.	.	.	.	.
.	.	.	.	4e-/	.	4e-/	.	.	.	.	.	.	.	.	.	.	.	.	.	8e-\L	.	8g\L	.	8ee-\L	.	.
.	.	.	.	.	.	.	.	.	.	.	.	.	.	.	.	.	.	.	.	8g\J	.	8b-\J	.	8gg\J	.	.
=5	=5	=5	=5	=5	=5	=5	=5	=5	=5	=5	=5	=5	=5	=5	=5	=5	=5	=5	=5	=5	=5	=5	=5	=5	=5	=5
1r	.	1r	.	4r	.	4r	.	.	.	.	.	.	.	.	.	.	.	.	.	8g\L	.	8b-\L	.	8gg\L	.	1ryy
.	.	.	.	.	.	.	.	.	.	.	.	.	.	.	.	.	.	.	.	8f\J	.	8a-\J	.	8ff\J	.	.
.	.	.	.	4A-/	.	4A-/	.	.	.	.	.	.	.	.	.	.	.	.	.	2e-\	.	2g\	.	2ee-\	.	.
.	.	.	.	4B-/	.	4B-/	.	.	.	.	.	.	.	.	.	.	.	.	.	.	.	.	.	.	.	.
.	.	.	.	4B-/	.	4B-/	.	.	.	.	.	.	.	.	.	.	.	.	.	4B-/	.	4f\	.	4dd\	.	.
=6	=6	=6	=6	=6	=6	=6	=6	=6	=6	=6	=6	=6	=6	=6	=6	=6	=6	=6	=6	=6	=6	=6	=6	=6	=6	=6
1r	.	1r	.	4e-/	.	4e-/	.	.	.	.	.	.	.	.	.	.	.	.	.	4G/	.	4e-\	.	4ee-\	.	1ryy
.	.	.	.	4r	.	4r	.	.	.	.	.	.	.	.	.	.	.	.	.	8G/L	.	8e-\L	.	8ee-\L	.	.
.	.	.	.	.	.	.	.	.	.	.	.	.	.	.	.	.	.	.	.	8G/J	.	8e-\J	.	8ee-\J	.	.
.	.	.	.	2r	.	2r	.	.	.	.	.	.	.	.	.	.	.	.	.	8G/L	.	8e-\L	.	8ee-\L	.	.
.	.	.	.	.	.	.	.	.	.	.	.	.	.	.	.	.	.	.	.	8B-/	.	8f\	.	8dd\	.	.
.	.	.	.	.	.	.	.	.	.	.	.	.	.	.	.	.	.	.	.	8e-/	.	8g\	.	8dd\	.	.
.	.	.	.	.	.	.	.	.	.	.	.	.	.	.	.	.	.	.	.	8G/J	.	8e-\J	.	8ee-\J	.	.
=7	=7	=7	=7	=7	=7	=7	=7	=7	=7	=7	=7	=7	=7	=7	=7	=7	=7	=7	=7	=7	=7	=7	=7	=7	=7	=7
1r	.	1r	.	4r	.	4r	.	0r	.	.	0r	.	.	0r	.	.	0r	.	.	4B-/	.	4f\	.	8ee-\L	.	1ryy
.	.	.	.	.	.	.	.	.	.	.	.	.	.	.	.	.	.	.	.	.	.	.	.	8dd\	.	.
.	.	.	.	4B-/	.	4B-/	.	.	.	.	.	.	.	.	.	.	.	.	.	2B-/	.	2f\	.	8dd\	.	.
.	.	.	.	.	.	.	.	.	.	.	.	.	.	.	.	.	.	.	.	.	.	.	.	8dd\J	.	.
.	.	.	.	4d/	.	4d/	.	.	.	.	.	.	.	.	.	.	.	.	.	.	.	.	.	8dd\L	.	.
.	.	.	.	.	.	.	.	.	.	.	.	.	.	.	.	.	.	.	.	.	.	.	.	8ff\	.	.
.	.	.	.	4e-/	.	4e-/	.	.	.	.	.	.	.	.	.	.	.	.	.	8e-\L	.	8g\L	.	8ee-\	.	.
.	.	.	.	.	.	.	.	.	.	.	.	.	.	.	.	.	.	.	.	8g\J	.	8b-\J	.	8gg\J	.	.
=8	=8	=8	=8	=8	=8	=8	=8	=8	=8	=8	=8	=8	=8	=8	=8	=8	=8	=8	=8	=8	=8	=8	=8	=8	=8	=8
1r	.	1r	.	4r	.	4r	.	.	.	.	.	.	.	.	.	.	.	.	.	8g\L	.	8b-\L	.	8gg\L	.	1ryy
.	.	.	.	.	.	.	.	.	.	.	.	.	.	.	.	.	.	.	.	8f\J	.	8a-\J	.	8ff\J	.	.
.	.	.	.	4A-/	.	4A-/	.	.	.	.	.	.	.	.	.	.	.	.	.	2e-\	.	2g\	.	2ee-\	.	.
.	.	.	.	4B-/	.	4B-/	.	.	.	.	.	.	.	.	.	.	.	.	.	.	.	.	.	.	.	.
.	.	.	.	4B-/	.	4B-/	.	.	.	.	.	.	.	.	.	.	.	.	.	4B-/	.	4f\	.	4dd\	.	.
=9	=9	=9	=9	=9	=9	=9	=9	=9	=9	=9	=9	=9	=9	=9	=9	=9	=9	=9	=9	=9	=9	=9	=9	=9	=9	=9
*	*	*	*	*	*	*	*	*	*ij	*	*	*ij	*	*	*	*	*	*ij	*	*	*	*	*	*	*	*
!	!	!	!	!	!LO:DY:a	!	!LO:DY:a	!	!	!	!	!	!	!	!	!	!	!	!	!	!	!LO:TX:a:Bi:t=Tutti	!	!	!LO:DY:a	!
4E-\	.	4e-\	.	4e- 4G/	f	4ee- 4e-/	f	2.E-\	glo-	.	2.B-\	glo-	.	2.g\	glo-	.	2.ee-\	Glo-	.	4G/	.	4e-\	.	4ee-\	f	1ryy
4r	.	4r	.	16G/LL	.	16e-/LL	.	.	.	.	.	.	.	.	.	.	.	.	.	4r	.	4r	.	4r	.	.
.	.	.	.	16A-/	.	16f/	.	.	.	.	.	.	.	.	.	.	.	.	.	.	.	.	.	.	.	.
.	.	.	.	16B-/	.	16g/	.	.	.	.	.	.	.	.	.	.	.	.	.	.	.	.	.	.	.	.
.	.	.	.	16A-/JJ	.	16f/JJ	.	.	.	.	.	.	.	.	.	.	.	.	.	.	.	.	.	.	.	.
!	!	!	!	!	!	!	!	!	!	!	!	!	!	!	!	!	!	!	!	!	!	!	!	!	!LO:DY:a	!
4E-\	.	4e-\	.	4G/	.	4e- 4G/	.	.	.	.	.	.	.	.	.	.	.	.	.	4G/	.	4e-\	.	4ee-\	f	.
4r	.	4r	.	16G/LL	.	16e-/LL	.	4E-\	-ri-	.	4B-\	-ri-	.	4g\	-ri-	.	4ee-\	-ri-	.	4r	.	4r	.	4b-\	.	.
.	.	.	.	16A-/	.	16f/	.	.	.	.	.	.	.	.	.	.	.	.	.	.	.	.	.	.	.	.
.	.	.	.	16B-/	.	16g/	.	.	.	.	.	.	.	.	.	.	.	.	.	.	.	.	.	.	.	.
.	.	.	.	16A-/JJ	.	16f/JJ	.	.	.	.	.	.	.	.	.	.	.	.	.	.	.	.	.	.	.	.
=10	=10	=10	=10	=10	=10	=10	=10	=10	=10	=10	=10	=10	=10	=10	=10	=10	=10	=10	=10	=10	=10	=10	=10	=10	=10	=10
4E-\	.	4e-\	.	4G/	.	4e-/	.	4E-\	-a	.	4B-\	-a	.	4g\	-a	.	4ee-\	-a	.	4G/	.	4e-\	.	4g/	.	1ryy
*	*	*	*	*	*	*	*	*	*	*	*	*Xij	*	*	*	*	*	*	*	*	*	*	*	*	*	*
4E-\	.	4e-\	.	4G/	.	4e-/	.	4r	.	.	4r	.	.	4r	.	.	4r	.	.	4G/	.	4e-\	.	4g/	.	.
!	!	!LO:TX:t=P:problem:w źródle zamazana pauza	!	!	!	!	!	!	!	!	!	!	!	!	!	!	!	!	!	!	!	!	!	!	!	!
4E-\	.	4e-\	.	4G/	.	4e-/	.	2r	.	.	2r	.	.	2r	.	.	2r	.	.	4G/	.	4e-\	.	4g/	.	.
16B-\LL	.	16b-\LL	.	4r	.	4r	.	.	.	.	.	.	.	.	.	.	.	.	.	4r	.	4r	.	4r	.	.
16A-\	.	16a-\	.	.	.	.	.	.	.	.	.	.	.	.	.	.	.	.	.	.	.	.	.	.	.	.
16G\	.	16g\	.	.	.	.	.	.	.	.	.	.	.	.	.	.	.	.	.	.	.	.	.	.	.	.
16F\JJ	.	16f\JJ	.	.	.	.	.	.	.	.	.	.	.	.	.	.	.	.	.	.	.	.	.	.	.	.
=11	=11	=11	=11	=11	=11	=11	=11	=11	=11	=11	=11	=11	=11	=11	=11	=11	=11	=11	=11	=11	=11	=11	=11	=11	=11	=11
*tremolo	*	*tremolo	*	*tremolo	*	*	*	*	*	*	*	*	*	*	*ij	*	*	*	*	*	*	*	*	*	*	*
8E-\L	.	8e-\L	.	16g/LL	.	4ee- 4e-/	.	4E-\	glo-	.	4B-\	glo-	.	4g\	glo-	.	4b-\	glo-	.	1G	.	1e-	.	1g	.	1ryy
.	.	.	.	16b-/	.	.	.	.	.	.	.	.	.	.	.	.	.	.	.	.	.	.	.	.	.	.
8E-\	.	8e-\	.	16g/	.	.	.	.	.	.	.	.	.	.	.	.	.	.	.	.	.	.	.	.	.	.
.	.	.	.	16b-/	.	.	.	.	.	.	.	.	.	.	.	.	.	.	.	.	.	.	.	.	.	.
8E-\	.	8e-\	.	16g/	.	16ee-\LL	.	8E-\	-ri-	.	8e-\	-ri-	.	8g\	-ri-	.	8b-\	-ri-	.	.	.	.	.	.	.	.
.	.	.	.	16b-/	.	16ff\	.	.	.	.	.	.	.	.	.	.	.	.	.	.	.	.	.	.	.	.
8E-\J	.	8e-\J	.	16g/	.	16gg\	.	8E-\	-a	.	8e-\	-a	.	8g\	-a	.	8b-\	-a	.	.	.	.	.	.	.	.
.	.	.	.	16b-/JJ	.	16ff\JJ	.	.	.	.	.	.	.	.	.	.	.	.	.	.	.	.	.	.	.	.
*	*	*	*	*	*	*	*	*	*Xij	*	*	*	*	*	*Xij	*	*	*Xij	*	*	*	*	*	*	*	*
8E-\L	.	8e-\L	.	16g/LL	.	8ee-\L	.	4E-\	in	.	4e-\	in	.	4g\	in	.	4b-\	in	.	.	.	.	.	.	.	.
.	.	.	.	16b-/	.	.	.	.	.	.	.	.	.	.	.	.	.	.	.	.	.	.	.	.	.	.
8E-\	.	8e-\	.	16g/	.	8ee-\	.	.	.	.	.	.	.	.	.	.	.	.	.	.	.	.	.	.	.	.
.	.	.	.	16b-/	.	.	.	.	.	.	.	.	.	.	.	.	.	.	.	.	.	.	.	.	.	.
!	!	!	!	!	!	!	!	!	!	!	!	!	!	!	!	!	!LO:TX:t=P:problem:zagięta strona, skan niewyraźny	!	!	!	!	!	!	!	!	!
8E-\	.	8e-\	.	16g/	.	8ff\	.	4E-\	ex-	.	4e-\	ex-	.	4g\	ex-	.	4b-\	.	.	.	.	.	.	.	.	.
.	.	.	.	16b-/	.	.	.	.	.	.	.	.	.	.	.	.	.	.	.	.	.	.	.	.	.	.
8E-\J	.	8e-\J	.	16g/	.	8gg\J	.	.	.	.	.	.	.	.	.	.	.	.	.	.	.	.	.	.	.	.
.	.	.	.	16b-/JJ	.	.	.	.	.	.	.	.	.	.	.	.	.	.	.	.	.	.	.	.	.	.
=12	=12	=12	=12	=12	=12	=12	=12	=12	=12	=12	=12	=12	=12	=12	=12	=12	=12	=12	=12	=12	=12	=12	=12	=12	=12	=12
8D\L	.	8d\L	.	16f/LL	.	8gg\L	.	4D\	-cel-	.	4B-\	-cel-	.	4f\	-cel-	.	4r	.	.	2.B-/	.	2.f\	.	1b-	.	1ryy
.	.	.	.	16b-/	.	.	.	.	.	.	.	.	.	.	.	.	.	.	.	.	.	.	.	.	.	.
8D\	.	8d\	.	16f/	.	8ff\	.	.	.	.	.	.	.	.	.	.	.	.	.	.	.	.	.	.	.	.
.	.	.	.	16b-/	.	.	.	.	.	.	.	.	.	.	.	.	.	.	.	.	.	.	.	.	.	.
8D\	.	8d\	.	16f/	.	8ff\	.	4D\	-sis	.	4B-\	-sis	.	4f\	-sis	.	4b-\	sis	.	.	.	.	.	.	.	.
.	.	.	.	16b-/	.	.	.	.	.	.	.	.	.	.	.	.	.	.	.	.	.	.	.	.	.	.
8D\J	.	8d\J	.	16f/	.	8ff\J	.	.	.	.	.	.	.	.	.	.	.	.	.	.	.	.	.	.	.	.
.	.	.	.	16b-/JJ	.	.	.	.	.	.	.	.	.	.	.	.	.	.	.	.	.	.	.	.	.	.
*Xtremolo	*	*Xtremolo	*	*Xtremolo	*	*	*	*	*	*	*	*	*	*	*	*	*	*	*	*	*	*	*	*	*	*
8D\L	.	8d\L	.	16f/LL	.	4ff\	.	4D\	De-	.	4B-\	De-	.	4f\	De-	.	4b-\	De-	.	.	.	.	.	.	.	.
.	.	.	.	16b-/	.	.	.	.	.	.	.	.	.	.	.	.	.	.	.	.	.	.	.	.	.	.
8D\	.	8d\	.	16f/	.	.	.	.	.	.	.	.	.	.	.	.	.	.	.	.	.	.	.	.	.	.
.	.	.	.	16b-/JJ	.	.	.	.	.	.	.	.	.	.	.	.	.	.	.	.	.	.	.	.	.	.
8E-\	.	8e-\	.	16g/LL	.	8gg\L	.	4E-\	-o	.	4B-\	-o	.	4g\	-o	.	4b-\	-o	.	8e-\L	.	8g\L	.	.	.	.
.	.	.	.	16b-/	.	.	.	.	.	.	.	.	.	.	.	.	.	.	.	.	.	.	.	.	.	.
8E-\J	.	8e-\J	.	16g/	.	8bb-\J	.	.	.	.	.	.	.	.	.	.	.	.	.	8g\J	.	8b-\J	.	.	.	.
.	.	.	.	16b-/JJ	.	.	.	.	.	.	.	.	.	.	.	.	.	.	.	.	.	.	.	.	.	.
=13	=13	=13	=13	=13	=13	=13	=13	=13	=13	=13	=13	=13	=13	=13	=13	=13	=13	=13	=13	=13	=13	=13	=13	=13	=13	=13
*tremolo	*	*tremolo	*	*tremolo	*	*	*	*	*	*	*	*	*	*	*	*	*	*	*	*	*	*	*	*	*	*
8A-\L	.	8A-/L	.	16f/LL	.	8bb-\L	.	4A-\	et	.	4f\	et	.	4a-\	et	.	4cc\	et	.	8g\L	.	8b-\L	.	8gg\L	.	1ryy
.	.	.	.	16f/	.	.	.	.	.	.	.	.	.	.	.	.	.	.	.	.	.	.	.	.	.	.
8A-\	.	8A-/	.	16f/	.	8aa-\J	.	.	.	.	.	.	.	.	.	.	.	.	.	8f\J	.	8a-\J	.	8ff\J	.	.
.	.	.	.	16f/JJ	.	.	.	.	.	.	.	.	.	.	.	.	.	.	.	.	.	.	.	.	.	.
8A-\	.	8A-/	.	16e-/LL	.	2gg\	.	4A-\	in	.	4e-\	in	.	4g\	in	.	4cc\	in	.	2e-\	.	2g\	.	2ee-\	.	.
.	.	.	.	16e-/	.	.	.	.	.	.	.	.	.	.	.	.	.	.	.	.	.	.	.	.	.	.
8A-\J	.	8A-/J	.	16e-/	.	.	.	.	.	.	.	.	.	.	.	.	.	.	.	.	.	.	.	.	.	.
.	.	.	.	16e-/	.	.	.	.	.	.	.	.	.	.	.	.	.	.	.	.	.	.	.	.	.	.
*Xtremolo	*	*	*	*	*	*	*	*	*	*	*	*	*	*	*	*	*	*	*	*	*	*	*	*	*	*
!LO:TX:t=P:problem:mixed beam	!	!	!	!	!	!	!	!	!	!	!	!	!	!	!	!	!	!	!	!	!	!	!	!	!	!
8B-\L	.	8B-/L	.	16e-/	.	.	.	4B-\	ter-	.	4e-\	ter-	.	4g\	ter-	.	4b-\	ter-	.	.	.	.	.	.	.	.
.	.	.	.	16e-/	.	.	.	.	.	.	.	.	.	.	.	.	.	.	.	.	.	.	.	.	.	.
8B-\	.	8B-/	.	16e-/	.	.	.	.	.	.	.	.	.	.	.	.	.	.	.	.	.	.	.	.	.	.
.	.	.	.	16e-/JJ	.	.	.	.	.	.	.	.	.	.	.	.	.	.	.	.	.	.	.	.	.	.
8BB-/	.	8B-/	.	16d/LL	.	4ff\	.	4BB-/	-ra	.	4d\	-ra	.	4f\	-ra	.	4b-\	-ra	.	4B-/	.	4f\	.	4dd\	.	.
.	.	.	.	16d/	.	.	.	.	.	.	.	.	.	.	.	.	.	.	.	.	.	.	.	.	.	.
8BB-/J	.	8B-/J	.	16d/	.	.	.	.	.	.	.	.	.	.	.	.	.	.	.	.	.	.	.	.	.	.
.	.	.	.	16d/JJ	.	.	.	.	.	.	.	.	.	.	.	.	.	.	.	.	.	.	.	.	.	.
=14	=14	=14	=14	=14	=14	=14	=14	=14	=14	=14	=14	=14	=14	=14	=14	=14	=14	=14	=14	=14	=14	=14	=14	=14	=14	=14
*tremolo	*	*	*	*	*	*	*	*	*	*	*	*	*	*	*	*	*	*	*	*	*	*	*	*	*	*
!	!	!	!	!	!	!	!	!	!	!	!LO:SIC:v:l:s=pax	!	!	!	!	!	!	!	!	!	!	!	!	!	!	!
8E-\L	.	8e-\L	.	16g/LL	.	16ee-\LL	.	4E-\	pax	.	4e-\	pox	.	4g\	pax	.	4b-\	pax	.	1G	.	1e-	.	1ee-	.	1ryy
.	.	.	.	16b-/	.	16ff\	.	.	.	.	.	.	.	.	.	.	.	.	.	.	.	.	.	.	.	.
8E-\	.	8e-\	.	16g/	.	16gg\	.	.	.	.	.	.	.	.	.	.	.	.	.	.	.	.	.	.	.	.
.	.	.	.	16b-/	.	16ff\JJ	.	.	.	.	.	.	.	.	.	.	.	.	.	.	.	.	.	.	.	.
8E-\	.	8e-\	.	16g/	.	8ee-\L	.	4E-\	ho-	.	4e-\	ho-	.	4g\	ho-	.	4b-\	ho-	.	.	.	.	.	.	.	.
.	.	.	.	16b-/	.	.	.	.	.	.	.	.	.	.	.	.	.	.	.	.	.	.	.	.	.	.
8E-\J	.	8e-\J	.	16g/	.	8ee-\J	.	.	.	.	.	.	.	.	.	.	.	.	.	.	.	.	.	.	.	.
.	.	.	.	16b-/JJ	.	.	.	.	.	.	.	.	.	.	.	.	.	.	.	.	.	.	.	.	.	.
8E-\L	.	8e-\L	.	16g/LL	.	8ee-\L	.	4E-\	-mi-	.	4e-\	-mi-	.	4g\	-mi-	.	4b-\	-mi-	.	.	.	.	.	.	.	.
.	.	.	.	16b-/	.	.	.	.	.	.	.	.	.	.	.	.	.	.	.	.	.	.	.	.	.	.
8E-\	.	8e-\	.	16g/	.	8ee-\	.	.	.	.	.	.	.	.	.	.	.	.	.	.	.	.	.	.	.	.
.	.	.	.	16b-/	.	.	.	.	.	.	.	.	.	.	.	.	.	.	.	.	.	.	.	.	.	.
8E-\	.	8e-\	.	16g/	.	8ff\	.	8E-\	-ni-	.	8e-\	-ni-	.	8g\	-ni-	.	8b-\	-ni-	.	.	.	.	.	.	.	.
.	.	.	.	16b-/	.	.	.	.	.	.	.	.	.	.	.	.	.	.	.	.	.	.	.	.	.	.
8E-\J	.	8e-\J	.	16g/	.	8gg\J	.	8E-\	-bus	.	8e-\	-bus	.	8g\	-bus	.	8b-\	-bus	.	.	.	.	.	.	.	.
.	.	.	.	16b-/JJ	.	.	.	.	.	.	.	.	.	.	.	.	.	.	.	.	.	.	.	.	.	.
=15	=15	=15	=15	=15	=15	=15	=15	=15	=15	=15	=15	=15	=15	=15	=15	=15	=15	=15	=15	=15	=15	=15	=15	=15	=15	=15
8D\L	.	8d\L	.	16f/LL	.	8gg\L	.	4D\	bo-	.	4B-\	bo-	.	4f\	bo-	.	2b-\	bo-	.	2.B-/	.	2.f\	.	2.dd\	.	1ryy
.	.	.	.	16b-/	.	.	.	.	.	.	.	.	.	.	.	.	.	.	.	.	.	.	.	.	.	.
8D\	.	8d\	.	16f/	.	8ff\	.	.	.	.	.	.	.	.	.	.	.	.	.	.	.	.	.	.	.	.
.	.	.	.	16b-/	.	.	.	.	.	.	.	.	.	.	.	.	.	.	.	.	.	.	.	.	.	.
8D\	.	8d\	.	16f/	.	8een\	.	4D\	-nae	.	4B-\	-nae	.	4f\	-nae	.	.	.	.	.	.	.	.	.	.	.
.	.	.	.	16b-/	.	.	.	.	.	.	.	.	.	.	.	.	.	.	.	.	.	.	.	.	.	.
8D\J	.	8d\J	.	16f/	.	8ff\J	.	.	.	.	.	.	.	.	.	.	.	.	.	.	.	.	.	.	.	.
.	.	.	.	16b-/JJ	.	.	.	.	.	.	.	.	.	.	.	.	.	.	.	.	.	.	.	.	.	.
*Xtremolo	*	*Xtremolo	*	*Xtremolo	*	*	*	*	*	*	*	*	*	*	*	*	*	*	*	*	*	*	*	*	*	*
8D\L	.	8d\L	.	16f/LL	.	8ff\L	.	4D\	vo-	.	4B-\	vo-	.	4f\	vo-	.	2b-\	-nae	.	.	.	.	.	.	.	.
.	.	.	.	16b-/	.	.	.	.	.	.	.	.	.	.	.	.	.	.	.	.	.	.	.	.	.	.
8D\	.	8d\	.	16f/	.	8aa-\	.	.	.	.	.	.	.	.	.	.	.	.	.	.	.	.	.	.	.	.
.	.	.	.	16b-/JJ	.	.	.	.	.	.	.	.	.	.	.	.	.	.	.	.	.	.	.	.	.	.
8E-\	.	8e-\	.	16g/LL	.	8gg\	.	4E-\	-lun-	.	4e-\	-lun-	.	4g\	-lun-	.	.	.	.	8e-\L	.	8g\L	.	8ee-\L	.	.
.	.	.	.	16b-/	.	.	.	.	.	.	.	.	.	.	.	.	.	.	.	.	.	.	.	.	.	.
8E-\J	.	8e-\J	.	16g/	.	8bb-\J	.	.	.	.	.	.	.	.	.	.	.	.	.	8g\J	.	8b-\J	.	8gg\J	.	.
.	.	.	.	16b-/JJ	.	.	.	.	.	.	.	.	.	.	.	.	.	.	.	.	.	.	.	.	.	.
=16	=16	=16	=16	=16	=16	=16	=16	=16	=16	=16	=16	=16	=16	=16	=16	=16	=16	=16	=16	=16	=16	=16	=16	=16	=16	=16
*tremolo	*	*tremolo	*	*tremolo	*	*	*	*	*	*	*	*	*	*	*	*	*	*	*	*	*	*	*	*	*	*
8A-\L	.	8A-/L	.	16f/LL	.	8bb-\L	.	2A-\	-ta-	.	4f\	-ta-	.	4f\	-ta-	.	8b-\L	vo-	.	8g\L	.	8b-\L	.	8gg\L	.	1ryy
.	.	.	.	16f/	.	.	.	.	.	.	.	.	.	.	.	.	.	.	.	.	.	.	.	.	.	.
8A-\	.	8A-/	.	16f/	.	8aa-\J	.	.	.	.	.	.	.	.	.	.	8a-\J	.	.	8f\J	.	8a-\J	.	8ff\J	.	.
.	.	.	.	16f/JJ	.	.	.	.	.	.	.	.	.	.	.	.	.	.	.	.	.	.	.	.	.	.
8A-\	.	8A-/	.	16e-/LL	.	2gg\	.	.	.	.	2e-\	.	.	2e-\	.	.	4a-/	-lun-	.	2e-\	.	2g\	.	2ee-\	.	.
.	.	.	.	16e-/	.	.	.	.	.	.	.	.	.	.	.	.	.	.	.	.	.	.	.	.	.	.
8A-\J	.	8A-/J	.	16e-/	.	.	.	.	.	.	.	.	.	.	.	.	.	.	.	.	.	.	.	.	.	.
.	.	.	.	16e-/	.	.	.	.	.	.	.	.	.	.	.	.	.	.	.	.	.	.	.	.	.	.
*Xtremolo	*	*	*	*	*	*	*	*	*	*	*	*	*	*	*	*	*	*	*	*	*	*	*	*	*	*
!LO:TX:t=P:problem:mixed beam	!	!	!	!	!	!	!	!	!	!	!	!	!	!	!	!	!	!	!	!	!	!	!	!	!	!
8B-\L	.	8B-/L	.	16e-/	.	.	.	4B-\	.	.	.	.	.	.	.	.	(4g/	-ta-	.	.	.	.	.	.	.	.
.	.	.	.	16e-/	.	.	.	.	.	.	.	.	.	.	.	.	.	.	.	.	.	.	.	.	.	.
8B-\	.	8B-/	.	16e-/	.	.	.	.	.	.	.	.	.	.	.	.	.	.	.	.	.	.	.	.	.	.
.	.	.	.	16e-/JJ	.	.	.	.	.	.	.	.	.	.	.	.	.	.	.	.	.	.	.	.	.	.
8BB-/	.	8B-/	.	16a-/LL	.	4ff\	.	4BB-/	.	.	4d\	.	.	4d\	.	.	4f/)	.	.	4B-/	.	4f\	.	4dd\	.	.
.	.	.	.	16a-/	.	.	.	.	.	.	.	.	.	.	.	.	.	.	.	.	.	.	.	.	.	.
8BB-/J	.	8B-/J	.	16a-/	.	.	.	.	.	.	.	.	.	.	.	.	.	.	.	.	.	.	.	.	.	.
.	.	.	.	16a-/JJ	.	.	.	.	.	.	.	.	.	.	.	.	.	.	.	.	.	.	.	.	.	.
*	*	*Xtremolo	*	*Xtremolo	*	*	*	*	*	*	*	*	*	*	*	*	*	*	*	*	*	*	*	*	*	*
=17	=17	=17	=17	=17	=17	=17	=17	=17	=17	=17	=17	=17	=17	=17	=17	=17	=17	=17	=17	=17	=17	=17	=17	=17	=17	=17
4E-\	.	4e-\	.	4g/	.	4ee-\	.	4E-\	-tis	.	4B-\	-tis	.	4e-\	-tis	.	4e-/	-tis	.	4G/	.	4e-\	.	4ee-\	.	1ryy
16B-\LL	.	16b-\LL	.	16b-/LL	.	16b-/LL	.	4r	.	.	4r	.	.	4r	.	.	4r	.	.	4r	.	4r	.	4r	.	.
16A-\	.	16a-\	.	16a-/	.	16a-/	.	.	.	.	.	.	.	.	.	.	.	.	.	.	.	.	.	.	.	.
16G\	.	16g\	.	16g/	.	16g/	.	.	.	.	.	.	.	.	.	.	.	.	.	.	.	.	.	.	.	.
16F\JJ	.	16f\JJ	.	16f/JJ	.	16f/JJ	.	.	.	.	.	.	.	.	.	.	.	.	.	.	.	.	.	.	.	.
4E-\	.	4e-\	.	4e-/	.	4e-/	.	2r	.	.	2r	.	.	2r	.	.	2r	.	.	2r	.	2r	.	2r	.	.
4r	.	4r	.	4r	.	8ee-\L	p	.	.	.	.	.	.	.	.	.	.	.	.	.	.	.	.	.	.	.
.	.	.	.	.	.	8cc\J	.	.	.	.	.	.	.	.	.	.	.	.	.	.	.	.	.	.	.	.
=18	=18	=18	=18	=18	=18	=18	=18	=18	=18	=18	=18	=18	=18	=18	=18	=18	=18	=18	=18	=18	=18	=18	=18	=18	=18	=18
!	!LO:DY:a	!	!LO:DY:a	!	!LO:DY:a	!	!	!	!	!	!	!	!	!	!	!LO:DY:a	!	!	!LO:DY:a	!LO:TX:a:t=6	!	!LO:TX:a:t=6	!	!LO:TX:a:t=6	!	!
4r	p	4r	p	4r	p	8cc\L	.	4r	.	.	4r	.	.	4r	.	p	4r	.	p	00r	.	00r	.	00r	.	1ryy
.	.	.	.	.	.	8b-\J	.	.	.	.	.	.	.	.	.	.	.	.	.	.	.	.	.	.	.	.
!	!	!	!	!	!	!	!	!	!	!LO:DY:a	!	!	!LO:DY:a	!	!	!	!	!	!	!	!	!	!	!	!	!
4D\	.	4f\	.	4a-/	.	2b-\	.	4D\	pax	p	4B-\	pax	p	4f\	pax	.	4a-\	pax	.	.	.	.	.	.	.	.
*	*	*	*	*	*	*	*	*	*ij	*	*	*ij	*	*	*ij	*	*	*ij	*	*	*	*	*	*	*	*
4E-\	.	4e-\	.	4g/	.	.	.	4E-\	pax	.	4B-\	pax	.	4e-\	pax	.	4g\	pax	.	.	.	.	.	.	.	.
*	*	*	*	*	*	*	*	*	*Xij	*	*	*Xij	*	*	*Xij	*	*	*Xij	*	*	*	*	*	*	*	*
4r	.	4r	.	4r	.	8ee-\L	.	4r	.	.	4r	.	.	4r	.	.	4r	.	.	.	.	.	.	.	.	.
.	.	.	.	.	.	8cc\J	.	.	.	.	.	.	.	.	.	.	.	.	.	.	.	.	.	.	.	.
=19	=19	=19	=19	=19	=19	=19	=19	=19	=19	=19	=19	=19	=19	=19	=19	=19	=19	=19	=19	=19	=19	=19	=19	=19	=19	=19
4r	.	4r	.	4r	.	8cc\L	.	4r	.	.	4r	.	.	4r	.	.	4r	.	.	.	.	.	.	.	.	1ryy
.	.	.	.	.	.	8b-\J	.	.	.	.	.	.	.	.	.	.	.	.	.	.	.	.	.	.	.	.
*	*	*	*	*	*	*	*	*	*ij	*	*	*	*	*	*	*	*	*	*	*	*	*	*	*	*	*
4D\	.	4f\	.	4a-/	.	2b-\	.	4D\	pax	.	2B-\	bo-	.	4f\	bo-	.	4a-\	bo-	.	.	.	.	.	.	.	.
*	*	*	*	*	*	*	*	*	*Xij	*	*	*	*	*	*	*	*	*	*	*	*	*	*	*	*	*
4E-\	.	4e-\	.	4g/	.	.	.	4E-\	.	.	.	.	.	4e-\	-nae	.	4g\	-nae	.	.	.	.	.	.	.	.
4G\	.	4G/	.	4r	.	8b-\L	.	(4G\	bo-	.	4B-\	-nae	.	[4e-\	bo-	.	8b-\L	bo-	.	.	.	.	.	.	.	.
.	.	.	.	.	.	8ee-\J	.	.	.	.	.	.	.	.	.	.	8ee-\J	.	.	.	.	.	.	.	.	.
=20	=20	=20	=20	=20	=20	=20	=20	=20	=20	=20	=20	=20	=20	=20	=20	=20	=20	=20	=20	=20	=20	=20	=20	=20	=20	=20
4A-\	.	2A-/	.	2e-/	.	8dd\L	.	4A-\)	.	.	4A-\	vo-	.	4e-\]	.	.	8dd\L	.	.	.	.	.	.	.	.	1ryy
.	.	.	.	.	.	8cc\	.	.	.	.	.	.	.	.	.	.	8cc\J	.	.	.	.	.	.	.	.	.
4r	.	.	.	.	.	8b-\	.	4A-\	-nae	.	4c\	-lun-	.	4e-\	-nae	.	8b-\L	-nae	.	.	.	.	.	.	.	.
.	.	.	.	.	.	8cc\J	.	.	.	.	.	.	.	.	.	.	8cc\J	.	.	.	.	.	.	.	.	.
4B-\	.	4B-/	.	(8g/L	.	8b-/L	.	4B-\	vo-	.	4B-\	-t(a)-	.	8g\L	vo-	.	8b-\L	vo-	.	.	.	.	.	.	.	.
.	.	.	.	8f/)	.	8g/	.	.	.	.	.	.	.	8e-\J	.	.	8g\J	.	.	.	.	.	.	.	.	.
4BB-/	.	4B-/	.	(8f/	.	8a-/	.	4BB-/	-lun-	.	4B-\	.	.	8f\L	-lun-	.	8a-\L	-lun-	.	.	.	.	.	.	.	.
.	.	.	.	8d/J)	.	8f/J	.	.	.	.	.	.	.	8d\J	.	.	8f\J	.	.	.	.	.	.	.	.	.
=21	=21	=21	=21	=21	=21	=21	=21	=21	=21	=21	=21	=21	=21	=21	=21	=21	=21	=21	=21	=21	=21	=21	=21	=21	=21	=21
4E-\	.	2e-\	.	(8f/L	.	8a-/L	.	2E-\	-ta-	.	2B-\	.	.	8f\L	-ta-	.	8a-\L	-ta-	.	.	.	.	.	.	.	1ryy
.	.	.	.	8e-/)	.	8g/	.	.	.	.	.	.	.	8e-\	.	.	8g\J	.	.	.	.	.	.	.	.	.
4EE-/	.	.	.	(8a-/	.	8cc/	.	.	.	.	.	.	.	8a-\	.	.	8cc\L	.	.	.	.	.	.	.	.	.
.	.	.	.	8g/J)	.	8b-/J	.	.	.	.	.	.	.	8g\J	.	.	8b-\J	.	.	.	.	.	.	.	.	.
4r	.	4r	.	4g/	.	4b-/	.	4E-\	-tis	.	4B-\	-tis	.	4g\	-tis	.	4b-\	-tis	.	.	.	.	.	.	.	.
4G\	.	4G/	.	4e-/	.	8gg\L	.	4r	.	.	4r	.	.	4r	.	.	4r	.	.	.	.	.	.	.	.	.
.	.	.	.	.	.	8ee-\J	.	.	.	.	.	.	.	.	.	.	.	.	.	.	.	.	.	.	.	.
=22	=22	=22	=22	=22	=22	=22	=22	=22	=22	=22	=22	=22	=22	=22	=22	=22	=22	=22	=22	=22	=22	=22	=22	=22	=22	=22
*	*	*	*	*	*	*	*	*	*	*	*	*ij	*	*	*ij	*	*	*	*	*	*	*	*	*	*	*
4A-\	.	2A-/	.	2e-/	.	8dd\L	.	4A-\	bo-	.	4A-\	bo-	.	4e-\	bo-	.	8dd\L	bo-	.	0r	.	0r	.	0r	.	1ryy
.	.	.	.	.	.	8cc\	.	.	.	.	.	.	.	.	.	.	8cc\J	.	.	.	.	.	.	.	.	.
4r	.	.	.	.	.	8b-\	.	4A-\	-nae	.	4c\	-nae	.	4e-\	-nae	.	8b-\L	-nae	.	.	.	.	.	.	.	.
.	.	.	.	.	.	8cc\J	.	.	.	.	.	.	.	.	.	.	8cc\J	.	.	.	.	.	.	.	.	.
4B-\	.	2B-/	.	8g/L	.	8b-/L	.	4B-\	vo-	.	4B-\	vo-	.	8g\L	vo-	.	8b-\L	vo-	.	.	.	.	.	.	.	.
.	.	.	.	8e-/	.	8g/	.	.	.	.	.	.	.	8e-\J	.	.	8g\J	.	.	.	.	.	.	.	.	.
4BB-/	.	.	.	8f/	.	8a-/	.	4BB-/	-lun-	.	4B-\	-lun-	.	8f\L	-lun-	.	8a-\L	-lun-	.	.	.	.	.	.	.	.
.	.	.	.	8d/J	.	8f/J	.	.	.	.	.	.	.	8d\J	.	.	8f\J	.	.	.	.	.	.	.	.	.
=23	=23	=23	=23	=23	=23	=23	=23	=23	=23	=23	=23	=23	=23	=23	=23	=23	=23	=23	=23	=23	=23	=23	=23	=23	=23	=23
*	*	*	*	*	*	*Xtuplet	*	*	*	*	*	*	*	*	*	*	*	*	*	*	*	*	*	*	*	*
4E-\	.	4e-\	.	8e-/L	.	12g/L	.	2E-\	-ta-	.	4B-\	-ta-	.	4e-\	-ta-	.	8g/L	-ta-	.	.	.	.	.	.	.	1ryy
.	.	.	.	.	.	12f/	.	.	.	.	.	.	.	.	.	.	.	.	.	.	.	.	.	.	.	.
.	.	.	.	8B-/	.	.	.	.	.	.	.	.	.	.	.	.	8f/J	.	.	.	.	.	.	.	.	.
.	.	.	.	.	.	12e-/J	.	.	.	.	.	.	.	.	.	.	.	.	.	.	.	.	.	.	.	.
4EE-/	.	4e-\	.	8G/	.	8e-/L	.	.	.	.	4G/	-tis	.	4e-\	-tis	.	4e-/	-tis	.	.	.	.	.	.	.	.
.	.	.	.	8G/J	.	8e-/J	.	.	.	.	.	.	.	.	.	.	.	.	.	.	.	.	.	.	.	.
*	*	*	*	*	*	*	*	*	*	*	*	*Xij	*	*	*Xij	*	*	*	*	*	*	*	*	*	*	*
4EE-/	.	4e-\	.	4G/	.	4e-/	.	4E-\	-tis	.	2r	.	.	2r	.	.	2r	.	.	.	.	.	.	.	.	.
4r	.	4r	.	4r	.	4r	.	4r	.	.	.	.	.	.	.	.	.	.	.	.	.	.	.	.	.	.
=24	=24	=24	=24	=24	=24	=24	=24	=24	=24	=24	=24	=24	=24	=24	=24	=24	=24	=24	=24	=24	=24	=24	=24	=24	=24	=24
*	*	*	*	*tremolo	*	*	*	*	*	*	*	*	*	*	*	*	*	*	*	*	*	*	*	*	*	*
!	!	!	!	!	!LO:DY:a	!	!	!	!	!	!	!	!LO:DY:a	!	!	!	!	!	!	!	!	!	!	!	!	!
1r	.	1r	.	16g 16G/LL	ff	1r	.	1r	.	.	4r	.	f	4r	.	.	1r	.	.	4G/	.	4g\	.	1g	.	1ryy
.	.	.	.	16g 16G/	.	.	.	.	.	.	.	.	.	.	.	.	.	.	.	.	.	.	.	.	.	.
.	.	.	.	16g 16G/	.	.	.	.	.	.	.	.	.	.	.	.	.	.	.	.	.	.	.	.	.	.
.	.	.	.	16g 16G/	.	.	.	.	.	.	.	.	.	.	.	.	.	.	.	.	.	.	.	.	.	.
!	!	!	!	!	!	!	!	!	!	!	!	!	!	!	!	!LO:DY:a	!	!	!	!	!	!	!	!	!	!
.	.	.	.	16g 16G/	.	.	.	.	.	.	4G/	Lau-	.	4g\	Lau-	f	.	.	.	8G/L	.	8g\L	.	.	.	.
.	.	.	.	16g 16G/	.	.	.	.	.	.	.	.	.	.	.	.	.	.	.	.	.	.	.	.	.	.
.	.	.	.	16g 16G/	.	.	.	.	.	.	.	.	.	.	.	.	.	.	.	8G/J	.	8g\J	.	.	.	.
.	.	.	.	16g 16G/JJ	.	.	.	.	.	.	.	.	.	.	.	.	.	.	.	.	.	.	.	.	.	.
.	.	.	.	16g 16G/LL	.	.	.	.	.	.	4G/	-da-	.	4g\	-da-	.	.	.	.	4G/	.	4g\	.	.	.	.
.	.	.	.	16g 16G/	.	.	.	.	.	.	.	.	.	.	.	.	.	.	.	.	.	.	.	.	.	.
.	.	.	.	16g 16G/	.	.	.	.	.	.	.	.	.	.	.	.	.	.	.	.	.	.	.	.	.	.
.	.	.	.	16g 16G/	.	.	.	.	.	.	.	.	.	.	.	.	.	.	.	.	.	.	.	.	.	.
.	.	.	.	16g 16G/	.	.	.	.	.	.	4G/	-mus	.	4g\	-mus	.	.	.	.	4G/	.	4g\	.	.	.	.
.	.	.	.	16g 16G/	.	.	.	.	.	.	.	.	.	.	.	.	.	.	.	.	.	.	.	.	.	.
.	.	.	.	16g 16G/	.	.	.	.	.	.	.	.	.	.	.	.	.	.	.	.	.	.	.	.	.	.
.	.	.	.	16g 16G/JJ	.	.	.	.	.	.	.	.	.	.	.	.	.	.	.	.	.	.	.	.	.	.
=25	=25	=25	=25	=25	=25	=25	=25	=25	=25	=25	=25	=25	=25	=25	=25	=25	=25	=25	=25	=25	=25	=25	=25	=25	=25	=25
!	!	!LO:TX:t=P:problem:mixed beam	!	!	!	!	!	!	!	!LO:DY:a	!	!	!	!	!	!	!	!	!	!	!	!	!	!	!	!
!	!LO:DY:a	!	!LO:DY:a	!	!	!	!	!	!	!	!	!	!	!	!	!	!	!	!	!	!	!	!	!	!	!
4r	f	8G/L	f	16g 16G/LL	.	4r	.	4r	.	f	4G/	te	.	2g\	te	.	4r	.	.	1G	.	1g	.	1g	.	1ryy
.	.	.	.	16g 16G/	.	.	.	.	.	.	.	.	.	.	.	.	.	.	.	.	.	.	.	.	.	.
.	.	8G/	.	16g 16G/	.	.	.	.	.	.	.	.	.	.	.	.	.	.	.	.	.	.	.	.	.	.
.	.	.	.	16g 16G/	.	.	.	.	.	.	.	.	.	.	.	.	.	.	.	.	.	.	.	.	.	.
*	*	*	*	*	*	*	*	*	*	*	*	*ij	*	*	*	*	*	*	*	*	*	*	*	*	*	*
!	!	!	!	!	!	!	!LO:DY:a	!	!	!	!	!	!	!	!	!	!	!	!	!	!	!	!	!	!	!
4G\	.	8d\	.	16g 16G/	.	16bn\LL	f	4G\	Lau-	.	4d\	lau-	.	.	.	.	4bn\	Lau-	.	.	.	.	.	.	.	.
.	.	.	.	16g 16G/	.	16b\	.	.	.	.	.	.	.	.	.	.	.	.	.	.	.	.	.	.	.	.
.	.	8d\J	.	16g 16G/	.	16b\	.	.	.	.	.	.	.	.	.	.	.	.	.	.	.	.	.	.	.	.
.	.	.	.	16g 16G/JJ	.	16b\JJ	.	.	.	.	.	.	.	.	.	.	.	.	.	.	.	.	.	.	.	.
*	*	*	*	*	*	*tremolo	*	*	*	*	*	*	*	*	*	*	*	*	*	*	*	*	*	*	*	*
4E-\	.	8e-\L	.	16g 16G/LL	.	16cc\LL	.	4E-\	-da-	.	4e-\	-da-	.	4g\	be-	.	4cc\	-d(a)-	.	.	.	.	.	.	.	.
.	.	.	.	16g 16G/	.	16cc\	.	.	.	.	.	.	.	.	.	.	.	.	.	.	.	.	.	.	.	.
.	.	8e-\	.	16g 16G/	.	16cc\	.	.	.	.	.	.	.	.	.	.	.	.	.	.	.	.	.	.	.	.
.	.	.	.	16g 16G/	.	16cc\JJ	.	.	.	.	.	.	.	.	.	.	.	.	.	.	.	.	.	.	.	.
4BBn/	.	8f\	.	16g 16G/	.	16dd\LL	.	4BBn/	-mus	.	4f\	-mus	.	4g\	-ne-	.	4dd\	-m(us)	.	.	.	.	.	.	.	.
.	.	.	.	16g 16G/	.	16dd\	.	.	.	.	.	.	.	.	.	.	.	.	.	.	.	.	.	.	.	.
.	.	8f\J	.	16g 16G/	.	16dd\	.	.	.	.	.	.	.	.	.	.	.	.	.	.	.	.	.	.	.	.
.	.	.	.	16g 16G/JJ	.	16dd\JJ	.	.	.	.	.	.	.	.	.	.	.	.	.	.	.	.	.	.	.	.
=26	=26	=26	=26	=26	=26	=26	=26	=26	=26	=26	=26	=26	=26	=26	=26	=26	=26	=26	=26	=26	=26	=26	=26	=26	=26	=26
4C/	.	8e-\L	.	16g 16G/LL	.	16ee-\LL	.	4C/	te	.	4e-\	te	.	2g\	-di-	.	4ee-\	te	.	1G	.	1g	.	1g	.	1ryy
.	.	.	.	16g 16G/	.	16ee-\	.	.	.	.	.	.	.	.	.	.	.	.	.	.	.	.	.	.	.	.
.	.	8e-\	.	16g 16G/	.	16ee-\	.	.	.	.	.	.	.	.	.	.	.	.	.	.	.	.	.	.	.	.
.	.	.	.	16g 16G/	.	16ee-\JJ	.	.	.	.	.	.	.	.	.	.	.	.	.	.	.	.	.	.	.	.
*	*	*	*	*	*	*	*	*	*	*	*	*Xij	*	*	*	*	*	*	*	*	*	*	*	*	*	*
4G\	.	8d\	.	16g 16G/	.	16bn\LL	.	8G\	be-	.	8d\	be-	.	.	.	.	8b-\	be-	.	.	.	.	.	.	.	.
.	.	.	.	16g 16G/	.	16bn\	.	.	.	.	.	.	.	.	.	.	.	.	.	.	.	.	.	.	.	.
.	.	8d\J	.	16g 16G/	.	16bn\	.	8G\	-ne-	.	8d\	-ne-	.	.	.	.	8b-\	-ne-	.	.	.	.	.	.	.	.
.	.	.	.	16g 16G/JJ	.	16bn\JJ	.	.	.	.	.	.	.	.	.	.	.	.	.	.	.	.	.	.	.	.
4E-\	.	8e-\L	.	16g 16G/LL	.	16cc\LL	.	4E-\	-di-	.	4e-\	-di-	.	4g\	-ci-	.	4cc\	-di-	.	.	.	.	.	.	.	.
.	.	.	.	16g 16G/	.	16cc\	.	.	.	.	.	.	.	.	.	.	.	.	.	.	.	.	.	.	.	.
.	.	8e-\	.	16g 16G/	.	16cc\	.	.	.	.	.	.	.	.	.	.	.	.	.	.	.	.	.	.	.	.
.	.	.	.	16g 16G/	.	16cc\JJ	.	.	.	.	.	.	.	.	.	.	.	.	.	.	.	.	.	.	.	.
4BBn/	.	8f\	.	16g 16G/	.	16dd\LL	.	8BBn/	-ci-	.	8f\	-ci-	.	4g\	-mus	.	8dd\	-ci-	.	.	.	.	.	.	.	.
.	.	.	.	16g 16G/	.	16dd\	.	.	.	.	.	.	.	.	.	.	.	.	.	.	.	.	.	.	.	.
.	.	8f\J	.	16g 16G/	.	16dd\	.	8BB/	-mus	.	8f\	-mus	.	.	.	.	8dd\	-mus	.	.	.	.	.	.	.	.
.	.	.	.	16g 16G/JJ	.	16dd\JJ	.	.	.	.	.	.	.	.	.	.	.	.	.	.	.	.	.	.	.	.
*	*	*	*	*	*	*Xtremolo	*	*	*	*	*	*	*	*	*	*	*	*	*	*	*	*	*	*	*	*
=27	=27	=27	=27	=27	=27	=27	=27	=27	=27	=27	=27	=27	=27	=27	=27	=27	=27	=27	=27	=27	=27	=27	=27	=27	=27	=27
*tremolo	*	*tremolo	*	*	*	*	*	*	*	*	*	*	*	*	*	*	*	*	*	*	*	*	*	*	*	*
8C/L	.	8e-\L	.	16g 16G/LL	.	16ee-\LL	.	4C/	te	.	4e-\	te	.	4g\	te	.	4ee-\	te	.	4G/	.	4g\	.	2cc\	.	1ryy
.	.	.	.	16g 16G/	.	16ff\	.	.	.	.	.	.	.	.	.	.	.	.	.	.	.	.	.	.	.	.
8C/	.	8e-\	.	16g 16G/	.	16ee-\	.	.	.	.	.	.	.	.	.	.	.	.	.	.	.	.	.	.	.	.
.	.	.	.	16g 16G/	.	16ff\JJ	.	.	.	.	.	.	.	.	.	.	.	.	.	.	.	.	.	.	.	.
8C/	.	8e-\	.	16g 16G/	.	8gg\L	.	8C/	a-	.	8e-\	a-	.	8g\	a-	.	8cc\	a-	.	4r	.	4r	.	.	.	.
.	.	.	.	16g 16G/	.	.	.	.	.	.	.	.	.	.	.	.	.	.	.	.	.	.	.	.	.	.
8C/J	.	8e-\J	.	16g 16G/	.	8ff\J	.	8C/	-do-	.	8e-\	-do-	.	8g\	-do-	.	8cc\	-do-	.	.	.	.	.	.	.	.
.	.	.	.	16g 16G/JJ	.	.	.	.	.	.	.	.	.	.	.	.	.	.	.	.	.	.	.	.	.	.
*Xtremolo	*	*	*	*	*	*	*	*	*	*	*	*	*	*	*	*	*	*	*	*	*	*	*	*	*	*
8E-\L	.	8c\L	.	16g 16G/LL	.	8ee-\L	.	4E-\	-ra-	.	4c\	-ra-	.	4g\	-ra-	.	4cc\	-ra-	.	2r	.	2r	.	2b-\	.	.
.	.	.	.	16g 16G/	.	.	.	.	.	.	.	.	.	.	.	.	.	.	.	.	.	.	.	.	.	.
8E-\	.	8c\	.	16g 16G/	.	8dd\	.	.	.	.	.	.	.	.	.	.	.	.	.	.	.	.	.	.	.	.
.	.	.	.	16g 16G/	.	.	.	.	.	.	.	.	.	.	.	.	.	.	.	.	.	.	.	.	.	.
8En\	.	8c\	.	16g 16G/	.	8cc\	.	4En\	-mus	.	4c\	-mus	.	4g\	-mus	.	4b-\	-mus	.	.	.	.	.	.	.	.
.	.	.	.	16g 16G/	.	.	.	.	.	.	.	.	.	.	.	.	.	.	.	.	.	.	.	.	.	.
8E\J	.	8c\J	.	16g 16G/	.	8b-\J	.	.	.	.	.	.	.	.	.	.	.	.	.	.	.	.	.	.	.	.
.	.	.	.	16g 16G/JJ	.	.	.	.	.	.	.	.	.	.	.	.	.	.	.	.	.	.	.	.	.	.
=28	=28	=28	=28	=28	=28	=28	=28	=28	=28	=28	=28	=28	=28	=28	=28	=28	=28	=28	=28	=28	=28	=28	=28	=28	=28	=28
*	*	*	*	*	*	*^	*	*	*	*	*	*	*	*	*	*	*	*	*	*	*	*	*	*	*	*
*tremolo	*	*	*	*	*	*	*	*	*	*	*	*	*	*	*	*	*	*	*	*	*	*	*	*	*	*	*
8F\L	.	8c\L	.	16f/LL	.	4ff/	4an\	.	4F\	te	.	4c\	te	.	4f\	te	.	4an\	te	.	1f	.	1f	.	2a\	.	1ryy
.	.	.	.	16f/	.	.	.	.	.	.	.	.	.	.	.	.	.	.	.	.	.	.	.	.	.	.	.
8F\	.	8c\	.	16f/	.	.	.	.	.	.	.	.	.	.	.	.	.	.	.	.	.	.	.	.	.	.	.
.	.	.	.	16f/	.	.	.	.	.	.	.	.	.	.	.	.	.	.	.	.	.	.	.	.	.	.	.
8F\	.	8c\	.	16f/	.	16ff\LL	4ryy	.	4F\	glo-	.	4An\	glo-	.	4f\	glo-	.	4cc\	glo-	.	.	.	.	.	.	.	.
.	.	.	.	16f/	.	16ee-\	.	.	.	.	.	.	.	.	.	.	.	.	.	.	.	.	.	.	.	.	.
8F\J	.	8c\J	.	16f/	.	16ff\	.	.	.	.	.	.	.	.	.	.	.	.	.	.	.	.	.	.	.	.	.
.	.	.	.	16f/JJ	.	16gg\JJ	.	.	.	.	.	.	.	.	.	.	.	.	.	.	.	.	.	.	.	.	.
8An\L	.	8c\L	.	16f/LL	.	8ff\L	2ryy	.	4An\	-ri-	.	4c\	-ri-	.	4f\	-ri-	.	4ee-\	-ri-	.	.	.	.	.	2cc\	.	.
.	.	.	.	16f/	.	.	.	.	.	.	.	.	.	.	.	.	.	.	.	.	.	.	.	.	.	.	.
8An\	.	8c\	.	16f/	.	8aan\	.	.	.	.	.	.	.	.	.	.	.	.	.	.	.	.	.	.	.	.	.
.	.	.	.	16f/	.	.	.	.	.	.	.	.	.	.	.	.	.	.	.	.	.	.	.	.	.	.	.
8An\	.	8c\	.	16f/	.	8ccc\	.	.	4A\	-fi-	.	4c\	-fi-	.	4f\	-fi-	.	4ee-\	-fi-	.	.	.	.	.	.	.	.
.	.	.	.	16f/	.	.	.	.	.	.	.	.	.	.	.	.	.	.	.	.	.	.	.	.	.	.	.
8An\J	.	8c\J	.	16f/	.	8ee-\J	.	.	.	.	.	.	.	.	.	.	.	.	.	.	.	.	.	.	.	.	.
.	.	.	.	16f/JJ	.	.	.	.	.	.	.	.	.	.	.	.	.	.	.	.	.	.	.	.	.	.	.
*	*	*	*	*	*	*v	*v	*	*	*	*	*	*	*	*	*	*	*	*	*	*	*	*	*	*	*	*
=29	=29	=29	=29	=29	=29	=29	=29	=29	=29	=29	=29	=29	=29	=29	=29	=29	=29	=29	=29	=29	=29	=29	=29	=29	=29	=29
8B-\L	.	8B-/L	.	16f/LL	.	8dd\L	.	4B-\	-ca-	.	4B-\	-ca-	.	4f\	-ca-	.	4dd\	-ca-	.	4B-/	.	4f\	.	2dd\	.	1ryy
.	.	.	.	16f/	.	.	.	.	.	.	.	.	.	.	.	.	.	.	.	.	.	.	.	.	.	.
8B-\	.	8B-/	.	16f/	.	8bb-\	.	.	.	.	.	.	.	.	.	.	.	.	.	.	.	.	.	.	.	.
.	.	.	.	16f/	.	.	.	.	.	.	.	.	.	.	.	.	.	.	.	.	.	.	.	.	.	.
8B-\	.	8B-/	.	16f/	.	8ff\	.	4B-\	-mus	.	4B-\	-mus	.	4f\	-mus	.	4dd\	-(mus)	.	4r	.	4r	.	.	.	.
.	.	.	.	16f/	.	.	.	.	.	.	.	.	.	.	.	.	.	.	.	.	.	.	.	.	.	.
8B-\J	.	8B-/J	.	16f/	.	8ff\J	.	.	.	.	.	.	.	.	.	.	.	.	.	.	.	.	.	.	.	.
.	.	.	.	16f/JJ	.	.	.	.	.	.	.	.	.	.	.	.	.	.	.	.	.	.	.	.	.	.
8d\L	.	8B-/L	.	16f/LL	.	8een\L	.	4d\	gra-	.	4B-\	gra-	.	4f\	gra-	.	4ff\	te	.	2r	.	2r	.	2b-\	.	.
.	.	.	.	16f/	.	.	.	.	.	.	.	.	.	.	.	.	.	.	.	.	.	.	.	.	.	.
8d\	.	8B-/	.	16f/	.	8ff\	.	.	.	.	.	.	.	.	.	.	.	.	.	.	.	.	.	.	.	.
.	.	.	.	16f/	.	.	.	.	.	.	.	.	.	.	.	.	.	.	.	.	.	.	.	.	.	.
8d\	.	8B-/	.	16f/	.	8ff\	.	8d\	-ti-	.	8B-\	-ti-	.	8f\	-ti-	.	8ff\	gra-	.	.	.	.	.	.	.	.
.	.	.	.	16f/	.	.	.	.	.	.	.	.	.	.	.	.	.	.	.	.	.	.	.	.	.	.
8d\J	.	8B-/J	.	16f/	.	8ff\J	.	8d\	-as	.	8B-\	-as	.	8f\	-as	.	8ff\	-ti-	.	.	.	.	.	.	.	.
.	.	.	.	16f/JJ	.	.	.	.	.	.	.	.	.	.	.	.	.	.	.	.	.	.	.	.	.	.
*Xtremolo	*	*Xtremolo	*	*	*	*	*	*	*	*	*	*	*	*	*	*	*	*	*	*	*	*	*	*	*	*
=30	=30	=30	=30	=30	=30	=30	=30	=30	=30	=30	=30	=30	=30	=30	=30	=30	=30	=30	=30	=30	=30	=30	=30	=30	=30	=30
*	*	*	*	*	*	*tremolo	*	*	*	*	*	*	*	*	*	*	*	*	*	*	*	*	*	*	*	*
4c\	.	4An/	.	16f/LL	.	16ee-X\LL	.	4c\	a-	.	4An\	a-	.	4f\	a-	.	4ee-\	-as	.	4f\	.	4f\	.	2.f/	.	1ryy
.	.	.	.	16f/	.	16ee-\	.	.	.	.	.	.	.	.	.	.	.	.	.	.	.	.	.	.	.	.
.	.	.	.	16f/	.	16ee-\	.	.	.	.	.	.	.	.	.	.	.	.	.	.	.	.	.	.	.	.
.	.	.	.	16f/	.	16ee-\JJ	.	.	.	.	.	.	.	.	.	.	.	.	.	.	.	.	.	.	.	.
4B-\	.	4B-/	.	16f/	.	16dd\LL	.	8B-\	-gi-	.	8B-\	-gi-	.	8f\	-gi-	.	8dd\	agi-	.	4r	.	4r	.	.	.	.
.	.	.	.	16f/	.	16dd\	.	.	.	.	.	.	.	.	.	.	.	.	.	.	.	.	.	.	.	.
.	.	.	.	16f/	.	16dd\	.	8B-\	-mus	.	8B-\	-mus	.	8f\	-mus	.	8ee-\	-(mus)	.	.	.	.	.	.	.	.
.	.	.	.	16f/	.	16dd\JJ	.	.	.	.	.	.	.	.	.	.	.	.	.	.	.	.	.	.	.	.
4An\	.	4c/	.	16f/	.	16cc\LL	.	4An\	ti-	.	4c\	ti-	.	4f\	ti-	.	4cc\	ti-	.	2r	.	2r	.	.	.	.
.	.	.	.	16f/	.	16cc\	.	.	.	.	.	.	.	.	.	.	.	.	.	.	.	.	.	.	.	.
.	.	.	.	16f/	.	16cc\	.	.	.	.	.	.	.	.	.	.	.	.	.	.	.	.	.	.	.	.
.	.	.	.	16f/JJ	.	16cc\JJ	.	.	.	.	.	.	.	.	.	.	.	.	.	.	.	.	.	.	.	.
4G\	.	4c\	.	16en/LL	.	16b-\LL	.	4G\	-bi	.	4c\	-bi	.	4en\	-bi	.	4b-\	-bi	.	.	.	.	.	4eX/	.	.
.	.	.	.	16en/	.	16b-\	.	.	.	.	.	.	.	.	.	.	.	.	.	.	.	.	.	.	.	.
.	.	.	.	16en/	.	16b-\	.	.	.	.	.	.	.	.	.	.	.	.	.	.	.	.	.	.	.	.
.	.	.	.	16en/JJ	.	16b-\JJ	.	.	.	.	.	.	.	.	.	.	.	.	.	.	.	.	.	.	.	.
*	*	*	*	*	*	*Xtremolo	*	*	*	*	*	*	*	*	*	*	*	*	*	*	*	*	*	*	*	*
=31	=31	=31	=31	=31	=31	=31	=31	=31	=31	=31	=31	=31	=31	=31	=31	=31	=31	=31	=31	=31	=31	=31	=31	=31	=31	=31
4F\	.	4c\	.	16f/LL	.	8an\L	.	4F\	p(ro)-	.	4c\	(pro)-	.	4f\	(pro)-	.	4an\	(pro)-	.	4f\	.	4f\	.	1f	.	1ryy
.	.	.	.	16f/	.	.	.	.	.	.	.	.	.	.	.	.	.	.	.	.	.	.	.	.	.	.
.	.	.	.	16f/	.	8ff\	.	.	.	.	.	.	.	.	.	.	.	.	.	.	.	.	.	.	.	.
.	.	.	.	16f/	.	.	.	.	.	.	.	.	.	.	.	.	.	.	.	.	.	.	.	.	.	.
4D\	.	4d\	.	16f/	.	8b-\	.	4G\	-pter	.	4d\	-pter	.	4f\	-pter	.	4b-\	-pter	.	4r	.	4r	.	.	.	.
.	.	.	.	16f/	.	.	.	.	.	.	.	.	.	.	.	.	.	.	.	.	.	.	.	.	.	.
.	.	.	.	16f/	.	8ff\J	.	.	.	.	.	.	.	.	.	.	.	.	.	.	.	.	.	.	.	.
.	.	.	.	16f/JJ	.	.	.	.	.	.	.	.	.	.	.	.	.	.	.	.	.	.	.	.	.	.
4AA-/	.	4c\	.	16f/LL	.	8cc\L	.	4An\	mag-	.	4c\	ma-	.	4f\	ma-	.	4cc\	ma-	.	2r	.	2r	.	.	.	.
.	.	.	.	16f/	.	.	.	.	.	.	.	.	.	.	.	.	.	.	.	.	.	.	.	.	.	.
.	.	.	.	16f/	.	8ff\	.	.	.	.	.	.	.	.	.	.	.	.	.	.	.	.	.	.	.	.
.	.	.	.	16f/	.	.	.	.	.	.	.	.	.	.	.	.	.	.	.	.	.	.	.	.	.	.
4BB-/	.	4B-\	.	16f/	.	8dd\	.	4B-\	-na(m)	.	4B-\	-gnam	.	4f\	-gnam	.	4dd\	-gnam	.	.	.	.	.	.	.	.
.	.	.	.	16f/	.	.	.	.	.	.	.	.	.	.	.	.	.	.	.	.	.	.	.	.	.	.
.	.	.	.	16f/	.	8ff\J	.	.	.	.	.	.	.	.	.	.	.	.	.	.	.	.	.	.	.	.
.	.	.	.	16f/JJ	.	.	.	.	.	.	.	.	.	.	.	.	.	.	.	.	.	.	.	.	.	.
*	*	*	*	*Xtremolo	*	*	*	*	*	*	*	*	*	*	*	*	*	*	*	*	*	*	*	*	*	*
=32	=32	=32	=32	=32	=32	=32	=32	=32	=32	=32	=32	=32	=32	=32	=32	=32	=32	=32	=32	=32	=32	=32	=32	=32	=32	=32
!	!	!	!	!LO:TX:t=P:problem:mixed beam	!	!	!	!	!	!	!	!	!	!	!	!	!	!	!	!	!	!	!	!	!	!
4c\	.	4An/	.	8ee-\L	.	(16ee-\LL	.	4c\	glo-	.	4An\	glo-	.	4f\	glo-	.	4ee-\	glo-	.	4f\	.	4f\	.	2.f/	.	1ryy
.	.	.	.	.	.	16ff\)	.	.	.	.	.	.	.	.	.	.	.	.	.	.	.	.	.	.	.	.
.	.	.	.	8f/	.	16ff`\	.	.	.	.	.	.	.	.	.	.	.	.	.	.	.	.	.	.	.	.
.	.	.	.	.	.	16ff`\JJ	.	.	.	.	.	.	.	.	.	.	.	.	.	.	.	.	.	.	.	.
4B-\	.	4B-/	.	8dd\	.	(16dd\LL	.	8B-\	-ri-	.	8B-\	-ri-	.	8f\	-ri-	.	8dd\	-ri-	.	4r	.	4r	.	.	.	.
.	.	.	.	.	.	16ff\)	.	.	.	.	.	.	.	.	.	.	.	.	.	.	.	.	.	.	.	.
.	.	.	.	8f/J	.	16ff`\	.	8B-\	-am	.	8B-\	-am	.	8f\	-am	.	8dd\	-am	.	.	.	.	.	.	.	.
.	.	.	.	.	.	16ff`\JJ	.	.	.	.	.	.	.	.	.	.	.	.	.	.	.	.	.	.	.	.
4A-\	.	4c/	.	8cc/L	.	(16cc\LL	.	4A-\	tu-	.	4c\	tu-	.	(4f\	tu-	.	4cc\	tu-	.	2r	.	2r	.	.	.	.
.	.	.	.	.	.	16ff\)	.	.	.	.	.	.	.	.	.	.	.	.	.	.	.	.	.	.	.	.
.	.	.	.	8f/	.	16ff`\	.	.	.	.	.	.	.	.	.	.	.	.	.	.	.	.	.	.	.	.
.	.	.	.	.	.	16ff`\JJ	.	.	.	.	.	.	.	.	.	.	.	.	.	.	.	.	.	.	.	.
4G\	.	4c/	.	8b-/	.	16b-\LL	.	4G\	-am	.	4c\	-am	.	4en\)	-am	.	4b-\	-am	.	.	.	.	.	4b-\	.	.
.	.	.	.	.	.	16een\	.	.	.	.	.	.	.	.	.	.	.	.	.	.	.	.	.	.	.	.
.	.	.	.	8en/J	.	16ee\	.	.	.	.	.	.	.	.	.	.	.	.	.	.	.	.	.	.	.	.
.	.	.	.	.	.	16ee\JJ	.	.	.	.	.	.	.	.	.	.	.	.	.	.	.	.	.	.	.	.
=33	=33	=33	=33	=33	=33	=33	=33	=33	=33	=33	=33	=33	=33	=33	=33	=33	=33	=33	=33	=33	=33	=33	=33	=33	=33	=33
*tremolo	*	*tremolo	*	*	*	*tremolo	*	*	*	*	*	*	*	*	*	*	*	*	*	*	*	*	*	*	*	*
8F\L	.	8c\L	.	16f/LL	.	16an/LL	.	4F\	Do-	.	4c\	Do-	.	4f\	Do-	.	4an\	Do-	.	4f\	.	4f\	.	2a-\	.	1ryy
.	.	.	.	16cc 16an/	.	16an/	.	.	.	.	.	.	.	.	.	.	.	.	.	.	.	.	.	.	.	.
8F\	.	8c\	.	16a/	.	16an/	.	.	.	.	.	.	.	.	.	.	.	.	.	.	.	.	.	.	.	.
.	.	.	.	16a/JJ	.	16an/JJ	.	.	.	.	.	.	.	.	.	.	.	.	.	.	.	.	.	.	.	.
*	*	*	*	*tremolo	*	*	*	*	*	*	*	*	*	*	*	*	*	*	*	*	*	*	*	*	*	*
8F\	.	8c\	.	16a/LL	.	16ff\LL	.	8F\	-mi-	.	8f\	-mi-	.	8f\	-mi-	.	8a\	-mi-	.	4r	.	4r	.	.	.	.
.	.	.	.	16a/	.	16ff\	.	.	.	.	.	.	.	.	.	.	.	.	.	.	.	.	.	.	.	.
8F\J	.	8c\J	.	16a/	.	16ff\	.	8F\	-ne	.	8f\	-ne	.	8f\	-ne	.	8a\	-ne	.	.	.	.	.	.	.	.
.	.	.	.	16a/JJ	.	16ff\JJ	.	.	.	.	.	.	.	.	.	.	.	.	.	.	.	.	.	.	.	.
*Xtremolo	*	*Xtremolo	*	*	*	*	*	*	*	*	*	*	*	*	*	*	*	*	*	*	*	*	*	*	*	*
8G\L	.	8B-/L	.	16b-\LL	.	16een\LL	.	4G\	De-	.	4e#X\	De-	.	4g\	De-	.	4b-\	De-	.	2r	.	2r	.	4b-\	.	.
.	.	.	.	16b-\	.	16een\	.	.	.	.	.	.	.	.	.	.	.	.	.	.	.	.	.	.	.	.
8G\	.	8B-/J	.	16b-\	.	16een\	.	.	.	.	.	.	.	.	.	.	.	.	.	.	.	.	.	.	.	.
.	.	.	.	16b-\JJ	.	16een\JJ	.	.	.	.	.	.	.	.	.	.	.	.	.	.	.	.	.	.	.	.
8A-\	.	8An/L	.	16cc\LL	.	16ee-X\LL	.	4An\	-us	.	4en\	-us	.	4f\	-us	.	4cc\	-us	.	.	.	.	.	4cc\	.	.
.	.	.	.	16cc\	.	16ee-X\	.	.	.	.	.	.	.	.	.	.	.	.	.	.	.	.	.	.	.	.
8A-\J	.	8An/J	.	16cc\	.	16ee-X\	.	.	.	.	.	.	.	.	.	.	.	.	.	.	.	.	.	.	.	.
.	.	.	.	16cc\JJ	.	16ee-X\JJ	.	.	.	.	.	.	.	.	.	.	.	.	.	.	.	.	.	.	.	.
*	*	*	*	*	*	*Xtremolo	*	*	*	*	*	*	*	*	*	*	*	*	*	*	*	*	*	*	*	*
=34	=34	=34	=34	=34	=34	=34	=34	=34	=34	=34	=34	=34	=34	=34	=34	=34	=34	=34	=34	=34	=34	=34	=34	=34	=34	=34
*tremolo	*	*tremolo	*	*	*	*	*	*	*	*	*	*	*	*	*	*	*	*	*	*	*	*	*	*	*	*
!	!	!	!	!LO:TX:t=P:problem:mixed beam	!	!	!	!	!	!	!	!	!	!	!	!	!	!	!	!	!	!	!	!	!	!
8B-\L	.	8B-\L	.	16f/LL	.	16dd\LL	.	4B-\	Rex	.	4d\	Rex	.	4f\	Rex	.	4dd\	Rex	.	1B-	.	1f	.	2b-\	.	1ryy
.	.	.	.	16dd/	.	16b-\	.	.	.	.	.	.	.	.	.	.	.	.	.	.	.	.	.	.	.	.
8B-\	.	8B-\	.	16f/	.	16cc\	.	.	.	.	.	.	.	.	.	.	.	.	.	.	.	.	.	.	.	.
.	.	.	.	16dd/	.	16dd\JJ	.	.	.	.	.	.	.	.	.	.	.	.	.	.	.	.	.	.	.	.
8B-\	.	8B-\	.	16f/	.	16ee-\LL	.	4B-\	cae-	.	4B-\	Cae-	.	4f\	cae-	.	4dd\	Cae-	.	.	.	.	.	.	.	.
.	.	.	.	16dd/	.	16ff\	.	.	.	.	.	.	.	.	.	.	.	.	.	.	.	.	.	.	.	.
8B-\J	.	8B-\J	.	16f/	.	16gg\	.	.	.	.	.	.	.	.	.	.	.	.	.	.	.	.	.	.	.	.
.	.	.	.	16dd/JJ	.	16aan\JJ	.	.	.	.	.	.	.	.	.	.	.	.	.	.	.	.	.	.	.	.
*Xtremolo	*	*	*	*	*	*	*	*	*	*	*	*	*	*	*	*	*	*	*	*	*	*	*	*	*	*
2d\	.	8d\L	.	16f/LL	.	16bb-\LL	.	4d\	-les-	.	4B-\	-les-	.	4f\	-les-	.	4dd\	-le-	.	.	.	.	.	2b-\	.	.
.	.	.	.	16b-/	.	16aa\	.	.	.	.	.	.	.	.	.	.	.	.	.	.	.	.	.	.	.	.
.	.	8d\	.	16f/	.	16gg\	.	.	.	.	.	.	.	.	.	.	.	.	.	.	.	.	.	.	.	.
.	.	.	.	16b-/	.	16ff\JJ	.	.	.	.	.	.	.	.	.	.	.	.	.	.	.	.	.	.	.	.
.	.	8d\	.	16f/	.	16bb-\LL	.	4d\	-tis	.	4B-\	-tis	.	4f\	-tis	.	4dd\	-stis	.	.	.	.	.	.	.	.
.	.	.	.	16b-/	.	16aa\	.	.	.	.	.	.	.	.	.	.	.	.	.	.	.	.	.	.	.	.
.	.	8d\J	.	16f/	.	16gg\	.	.	.	.	.	.	.	.	.	.	.	.	.	.	.	.	.	.	.	.
.	.	.	.	16b-/JJ	.	16ff\JJ	.	.	.	.	.	.	.	.	.	.	.	.	.	.	.	.	.	.	.	.
*	*	*	*	*Xtremolo	*	*	*	*	*	*	*	*	*	*	*	*	*	*	*	*	*	*	*	*	*	*
=35	=35	=35	=35	=35	=35	=35	=35	=35	=35	=35	=35	=35	=35	=35	=35	=35	=35	=35	=35	=35	=35	=35	=35	=35	=35	=35
*	*	*	*	*	*	*^	*	*	*	*	*	*	*	*	*	*	*	*	*	*	*	*	*	*	*	*
*tremolo	*	*	*	*	*	*	*	*	*	*	*	*	*	*	*	*	*	*	*	*	*	*	*	*	*	*	*
8c\L	.	8An/L	.	16f/LL	.	8ee-/	1f	.	4c\	De-	.	4c\	De-	.	4f\	De-	.	4ee-\	De-	.	4f\	.	4f\	.	1a	.	1ryy
.	.	.	.	16en/	.	.	.	.	.	.	.	.	.	.	.	.	.	.	.	.	.	.	.	.	.	.	.
8c\	.	8An/	.	16f/	.	4ee-/	.	.	.	.	.	.	.	.	.	.	.	.	.	.	.	.	.	.	.	.	.
.	.	.	.	16g/JJ	.	.	.	.	.	.	.	.	.	.	.	.	.	.	.	.	.	.	.	.	.	.	.
8c\	.	8An/	.	16an/LL	.	.	.	.	4c\	-us	.	4c\	-us	.	4f\	-us	.	4ee-\	-us	.	8f\L	.	4r	.	.	.	.
.	.	.	.	16g/	.	.	.	.	.	.	.	.	.	.	.	.	.	.	.	.	.	.	.	.	.	.	.
8c\J	.	8An/J	.	16a/	.	4ee-/	.	.	.	.	.	.	.	.	.	.	.	.	.	.	8f\J	.	.	.	.	.	.
.	.	.	.	16b-/JJ	.	.	.	.	.	.	.	.	.	.	.	.	.	.	.	.	.	.	.	.	.	.	.
8F\L	.	8c\L	.	16cc/LL	.	.	.	.	4F\	Pa-	.	4c\	Pa-	.	4f\	Pa-	.	4ee-\	Pa-	.	4f\	.	4f\	.	.	.	.
.	.	.	.	16a/	.	.	.	.	.	.	.	.	.	.	.	.	.	.	.	.	.	.	.	.	.	.	.
8F\	.	8c\	.	16g/	.	4ee-/	.	.	.	.	.	.	.	.	.	.	.	.	.	.	.	.	.	.	.	.	.
.	.	.	.	16f/JJ	.	.	.	.	.	.	.	.	.	.	.	.	.	.	.	.	.	.	.	.	.	.	.
8F\	.	8c\	.	16cc/LL	.	.	.	.	8F\	-ter	.	8c\	-ter	.	8f\	-ter	.	8ee-\	-ter	.	4f\	.	4f\	.	.	.	.
.	.	.	.	16a/	.	.	.	.	.	.	.	.	.	.	.	.	.	.	.	.	.	.	.	.	.	.	.
8F\J	.	8c\J	.	16g/	.	8ee-/	.	.	8F\	om-	.	8c\	om-	.	8f\	om-	.	8ee-\	om-	.	.	.	.	.	.	.	.
.	.	.	.	16f/JJ	.	.	.	.	.	.	.	.	.	.	.	.	.	.	.	.	.	.	.	.	.	.	.
*	*	*	*	*	*	*v	*v	*	*	*	*	*	*	*	*	*	*	*	*	*	*	*	*	*	*	*	*
=36	=36	=36	=36	=36	=36	=36	=36	=36	=36	=36	=36	=36	=36	=36	=36	=36	=36	=36	=36	=36	=36	=36	=36	=36	=36	=36
*	*	*	*	*tremolo	*	*	*	*	*	*	*	*	*	*	*	*	*	*	*	*	*	*	*	*	*	*
8B-\L	.	8B-/L	.	16f/LL	.	16dd\LL	.	8.B-\	-ni-	.	8B-\	-ni-	.	8f\	-ni-	.	8dd\	-ni-	.	1B-	.	1f	.	1b-	.	1ryy
.	.	.	.	16dd/	.	16b-\	.	.	.	.	.	.	.	.	.	.	.	.	.	.	.	.	.	.	.	.
8B-\	.	8B-/	.	16f/	.	16cc\	.	.	.	.	8B-\	-po-	.	8f\	-po-	.	8dd\	-po-	.	.	.	.	.	.	.	.
.	.	.	.	16dd/	.	16dd\JJ	.	16B-\	-po-	.	.	.	.	.	.	.	.	.	.	.	.	.	.	.	.	.
8B-\	.	8B-/	.	16f/	.	16ee-\LL	.	4B-\	-ten	.	4B-\	-ten	.	4f\	-ten	.	4dd\	-tens	.	.	.	.	.	.	.	.
.	.	.	.	16dd/	.	16ff\	.	.	.	.	.	.	.	.	.	.	.	.	.	.	.	.	.	.	.	.
8B-\J	.	8B-/J	.	16f/	.	16gg\	.	.	.	.	.	.	.	.	.	.	.	.	.	.	.	.	.	.	.	.
.	.	.	.	16dd/JJ	.	16aan\JJ	.	.	.	.	.	.	.	.	.	.	.	.	.	.	.	.	.	.	.	.
8d\L	.	8d\L	.	16f/LL	.	16bb-\LL	.	4d\	Do-	.	4B-\	Do-	.	4f\	Do-	.	4dd\	Do-	.	.	.	.	.	.	.	.
.	.	.	.	16b-/	.	16aa\	.	.	.	.	.	.	.	.	.	.	.	.	.	.	.	.	.	.	.	.
8d\	.	8d\	.	16f/	.	16gg\	.	.	.	.	.	.	.	.	.	.	.	.	.	.	.	.	.	.	.	.
.	.	.	.	16b-/	.	16ff\JJ	.	.	.	.	.	.	.	.	.	.	.	.	.	.	.	.	.	.	.	.
8d\	.	8d\	.	16f/	.	16bb-\LL	.	8d\	-mi-	.	8B-\	-mi-	.	8f\	-mi-	.	8dd\	-mi-	.	.	.	.	.	.	.	.
.	.	.	.	16b-/	.	16aa\	.	.	.	.	.	.	.	.	.	.	.	.	.	.	.	.	.	.	.	.
8d\J	.	8d\J	.	16f/	.	16gg\	.	8d\	-ne	.	8B-\	-ne	.	8f\	-ne	.	8dd\	-(ne)	.	.	.	.	.	.	.	.
.	.	.	.	16b-/JJ	.	16ff\JJ	.	.	.	.	.	.	.	.	.	.	.	.	.	.	.	.	.	.	.	.
*	*	*	*	*Xtremolo	*	*	*	*	*	*	*	*	*	*	*	*	*	*	*	*	*	*	*	*	*	*
=37	=37	=37	=37	=37	=37	=37	=37	=37	=37	=37	=37	=37	=37	=37	=37	=37	=37	=37	=37	=37	=37	=37	=37	=37	=37	=37
*	*	*	*	*	*	*^	*	*	*	*	*	*	*	*	*	*	*	*	*	*	*	*	*	*	*	*
!	!	!LO:SIC:v:s=8A/L	!	!	!	!	!	!	!	!	!	!	!	!	!	!	!	!	!	!	!	!	!	!	!	!	!
8c\L	.	8A-X/L	.	16f/LL	.	8ee-/	1f	.	8c\	Fi-	.	8c\	Fi-	.	8f\	Fi-	.	8ee-\	Fi-	.	4f\	.	4f\	.	1a	.	1ryy
.	.	.	.	16en/	.	.	.	.	.	.	.	.	.	.	.	.	.	.	.	.	.	.	.	.	.	.	.
!	!	!LO:SIC:v:s=8A/	!	!	!	!	!	!	!	!	!	!	!	!	!	!	!	!	!	!	!	!	!	!	!	!	!
8c\	.	8A-X/	.	16f/	.	4ee-/	.	.	8c\	-li	.	8c\	-li	.	8f\	-li	.	8ee-\	-li	.	.	.	.	.	.	.	.
.	.	.	.	16g/JJ	.	.	.	.	.	.	.	.	.	.	.	.	.	.	.	.	.	.	.	.	.	.	.
!	!	!LO:SIC:v:s=8A/	!	!	!	!	!	!	!	!	!	!	!	!	!	!	!	!	!	!	!	!	!	!	!	!	!
8c\	.	8A-X/	.	16an/LL	.	.	.	.	8c\	u-	.	8c\	u-	.	8f\	u-	.	8ee-\	u-	.	8f\L	.	8f\L	.	.	.	.
.	.	.	.	16g/	.	.	.	.	.	.	.	.	.	.	.	.	.	.	.	.	.	.	.	.	.	.	.
!	!	!LO:SIC:v:s=8A/J	!	!	!	!	!	!	!	!	!	!	!	!	!	!	!	!	!	!	!	!	!	!	!	!	!
8c\J	.	8A-X/J	.	16a/	.	[8ee-/	.	.	8c\	-ni	.	8c\	-ni	.	8f\	-ni	.	8ee-\	-ni	.	8f\J	.	8f\J	.	.	.	.
.	.	.	.	16b-/JJ	.	.	.	.	.	.	.	.	.	.	.	.	.	.	.	.	.	.	.	.	.	.	.
8F\L	.	8c\L	.	16cc/LL	.	8ee-/]	.	.	4F\	ge-	.	4c\	ge-	.	4f\	ge-	.	4ee-\	ge-	.	4f\	.	4f\	.	.	.	.
.	.	.	.	16a/	.	.	.	.	.	.	.	.	.	.	.	.	.	.	.	.	.	.	.	.	.	.	.
8F\	.	8c\	.	16g/	.	4ee-/	.	.	.	.	.	.	.	.	.	.	.	.	.	.	.	.	.	.	.	.	.
.	.	.	.	16f/JJ	.	.	.	.	.	.	.	.	.	.	.	.	.	.	.	.	.	.	.	.	.	.	.
8F\	.	8c\	.	16cc/LL	.	.	.	.	8F\	-ni-	.	8c\	-ni-	.	8f\	-ni-	.	8ee-\	-ni-	.	4f\	.	4f\	.	.	.	.
.	.	.	.	16a/	.	.	.	.	.	.	.	.	.	.	.	.	.	.	.	.	.	.	.	.	.	.	.
8F\J	.	8c\J	.	16g/	.	8ee-/	.	.	8F\	-te	.	8c\	-te	.	8f\	-te	.	8ee-\	-te	.	.	.	.	.	.	.	.
.	.	.	.	16f/JJ	.	.	.	.	.	.	.	.	.	.	.	.	.	.	.	.	.	.	.	.	.	.	.
*Xtremolo	*	*Xtremolo	*	*	*	*	*	*	*	*	*	*	*	*	*	*	*	*	*	*	*	*	*	*	*	*	*
*	*	*	*	*	*	*v	*v	*	*	*	*	*	*	*	*	*	*	*	*	*	*	*	*	*	*	*	*
=38	=38	=38	=38	=38	=38	=38	=38	=38	=38	=38	=38	=38	=38	=38	=38	=38	=38	=38	=38	=38	=38	=38	=38	=38	=38	=38
*	*	*	*	*tremolo	*	*	*	*	*	*	*	*	*	*	*	*	*	*	*	*	*	*	*	*	*	*
4B-\	.	4B-\	.	16b-/LL	.	8dd\	.	4B-\	Je-	.	4B-\	Je-	.	4b-\	Je-	.	4dd\	Je-	.	4B-/	.	4f\	.	1b-	.	1ryy
.	.	.	.	16b-/	.	.	.	.	.	.	.	.	.	.	.	.	.	.	.	.	.	.	.	.	.	.
.	.	.	.	16b-/	.	4ff\	.	.	.	.	.	.	.	.	.	.	.	.	.	.	.	.	.	.	.	.
.	.	.	.	16b-/	.	.	.	.	.	.	.	.	.	.	.	.	.	.	.	.	.	.	.	.	.	.
4G\	.	4g\	.	16b-/	.	.	.	4G\	-su	.	4B-\	-su	.	4b-\	-su	.	4ee-\	-su	.	4r	.	4r	.	.	.	.
.	.	.	.	16b-/	.	.	.	.	.	.	.	.	.	.	.	.	.	.	.	.	.	.	.	.	.	.
.	.	.	.	16b-/	.	4ee-\	.	.	.	.	.	.	.	.	.	.	.	.	.	.	.	.	.	.	.	.
.	.	.	.	16b-/JJ	.	.	.	.	.	.	.	.	.	.	.	.	.	.	.	.	.	.	.	.	.	.
4F\	.	4f\	.	16b-/LL	.	.	.	4F\	(Chris)-	.	4B-\	Chris-	.	4b-\	Chris-	.	4dd\	(Chris)-	.	2r	.	2r	.	.	.	.
.	.	.	.	16b-/	.	.	.	.	.	.	.	.	.	.	.	.	.	.	.	.	.	.	.	.	.	.
.	.	.	.	16b-/	.	4dd\	.	.	.	.	.	.	.	.	.	.	.	.	.	.	.	.	.	.	.	.
.	.	.	.	16b-/	.	.	.	.	.	.	.	.	.	.	.	.	.	.	.	.	.	.	.	.	.	.
4E-\	.	4e-\	.	16b-/	.	.	.	4E-\	-te	.	4e-\	-te	.	4b-\	-te	.	4cc\	-te	.	.	.	.	.	.	.	.
.	.	.	.	16b-/	.	.	.	.	.	.	.	.	.	.	.	.	.	.	.	.	.	.	.	.	.	.
.	.	.	.	16b-/	.	8cc\	.	.	.	.	.	.	.	.	.	.	.	.	.	.	.	.	.	.	.	.
.	.	.	.	16b-/JJ	.	.	.	.	.	.	.	.	.	.	.	.	.	.	.	.	.	.	.	.	.	.
=39	=39	=39	=39	=39	=39	=39	=39	=39	=39	=39	=39	=39	=39	=39	=39	=39	=39	=39	=39	=39	=39	=39	=39	=39	=39	=39
*tremolo	*	*tremolo	*	*	*	*	*	*	*	*	*	*	*	*	*	*	*	*	*	*	*	*	*	*	*	*
8F\L	.	8f\L	.	16b-/LL	.	4b-\	.	4F\	Do-	.	4B-\	Do-	.	4f\	Do-	.	4dd\	Do-	.	1f	.	2.b-\	.	2.b-\	.	1ryy
.	.	.	.	16b-/	.	.	.	.	.	.	.	.	.	.	.	.	.	.	.	.	.	.	.	.	.	.
8F\	.	8f\	.	16b-/	.	.	.	.	.	.	.	.	.	.	.	.	.	.	.	.	.	.	.	.	.	.
.	.	.	.	16b-/	.	.	.	.	.	.	.	.	.	.	.	.	.	.	.	.	.	.	.	.	.	.
8F\	.	8f\	.	16b-/	.	16b-\LL	.	8F\	-mi-	.	8B-\	-mi-	.	8f\	-mi-	.	8dd\	-mi-	.	.	.	.	.	.	.	.
.	.	.	.	16b-/	.	16cc\	.	.	.	.	.	.	.	.	.	.	.	.	.	.	.	.	.	.	.	.
8F\J	.	8f\J	.	16b-/	.	16b-\	.	8F\	-ne	.	8B-\	-ne	.	8f\	-ne	.	8dd\	-ne	.	.	.	.	.	.	.	.
.	.	.	.	16b-/	.	16cc\JJ	.	.	.	.	.	.	.	.	.	.	.	.	.	.	.	.	.	.	.	.
8F\L	.	8f\L	.	16b-/	.	2ccT\	.	2F\	De-	.	4B-\	De-	.	4f\	De-	.	4cc\	De-	.	.	.	.	.	.	.	.
.	.	.	.	16b-/	.	.	.	.	.	.	.	.	.	.	.	.	.	.	.	.	.	.	.	.	.	.
8F\	.	8f\	.	16b-/	.	.	.	.	.	.	.	.	.	.	.	.	.	.	.	.	.	.	.	.	.	.
.	.	.	.	16b-/JJ	.	.	.	.	.	.	.	.	.	.	.	.	.	.	.	.	.	.	.	.	.	.
!	!	!	!	!	!	!	!	!	!	!	!	!	!	!	!	!	!	!	!	!	!	!	!	!LO:SIC:v:s=4a	!	!
8F\	.	8e-\	.	16an/LL	.	.	.	.	.	.	4An\	-us	.	4f\	-us	.	4cc\	-us	.	.	.	4aX\	.	4a-/	.	.
.	.	.	.	16an/	.	.	.	.	.	.	.	.	.	.	.	.	.	.	.	.	.	.	.	.	.	.
8F\J	.	8e-\J	.	16an/	.	.	.	.	.	.	.	.	.	.	.	.	.	.	.	.	.	.	.	.	.	.
.	.	.	.	16an/JJ	.	.	.	.	.	.	.	.	.	.	.	.	.	.	.	.	.	.	.	.	.	.
*Xtremolo	*	*	*	*	*	*	*	*	*	*	*	*	*	*	*	*	*	*	*	*	*	*	*	*	*	*
=40	=40	=40	=40	=40	=40	=40	=40	=40	=40	=40	=40	=40	=40	=40	=40	=40	=40	=40	=40	=40	=40	=40	=40	=40	=40	=40
*	*	*	*	*	*	*tremolo	*	*	*	*	*	*	*	*	*	*	*	*	*	*	*	*	*	*	*	*
8G\L	.	8d\L	.	16b-/LL	.	16b-\LL	.	4BB-/	-us	.	4B-\	a-	.	4d\	a-	.	4b-\	A-	.	4B-/	.	4b-\	.	4b-\	.	1ryy
.	.	.	.	16b-/	.	16b-\	.	.	.	.	.	.	.	.	.	.	.	.	.	.	.	.	.	.	.	.
8G\	.	8d\	.	16b-/	.	16b-\	.	.	.	.	.	.	.	.	.	.	.	.	.	.	.	.	.	.	.	.
.	.	.	.	16b-/JJ	.	16b-\JJ	.	.	.	.	.	.	.	.	.	.	.	.	.	.	.	.	.	.	.	.
8F\	.	8d\	.	16g/LL	.	16bn\LL	.	4r	.	.	4Bn\	-gnus	.	4d\	-gnus	.	4bn\	-gnus	.	4r	.	4r	.	4bX\	.	.
.	.	.	.	16g/	.	16bn\	.	.	.	.	.	.	.	.	.	.	.	.	.	.	.	.	.	.	.	.
8F\J	.	8d\J	.	16g/	.	16bn\	.	.	.	.	.	.	.	.	.	.	.	.	.	.	.	.	.	.	.	.
.	.	.	.	16g/JJ	.	16bn\JJ	.	.	.	.	.	.	.	.	.	.	.	.	.	.	.	.	.	.	.	.
*tremolo	*	*	*	*	*	*	*	*	*	*	*	*	*	*	*	*	*	*	*	*	*	*	*	*	*	*
8E-\L	.	8e-\L	.	16g/LL	.	16cc\LL	.	2r	.	.	4c\	De-	.	4e-\	De-	.	4cc\	De-	.	2r	.	2r	.	4cc\	.	.
.	.	.	.	16g/	.	16cc\	.	.	.	.	.	.	.	.	.	.	.	.	.	.	.	.	.	.	.	.
8E-\	.	8e-\	.	16g/	.	16cc\	.	.	.	.	.	.	.	.	.	.	.	.	.	.	.	.	.	.	.	.
.	.	.	.	16g/	.	16cc\JJ	.	.	.	.	.	.	.	.	.	.	.	.	.	.	.	.	.	.	.	.
*	*	*	*	*	*	*Xtremolo	*	*	*	*	*	*	*	*	*	*	*	*	*	*	*	*	*	*	*	*
8E-\	.	8e-\	.	16g/	.	16ff\LL	.	.	.	.	4c\	-i	.	4g\	-i	.	4ee-\	-i	.	.	.	.	.	4cc\	.	.
.	.	.	.	16g/	.	16ee-\	.	.	.	.	.	.	.	.	.	.	.	.	.	.	.	.	.	.	.	.
8E-\J	.	8e-\J	.	16g/	.	16dd\	.	.	.	.	.	.	.	.	.	.	.	.	.	.	.	.	.	.	.	.
.	.	.	.	16g/JJ	.	16cc\JJ	.	.	.	.	.	.	.	.	.	.	.	.	.	.	.	.	.	.	.	.
=41	=41	=41	=41	=41	=41	=41	=41	=41	=41	=41	=41	=41	=41	=41	=41	=41	=41	=41	=41	=41	=41	=41	=41	=41	=41	=41
!	!	!	!	!	!	!	!	!	!	!	!	!	!	!LO:TX:t=P:problem:w źródle zapis poprawiany	!	!	!	!	!	!	!	!	!	!	!	!
8F\L	.	8d\L	.	16d/LL	.	4b-X\	.	4F\	a-	.	4B-X\	Fi-	.	4f\	Fi-	.	4dd\	Fi-	.	1f	.	2.b-\	.	4b-\	.	1ryy
.	.	.	.	16d/	.	.	.	.	.	.	.	.	.	.	.	.	.	.	.	.	.	.	.	.	.	.
8F\	.	8d\	.	16d/	.	.	.	.	.	.	.	.	.	.	.	.	.	.	.	.	.	.	.	.	.	.
.	.	.	.	16d/JJ	.	.	.	.	.	.	.	.	.	.	.	.	.	.	.	.	.	.	.	.	.	.
8F\	.	8d\	.	16b-/LL	.	16b-\LL	.	8F\	-gnus	.	8B-\	-li-	.	8f\	-li-	.	8dd\	-li-	.	.	.	.	.	4dd\	.	.
.	.	.	.	16b-/	.	16cc\	.	.	.	.	.	.	.	.	.	.	.	.	.	.	.	.	.	.	.	.
8F\J	.	8d\J	.	16b-/	.	16b-\	.	8F\	.	.	8B-\	-us	.	8f\	-us	.	8dd\	-us	.	.	.	.	.	.	.	.
.	.	.	.	16b-/	.	16cc\JJ	.	.	.	.	.	.	.	.	.	.	.	.	.	.	.	.	.	.	.	.
*	*	*Xtremolo	*	*	*	*	*	*	*	*	*	*	*	*	*	*	*	*	*	*	*	*	*	*	*	*
8F\L	.	8f\L	.	16b-/	.	2ccT\	.	2F\	De-	.	(4B-\	Pa-	.	2f\	Pa-	.	2cc\	Pa-	.	.	.	.	.	2cc\	.	.
.	.	.	.	16b-/	.	.	.	.	.	.	.	.	.	.	.	.	.	.	.	.	.	.	.	.	.	.
8F\	.	8f\	.	16b-/	.	.	.	.	.	.	.	.	.	.	.	.	.	.	.	.	.	.	.	.	.	.
.	.	.	.	16b-/JJ	.	.	.	.	.	.	.	.	.	.	.	.	.	.	.	.	.	.	.	.	.	.
8F\	.	8e-\	.	16an/LL	.	.	.	.	.	.	4A-\)	.	.	.	.	.	.	.	.	.	.	4aX\	.	.	.	.
.	.	.	.	16an/	.	.	.	.	.	.	.	.	.	.	.	.	.	.	.	.	.	.	.	.	.	.
8F\J	.	8e-\J	.	16an/	.	.	.	.	.	.	.	.	.	.	.	.	.	.	.	.	.	.	.	.	.	.
.	.	.	.	16an/JJ	.	.	.	.	.	.	.	.	.	.	.	.	.	.	.	.	.	.	.	.	.	.
*Xtremolo	*	*	*	*Xtremolo	*	*	*	*	*	*	*	*	*	*	*	*	*	*	*	*	*	*	*	*	*	*
=42	=42	=42	=42	=42	=42	=42	=42	=42	=42	=42	=42	=42	=42	=42	=42	=42	=42	=42	=42	=42	=42	=42	=42	=42	=42	=42
4BB-/	.	4d\	.	4b- 4d/	.	4b-\	.	4BB-/	-i	.	4B-\	-tris	.	4f\	-tris	.	4b-X\	-tris	.	4B-/	.	4b-\	.	4dd\	.	1ryy
4B-\	.	4B-\	.	4b- 4d/	.	4b-\	.	4r	.	.	4r	.	.	4r	.	.	4r	.	.	4B-/	.	4f\	.	4dd\	.	.
4BB-/	.	4B-\	.	4b- 4d/	.	4b-\	.	2r	.	.	2r	.	.	2r	.	.	2r	.	.	4B-/	.	4f\	.	4dd\	.	.
4r	.	4r	.	4r	.	8gg\L	p	.	.	.	.	.	.	.	.	.	.	.	.	4r	.	4r	.	4r	.	.
.	.	.	.	.	.	8dd\J	.	.	.	.	.	.	.	.	.	.	.	.	.	.	.	.	.	.	.	.
=43	=43	=43	=43	=43	=43	=43	=43	=43	=43	=43	=43	=43	=43	=43	=43	=43	=43	=43	=43	=43	=43	=43	=43	=43	=43	=43
!	!	!	!	!	!	!	!	!	!	!	!	!	!	!	!	!	!	!	!	!LO:TX:b:t=pau	!	!	!	!	!	!
!	!LO:DY:a	!	!	!	!LO:DY:a	!	!	!	!	!LO:DY:a	!	!	!LO:DY:a	!	!	!	!	!	!LO:DY:a	!LO:TX:a:t=26	!	!LO:TX:a:t=26	!	!LO:TX:a:t=26.	!	!
4BB-/	p	4r	.	4r	p	1b-	.	4BB-/	qui	p	4r	.	p	4r	.	.	1b-	Qui	p	00r	.	00r	.	00r	.	1ryy
!	!	!	!	!	!	!	!	!	!	!	!	!	!	!LO:TX:t=P:problem:p=po	!	!	!	!	!	!	!	!	!	!	!	!
4r	.	4d\	p	(4f/	.	.	.	4r	.	.	(4d\	qui	.	(4f\	qui	p	.	.	.	.	.	.	.	.	.	.
2r	.	4e-\	.	4g/)	.	.	.	2r	.	.	4e-\)	.	.	4g\)	.	.	.	.	.	.	.	.	.	.	.	.
.	.	4f\	.	4a-X/	.	.	.	.	.	.	4f\	.	.	4a-X\	.	.	.	.	.	.	.	.	.	.	.	.
=44	=44	=44	=44	=44	=44	=44	=44	=44	=44	=44	=44	=44	=44	=44	=44	=44	=44	=44	=44	=44	=44	=44	=44	=44	=44	=44
4E-\	.	4e-\	.	4g/	.	2.b-\	.	2E-\	tol-	.	(4e-\	tol-	.	(4g\	tol-	.	2b-\	tol-	.	.	.	.	.	.	.	1ryy
4r	.	4f\	.	4a-/	.	.	.	.	.	.	4f\)	.	.	4a-\)	.	.	.	.	.	.	.	.	.	.	.	.
2r	.	4g\	.	4b-/	.	.	.	4E-\	-lis	.	4g\	-lis	.	4b-\	-lis	.	4b-\	-lis	.	.	.	.	.	.	.	.
.	.	4r	.	4r	.	8ff\L	.	4BB-/	pec-	.	4r	.	.	4r	.	.	4b-\	pec-	.	.	.	.	.	.	.	.
.	.	.	.	.	.	8dd\J	.	.	.	.	.	.	.	.	.	.	.	.	.	.	.	.	.	.	.	.
=45	=45	=45	=45	=45	=45	=45	=45	=45	=45	=45	=45	=45	=45	=45	=45	=45	=45	=45	=45	=45	=45	=45	=45	=45	=45	=45
4BB-/	.	4r	.	4r	.	1b-	.	2BB-/	-ca-	.	4r	.	.	4r	.	.	2b-\	-ca-	.	.	.	.	.	.	.	1ryy
4r	.	4d\	.	(4f/	.	.	.	.	.	.	4d\	pec-	.	4f\	pec-	.	.	.	.	.	.	.	.	.	.	.
2r	.	4e-\	.	4g/)	.	.	.	2BB-/	-ta	.	4e-\	-ca-	.	4g\	-ca-	.	2b-\	-ta	.	.	.	.	.	.	.	.
.	.	4f\	.	4a-/	.	.	.	.	.	.	4f\	-ta	.	4a-X\	-ta	.	.	.	.	.	.	.	.	.	.	.
=46	=46	=46	=46	=46	=46	=46	=46	=46	=46	=46	=46	=46	=46	=46	=46	=46	=46	=46	=46	=46	=46	=46	=46	=46	=46	=46
2E-\	.	4e-\	.	4g/	.	4b-\	.	4E-\	mun-	.	4e-\	mun-	.	4g\	mun-	.	4b-\	mun-	.	.	.	.	.	.	.	1ryy
.	.	4e-\	.	4g/	.	(4ee-\	.	4E-\	-di	.	4c\	-di	.	4g\	-di	.	4ee-\	-di	.	.	.	.	.	.	.	.
4F\	.	4f\	.	4f/	.	4dd\)	.	4F\	mi-	.	4A-\	mi-	.	4f\	mi-	.	4dd\	mi-	.	.	.	.	.	.	.	.
4F#X\	.	4f#X\	.	4e-/	.	4cc\	.	4F#X\	-se-	.	4An\	-se-	.	4e-\	-se-	.	4cc\	-se-	.	.	.	.	.	.	.	.
=47	=47	=47	=47	=47	=47	=47	=47	=47	=47	=47	=47	=47	=47	=47	=47	=47	=47	=47	=47	=47	=47	=47	=47	=47	=47	=47
2G\	.	2g\	.	2d/	.	(8cc\L	.	2G\	-re-	.	2G/	-re-	.	2d\	-re-	.	2bn\	-re-	.	00r	.	00r	.	00r	.	1ryy
.	.	.	.	.	.	8bn\)	.	.	.	.	.	.	.	.	.	.	.	.	.	.	.	.	.	.	.	.
.	.	.	.	.	.	8b`\	.	.	.	.	.	.	.	.	.	.	.	.	.	.	.	.	.	.	.	.
.	.	.	.	.	.	8b`\J	.	.	.	.	.	.	.	.	.	.	.	.	.	.	.	.	.	.	.	.
2Fn\	.	2d\	.	2g/	.	(8b\L	.	2Fn\	-re	.	2d\	-re	.	2g\	-re	.	2b\	-re	.	.	.	.	.	.	.	.
.	.	.	.	.	.	8cc\)	.	.	.	.	.	.	.	.	.	.	.	.	.	.	.	.	.	.	.	.
.	.	.	.	.	.	(8cc\	.	.	.	.	.	.	.	.	.	.	.	.	.	.	.	.	.	.	.	.
.	.	.	.	.	.	8dd\J)	.	.	.	.	.	.	.	.	.	.	.	.	.	.	.	.	.	.	.	.
=48	=48	=48	=48	=48	=48	=48	=48	=48	=48	=48	=48	=48	=48	=48	=48	=48	=48	=48	=48	=48	=48	=48	=48	=48	=48	=48
2E-\	.	2e-\	.	2g/	.	8dd\L	.	2E-\	no-	.	2e-X\	no-	.	2g\	no-	.	2cc\	no-	.	.	.	.	.	.	.	1ryy
.	.	.	.	.	.	8cc\J	.	.	.	.	.	.	.	.	.	.	.	.	.	.	.	.	.	.	.	.
.	.	.	.	.	.	2cc\	.	.	.	.	.	.	.	.	.	.	.	.	.	.	.	.	.	.	.	.
2C/	.	2c\	.	8cc/L	.	.	.	4C/	-bis	.	4e-\	-bis	.	8cc\L	-bis	.	4cc\	-bis	.	.	.	.	.	.	.	.
.	.	.	.	8b-/	.	.	.	.	.	.	.	.	.	8b-\J	.	.	.	.	.	.	.	.	.	.	.	.
.	.	.	.	8an/	.	4ee-\	.	4C/	qui	.	4c\	qui	.	8a-\L	qui	.	4ee-\	qui	.	.	.	.	.	.	.	.
.	.	.	.	8g/J	.	.	.	.	.	.	.	.	.	8g\J	.	.	.	.	.	.	.	.	.	.	.	.
=49	=49	=49	=49	=49	=49	=49	=49	=49	=49	=49	=49	=49	=49	=49	=49	=49	=49	=49	=49	=49	=49	=49	=49	=49	=49	=49
4D\	.	4d\	.	4f#X/	.	2ee-\	.	(4D\	tol-	.	2c\	tol-	.	(4f#X\	tol-	.	2ee-\	tol-	.	.	.	.	.	.	.	1ryy
4En\	.	4en\	.	4g/	.	.	.	4E-\)	.	.	.	.	.	4g\)	.	.	.	.	.	.	.	.	.	.	.	.
2F#X\	.	2f#X\	.	2an/	.	4dd\	.	4F#X\	-lis	.	4d\	-lis	.	4a-X\	-lis	.	4dd\	-lies	.	.	.	.	.	.	.	.
.	.	.	.	.	.	4cc\	.	4F#\	pec-	.	4d\	pec-	.	4a-\	pec-	.	4cc\	pec-	.	.	.	.	.	.	.	.
=50	=50	=50	=50	=50	=50	=50	=50	=50	=50	=50	=50	=50	=50	=50	=50	=50	=50	=50	=50	=50	=50	=50	=50	=50	=50	=50
4G\	.	4G/	.	2a-/	.	4bn\	.	(4G\	-ca-	.	(4d\	-ca-	.	2a-\	-ca-	.	(4bn\	-ca-	.	.	.	.	.	.	.	1ryy
4A-\	.	4A-/	.	.	.	4cc\	.	4An\)	.	.	4c\)	.	.	.	.	.	4cc\)	.	.	.	.	.	.	.	.	.
4Bn\	.	2B-/	.	4g/	.	2dd\	.	2Bn\	-ta	.	2d\	-ta	.	(4g\	-ta	.	2dd\	-ta	.	.	.	.	.	.	.	.
4BBn/	.	.	.	4fn/	.	.	.	.	.	.	.	.	.	4f\)	.	.	.	.	.	.	.	.	.	.	.	.
=51	=51	=51	=51	=51	=51	=51	=51	=51	=51	=51	=51	=51	=51	=51	=51	=51	=51	=51	=51	=51	=51	=51	=51	=51	=51	=51
4C/	.	4c\	.	4en/	.	2dd\	.	(4C/	mun-	.	2d\	mun-	.	(4en\	mun-	.	2dd\	mun-	.	00r	.	00r	.	00r	.	1ryy
4D\	.	4d\	.	4f/	.	.	.	4D/)	.	.	.	.	.	4f\)	.	.	.	.	.	.	.	.	.	.	.	.
2E-X\	.	2e-\	.	2g/	.	4cc\	.	2E-\	-di	.	2c\	-di	.	2g\	-di	.	(4cc\	-di	.	.	.	.	.	.	.	.
.	.	.	.	.	.	4b-X\	.	.	.	.	.	.	.	.	.	.	4b-X\)	.	.	.	.	.	.	.	.	.
=52	=52	=52	=52	=52	=52	=52	=52	=52	=52	=52	=52	=52	=52	=52	=52	=52	=52	=52	=52	=52	=52	=52	=52	=52	=52	=52
4F\	.	4f\	.	2g/	.	4an/	.	(4F\	mi-	.	(4c\	mi-	.	(2g\	mi-	.	(4an\	mi-	.	.	.	.	.	.	.	1ryy
4G\	.	4G/	.	.	.	4b-/	.	4G\)	-se-	.	4B-\)	.	.	.	.	.	4b-\)	.	.	.	.	.	.	.	.	.
4A-\	.	2An/	.	4f/	.	2cc\	.	2An\	.	.	2c\	-se-	.	4f\)	.	.	2cc\	-se-	.	.	.	.	.	.	.	.
4AA-/	.	.	.	4e-X/	.	.	.	.	.	.	.	.	.	4e-X\	-se-	.	.	.	.	.	.	.	.	.	.	.
=53	=53	=53	=53	=53	=53	=53	=53	=53	=53	=53	=53	=53	=53	=53	=53	=53	=53	=53	=53	=53	=53	=53	=53	=53	=53	=53
4BB-/	.	4B-/	.	4d/	.	2cc\	.	4BB-/	-re-	.	2c\	-re-	.	(4d\	-re-	.	2cc\	-re-	.	.	.	.	.	.	.	1ryy
4C/	.	4c/	.	4e-/	.	.	.	4C/	.	.	.	.	.	4e-\)	.	.	.	.	.	.	.	.	.	.	.	.
2D\	.	2d\	.	2f/	.	4b-/	.	2D\	-re	.	2B-\	-re	.	2f\	-re	.	4b-\	.	.	.	.	.	.	.	.	.
.	.	.	.	.	.	4an/	.	.	.	.	.	.	.	.	.	.	(4a-\	.	.	.	.	.	.	.	.	.
=54	=54	=54	=54	=54	=54	=54	=54	=54	=54	=54	=54	=54	=54	=54	=54	=54	=54	=54	=54	=54	=54	=54	=54	=54	=54	=54
4E-\	.	4E-/	.	2f/	.	4g/	.	(4E-\	no-	.	4B-\	no-	.	2f\	no-	.	4g\)	.	.	.	.	.	.	.	.	1ryy
4F\	.	4F/	.	.	.	4a-/	.	4F\)	.	.	4A-\	.	.	.	.	.	4a-\	.	.	.	.	.	.	.	.	.
2G\	.	2G/	.	4e-/	.	2b-/	.	2G\	.	.	2B-\	.	.	4e-\	.	.	2b-\	-re	.	.	.	.	.	.	.	.
.	.	.	.	4d/	.	.	.	.	.	.	.	.	.	4d\	.	.	.	.	.	.	.	.	.	.	.	.
=55	=55	=55	=55	=55	=55	=55	=55	=55	=55	=55	=55	=55	=55	=55	=55	=55	=55	=55	=55	=55	=55	=55	=55	=55	=55	=55
4A-\	.	4A-/	.	4c/	.	2b-/	.	4A-\	.	.	2B-\	.	.	4c\	.	.	2b-\	no-	.	00r	.	00r	.	00r	.	1ryy
4B-\	.	4B-/	.	4d/	.	.	.	4B-\	.	.	.	.	.	4d\	.	.	.	.	.	.	.	.	.	.	.	.
2c\	.	2c\	.	2e-/	.	4a-/	.	2c\	.	.	2An\	.	.	2e-\	.	.	(4a-\	.	.	.	.	.	.	.	.	.
.	.	.	.	.	.	4g/	.	.	.	.	.	.	.	.	.	.	4g\)	.	.	.	.	.	.	.	.	.
=56	=56	=56	=56	=56	=56	=56	=56	=56	=56	=56	=56	=56	=56	=56	=56	=56	=56	=56	=56	=56	=56	=56	=56	=56	=56	=56
4d\	.	4d\	.	4A-/	.	4f#X/	.	4d\	-bis	.	4A-\	-bis	.	4d\	-bis	.	4f#X/	-bis	.	.	.	.	.	.	.	1ryy
4r	.	4d\	.	(4f#X/	.	4dd`\	.	4r	.	.	4r	.	.	4r	.	.	4r	.	.	.	.	.	.	.	.	.
2r	.	4e-X\	.	4g/)	.	(4cc#X\	.	2r	.	.	2r	.	.	2r	.	.	2r	.	.	.	.	.	.	.	.	.
.	.	4d\	.	4f#/	.	4dd\)	.	.	.	.	.	.	.	.	.	.	.	.	.	.	.	.	.	.	.	.
=57	=57	=57	=57	=57	=57	=57	=57	=57	=57	=57	=57	=57	=57	=57	=57	=57	=57	=57	=57	=57	=57	=57	=57	=57	=57	=57
1F#X	.	1d	.	1an	.	(8dd\L	.	2.F#X\	Sus-	.	2.d\	Sus-	.	2.an\	Sus-	.	2.ccn\	Sus-	.	.	.	.	.	.	.	1ryy
.	.	.	.	.	.	8ccn\)	.	.	.	.	.	.	.	.	.	.	.	.	.	.	.	.	.	.	.	.
.	.	.	.	.	.	8cc`\	.	.	.	.	.	.	.	.	.	.	.	.	.	.	.	.	.	.	.	.
.	.	.	.	.	.	8cc`\J	.	.	.	.	.	.	.	.	.	.	.	.	.	.	.	.	.	.	.	.
.	.	.	.	.	.	8cc\L	.	.	.	.	.	.	.	.	.	.	.	.	.	.	.	.	.	.	.	.
.	.	.	.	.	.	8ee-X\	.	.	.	.	.	.	.	.	.	.	.	.	.	.	.	.	.	.	.	.
.	.	.	.	.	.	8dd\	.	4F#\	-ci-	.	4d\	-ci-	.	4a\	-ci-	.	4cc\	-ci-	.	.	.	.	.	.	.	.
.	.	.	.	.	.	8cc\J	.	.	.	.	.	.	.	.	.	.	.	.	.	.	.	.	.	.	.	.
=58	=58	=58	=58	=58	=58	=58	=58	=58	=58	=58	=58	=58	=58	=58	=58	=58	=58	=58	=58	=58	=58	=58	=58	=58	=58	=58
4G\	.	4G/	.	4d/	.	4bn\	.	4G\	-pe	.	4d\	-pe	.	4g\	-pe	.	4bn\	-pe	.	.	.	.	.	.	.	1ryy
4r	.	4g\	.	4bn\	.	4gg`\	.	4r	.	.	4r	.	.	4r	.	.	4r	.	.	.	.	.	.	.	.	.
2r	.	(4a-X\	.	4cc\	.	(4ff#X\	.	2r	.	.	2r	.	.	2r	.	.	2r	.	.	.	.	.	.	.	.	.
.	.	4g\)	.	4b\	.	4gg\)	.	.	.	.	.	.	.	.	.	.	.	.	.	.	.	.	.	.	.	.
=59	=59	=59	=59	=59	=59	=59	=59	=59	=59	=59	=59	=59	=59	=59	=59	=59	=59	=59	=59	=59	=59	=59	=59	=59	=59	=59
1BBn	.	1g	.	1d	.	(8gg\L	.	2.Bn\	de-	.	2.d\	de-	.	2.g\	de-	.	2.dd\	de-	.	00r	.	00r	.	00r	.	1ryy
.	.	.	.	.	.	8ffn\)	.	.	.	.	.	.	.	.	.	.	.	.	.	.	.	.	.	.	.	.
.	.	.	.	.	.	8ff\	.	.	.	.	.	.	.	.	.	.	.	.	.	.	.	.	.	.	.	.
.	.	.	.	.	.	8ff\J	.	.	.	.	.	.	.	.	.	.	.	.	.	.	.	.	.	.	.	.
.	.	.	.	.	.	(8ff\L	.	.	.	.	.	.	.	.	.	.	.	.	.	.	.	.	.	.	.	.
.	.	.	.	.	.	8aa-X\)	.	.	.	.	.	.	.	.	.	.	.	.	.	.	.	.	.	.	.	.
.	.	.	.	.	.	(8gg\	.	4B\	-pre-	.	4d\	-pre-	.	4g\	-prae-	.	4dd\	-pre-	.	.	.	.	.	.	.	.
.	.	.	.	.	.	8ff\J)	.	.	.	.	.	.	.	.	.	.	.	.	.	.	.	.	.	.	.	.
=60	=60	=60	=60	=60	=60	=60	=60	=60	=60	=60	=60	=60	=60	=60	=60	=60	=60	=60	=60	=60	=60	=60	=60	=60	=60	=60
1C	.	1g	.	1e-X	.	(8ff\L	.	2.c\	-ca-	.	2.c\	-ca-	.	2.g\	-ca-	.	2.ee-\	-ca-	.	.	.	.	.	.	.	1ryy
.	.	.	.	.	.	8ee-\)	.	.	.	.	.	.	.	.	.	.	.	.	.	.	.	.	.	.	.	.
.	.	.	.	.	.	8dd`\	.	.	.	.	.	.	.	.	.	.	.	.	.	.	.	.	.	.	.	.
.	.	.	.	.	.	8cc`\J	.	.	.	.	.	.	.	.	.	.	.	.	.	.	.	.	.	.	.	.
.	.	.	.	.	.	(8cc\L	.	.	.	.	.	.	.	.	.	.	.	.	.	.	.	.	.	.	.	.
.	.	.	.	.	.	8dd\)	.	.	.	.	.	.	.	.	.	.	.	.	.	.	.	.	.	.	.	.
.	.	.	.	.	.	(8dd\	.	4c\	-ti-	.	4c\	-ti-	.	4g\	-ti-	.	4ee-\	-ti-	.	.	.	.	.	.	.	.
.	.	.	.	.	.	8ee-\J)	.	.	.	.	.	.	.	.	.	.	.	.	.	.	.	.	.	.	.	.
=61	=61	=61	=61	=61	=61	=61	=61	=61	=61	=61	=61	=61	=61	=61	=61	=61	=61	=61	=61	=61	=61	=61	=61	=61	=61	=61
1AA-X	.	2c\	.	2e-/	.	8f#X/L	.	4A-X\	-o-	.	4e-\	-o-	.	4f#X\	-o-	.	4cc\	-o-	.	.	.	.	.	.	.	1ryy
.	.	.	.	.	.	8f#/J	.	.	.	.	.	.	.	.	.	.	.	.	.	.	.	.	.	.	.	.
.	.	.	.	.	.	4f#/	.	4A-\	-nem	.	4e-\	-nem	.	4f#\	-nem	.	4cc\	-nem	.	.	.	.	.	.	.	.
.	.	2A-X/	.	2c/	.	4f#/	.	2A-\	nos-	.	2c\	nos-	.	2f#\	nos-	.	2cc\	no-	.	.	.	.	.	.	.	.
.	.	.	.	.	.	8f#/L	.	.	.	.	.	.	.	.	.	.	.	.	.	.	.	.	.	.	.	.
.	.	.	.	.	.	8f#/J	.	.	.	.	.	.	.	.	.	.	.	.	.	.	.	.	.	.	.	.
=62	=62	=62	=62	=62	=62	=62	=62	=62	=62	=62	=62	=62	=62	=62	=62	=62	=62	=62	=62	=62	=62	=62	=62	=62	=62	=62
4GG/	.	4G/	.	4Bn/	.	4g/	.	4G\	-tram	.	4d\	-tram	.	4g\	-tram	.	4bn\	-stram	.	.	.	.	.	.	.	1ryy
4r	.	4r	.	4r	.	4g/	.	4r	.	.	4r	.	.	4r	.	.	4r	.	.	.	.	.	.	.	.	.
2r	.	4r	.	4r	.	(4a-X/	.	2r	.	.	2r	.	.	2r	.	.	2r	.	.	.	.	.	.	.	.	.
.	.	4Bn/	.	4d/	.	4g/)	.	.	.	.	.	.	.	.	.	.	.	.	.	.	.	.	.	.	.	.
=63	=63	=63	=63	=63	=63	=63	=63	=63	=63	=63	=63	=63	=63	=63	=63	=63	=63	=63	=63	=63	=63	=63	=63	=63	=63	=63
2r	.	(4c/	.	(4e-/	.	(4f#X/	.	2r	.	.	2r	.	.	2r	.	.	2r	.	.	00r	.	00r	.	00r	.	1ryy
.	.	4B-/)	.	4d/)	.	4g/)	.	.	.	.	.	.	.	.	.	.	.	.	.	.	.	.	.	.	.	.
4r	.	(4c/	.	(4e-/	.	(4f#/	.	4r	.	.	4r	.	.	4r	.	.	4r	.	.	.	.	.	.	.	.	.
4GG/	.	4B-/)	.	4d/)	.	4g/)	.	4G\	qui	.	4Bn\	qui	.	4d\	qui	.	4g\	qui	.	.	.	.	.	.	.	.
=64	=64	=64	=64	=64	=64	=64	=64	=64	=64	=64	=64	=64	=64	=64	=64	=64	=64	=64	=64	=64	=64	=64	=64	=64	=64	=64
1BBn	.	1G	.	8d/	.	8fn/	.	4Bn\	se-	.	4G/	se-	.	4d\	se-	.	4fn/	tol-	.	.	.	.	.	.	.	1ryy
.	.	.	.	4d/	.	4f/	.	.	.	.	.	.	.	.	.	.	.	.	.	.	.	.	.	.	.	.
.	.	.	.	.	.	.	.	8B\	-des	.	8G/	-des	.	8d\	-des	.	8f/	-lis	.	.	.	.	.	.	.	.
.	.	.	.	4d/	.	4f/	.	8B\	ad	.	8G/	ad	.	8d\	ad	.	8f/	.	.	.	.	.	.	.	.	.
.	.	.	.	.	.	.	.	4B\	dex-	.	4G/	dex-	.	4d\	dex-	.	4f/	-pe-	.	.	.	.	.	.	.	.
.	.	.	.	4d/	.	4f/	.	.	.	.	.	.	.	.	.	.	.	.	.	.	.	.	.	.	.	.
.	.	.	.	.	.	.	.	8B\	-te-	.	8G/	-te-	.	8d\	-te-	.	8f/	-ca-	.	.	.	.	.	.	.	.
.	.	.	.	8d/	.	8f/	.	8B\	-ram	.	8G/	-ram	.	8d\	-ram	.	8f/	-ta	.	.	.	.	.	.	.	.
=65	=65	=65	=65	=65	=65	=65	=65	=65	=65	=65	=65	=65	=65	=65	=65	=65	=65	=65	=65	=65	=65	=65	=65	=65	=65	=65
4C/	.	4G/	.	4c/	.	4e-X/	.	4c\	Pa-	.	4G/	Pa-	.	4e-X\	Pa-	.	4e-X/	mun-	.	.	.	.	.	.	.	1ryy
4r	.	4r	.	4r	.	4cc`\	.	4C/	-tris	.	4G/	-tris	.	4e-\	-tris	.	4e-/	-di	.	.	.	.	.	.	.	.
!LO:TX:b:Bi:t=Volti	!	!	!	!	!	!	!	!	!	!	!	!	!	!	!	!	!	!	!	!	!	!	!	!	!	!
2r	.	4r	.	4r	.	(4bn\	.	2r	.	.	2r	.	.	2r	.	.	2r	.	.	.	.	.	.	.	.	.
.	.	4e-\	.	4g/	.	4cc\)	.	.	.	.	.	.	.	.	.	.	.	.	.	.	.	.	.	.	.	.
=66	=66	=66	=66	=66	=66	=66	=66	=66	=66	=66	=66	=66	=66	=66	=66	=66	=66	=66	=66	=66	=66	=66	=66	=66	=66	=66
1r	.	(4f\	.	4a-X/	.	(4bn\	.	1r	.	.	1r	.	.	1r	.	.	1r	.	.	.	.	.	.	.	.	1ryy
.	.	4e-\)	.	4g/	.	4cc\)	.	.	.	.	.	.	.	.	.	.	.	.	.	.	.	.	.	.	.	.
.	.	4Bn\	.	2g/	.	4dd\	.	.	.	.	.	.	.	.	.	.	.	.	.	.	.	.	.	.	.	.
.	.	4c\	.	.	.	4ee-X\	.	.	.	.	.	.	.	.	.	.	.	.	.	.	.	.	.	.	.	.
=67	=67	=67	=67	=67	=67	=67	=67	=67	=67	=67	=67	=67	=67	=67	=67	=67	=67	=67	=67	=67	=67	=67	=67	=67	=67	=67
1AA-X	.	2c\	.	2e-/	.	8f#X/	.	4A-X\	mi-	.	4c\	mi-	.	4e-\	mi-	.	4f#X/	mi-	.	0r	.	0r	.	0r	.	1ryy
.	.	.	.	.	.	4f#/	.	.	.	.	.	.	.	.	.	.	.	.	.	.	.	.	.	.	.	.
.	.	.	.	.	.	.	.	4A-\	-se-	.	4c\	-se-	.	4e-\	-se-	.	4f#/	-se-	.	.	.	.	.	.	.	.
.	.	.	.	.	.	4f#/	.	.	.	.	.	.	.	.	.	.	.	.	.	.	.	.	.	.	.	.
.	.	2A-X/	.	2c/	.	.	.	4A-\	-re-	.	4c\	-re-	.	4c\	-re-	.	4f#/	-re-	.	.	.	.	.	.	.	.
.	.	.	.	.	.	4f#/	.	.	.	.	.	.	.	.	.	.	.	.	.	.	.	.	.	.	.	.
.	.	.	.	.	.	.	.	4A-\	-re	.	4c\	-re	.	4c\	-re	.	4f#/	-re	.	.	.	.	.	.	.	.
.	.	.	.	.	.	8f#/	.	.	.	.	.	.	.	.	.	.	.	.	.	.	.	.	.	.	.	.
=68	=68	=68	=68	=68	=68	=68	=68	=68	=68	=68	=68	=68	=68	=68	=68	=68	=68	=68	=68	=68	=68	=68	=68	=68	=68	=68
4GG/	.	4G/	.	4Bn/	.	4g/	.	2G\	no-	.	2d\	no-	.	2Bn/	no-	.	2g\	no-	.	.	.	.	.	.	.	1ryy
4G\	.	4G/	.	4B/	.	4g/	.	.	.	.	.	.	.	.	.	.	.	.	.	.	.	.	.	.	.	.
4GG/	.	4G/	.	4B/	.	4g/	.	4G\	-bis	.	4d\	-bis	.	4B/	-bis	.	4g\	-bis	.	.	.	.	.	.	.	.
4r	.	4r	.	4r	.	4r	.	4r	.	.	4r	.	.	4r	.	.	4r	.	.	.	.	.	.	.	.	.
=69	=69	=69	=69	=69	=69	=69	=69	=69	=69	=69	=69	=69	=69	=69	=69	=69	=69	=69	=69	=69	=69	=69	=69	=69	=69	=69
!LO:TX:a:Bi:t=T&colon;	!	!	!LO:DY:a	!	!LO:DY:a	!	!LO:DY:a	!	!	!LO:DY:a	!	!	!LO:DY:a	!	!	!LO:DY:a	!	!	!	!	!	!	!	!	!	!
4E-\	.	4e-\	f	4G/	f	4ee- 4e- 4G/	ff	2.E-\	Quo-	f	2.B-\	Quo-	f	2.g\	Quo-	f	2.ee-\	quo-	.	4G/	.	4e-\	.	4g/	.	1ryy
4r	.	4r	.	16G/LL	.	16e-/LL	.	.	.	.	.	.	.	.	.	.	.	.	.	4r	.	4r	.	4g/	.	.
.	.	.	.	16A-/	.	16f/	.	.	.	.	.	.	.	.	.	.	.	.	.	.	.	.	.	.	.	.
.	.	.	.	16B-/	.	16g/	.	.	.	.	.	.	.	.	.	.	.	.	.	.	.	.	.	.	.	.
.	.	.	.	16A-/JJ	.	16f/JJ	.	.	.	.	.	.	.	.	.	.	.	.	.	.	.	.	.	.	.	.
4E-\	.	4e-\	.	4G/	.	4e-/	.	.	.	.	.	.	.	.	.	.	.	.	.	4G/	.	4e-\	.	4g/	.	.
4r	.	4r	.	16G/LL	.	16e-/LL	.	4E-\	-ni-	.	4B-\	-ni-	.	4g\	-ni-	.	4ee-\	-ni-	.	4r	.	4r	.	4g/	.	.
.	.	.	.	16A-/	.	16f/	.	.	.	.	.	.	.	.	.	.	.	.	.	.	.	.	.	.	.	.
.	.	.	.	16B-/	.	16g/	.	.	.	.	.	.	.	.	.	.	.	.	.	.	.	.	.	.	.	.
.	.	.	.	16A-/JJ	.	16f/JJ	.	.	.	.	.	.	.	.	.	.	.	.	.	.	.	.	.	.	.	.
=70	=70	=70	=70	=70	=70	=70	=70	=70	=70	=70	=70	=70	=70	=70	=70	=70	=70	=70	=70	=70	=70	=70	=70	=70	=70	=70
4E-\	.	4e-\	.	4G/	.	4e- 4G/	.	4E-\	-am	.	4B-\	-am	.	4g\	-am	.	4ee-\	-am	.	4G/	.	4e-\	.	2g/	.	1ryy
4E-\	.	4e-\	.	4G/	.	4e- 4G/	.	4r	.	.	4r	.	.	4r	.	.	4r	.	.	4G/	.	4e-\	.	.	.	.
4E-\	.	4e-\	.	4G/	.	4e- 4G/	.	2r	.	.	2r	.	.	2r	.	.	2r	.	.	4G/	.	4e-\	.	4g/	.	.
16B-\LL	.	16b-\LL	.	4r	.	4r	.	.	.	.	.	.	.	.	.	.	.	.	.	4r	.	4r	.	4r	.	.
16A-\	.	16a-\	.	.	.	.	.	.	.	.	.	.	.	.	.	.	.	.	.	.	.	.	.	.	.	.
16G\	.	16g\	.	.	.	.	.	.	.	.	.	.	.	.	.	.	.	.	.	.	.	.	.	.	.	.
16F\JJ	.	16f\JJ	.	.	.	.	.	.	.	.	.	.	.	.	.	.	.	.	.	.	.	.	.	.	.	.
=71	=71	=71	=71	=71	=71	=71	=71	=71	=71	=71	=71	=71	=71	=71	=71	=71	=71	=71	=71	=71	=71	=71	=71	=71	=71	=71
*tremolo	*	*tremolo	*	*tremolo	*	*	*	*	*ij	*	*	*ij	*	*	*ij	*	*	*ij	*	*	*	*	*	*	*	*
8E-\L	.	8e-\L	.	16g/LL	.	4ee- 4e-/	.	4.E-\	quo-	.	4.e-\	quo-	.	4.g\	quo-	.	4.b-\	quo-	.	4G/	.	2e-\	.	1b-	.	1ryy
.	.	.	.	16b-/	.	.	.	.	.	.	.	.	.	.	.	.	.	.	.	.	.	.	.	.	.	.
8E-\	.	8e-\	.	16g/	.	.	.	.	.	.	.	.	.	.	.	.	.	.	.	.	.	.	.	.	.	.
.	.	.	.	16b-/	.	.	.	.	.	.	.	.	.	.	.	.	.	.	.	.	.	.	.	.	.	.
8E-\	.	8e-\	.	16g/	.	16ee-\LL	.	.	.	.	.	.	.	.	.	.	.	.	.	2G/	.	.	.	.	.	.
.	.	.	.	16b-/	.	16ff\	.	.	.	.	.	.	.	.	.	.	.	.	.	.	.	.	.	.	.	.
8E-\J	.	8e-\J	.	16g/	.	16gg\	.	8E-\	-ni-	.	8e-\	-ni-	.	8g\	-ni-	.	8b-\	-ni-	.	.	.	.	.	.	.	.
.	.	.	.	16b-/JJ	.	16ff\JJ	.	.	.	.	.	.	.	.	.	.	.	.	.	.	.	.	.	.	.	.
8E-\L	.	8e-\L	.	16g/LL	.	8ee-\L	.	4E-\	-am	.	4e-\	-am	.	4g\	-am	.	4b-\	-am	.	.	.	4e-\	.	.	.	.
.	.	.	.	16b-/	.	.	.	.	.	.	.	.	.	.	.	.	.	.	.	.	.	.	.	.	.	.
8E-\	.	8e-\	.	16g/	.	8ee-\	.	.	.	.	.	.	.	.	.	.	.	.	.	.	.	.	.	.	.	.
.	.	.	.	16b-/	.	.	.	.	.	.	.	.	.	.	.	.	.	.	.	.	.	.	.	.	.	.
*	*	*	*	*	*	*	*	*	*Xij	*	*	*Xij	*	*	*Xij	*	*	*Xij	*	*	*	*	*	*	*	*
!	!	!	!	!	!	!	!	!	!	!	!	!	!	!	!	!	!	!	!	!LO:TX:t=P:problem:mixed beam	!	!	!	!	!	!
8E-\	.	8e-\	.	16g/	.	8ff\	.	4E-\	tu	.	4e-\	tu	.	4g\	tu	.	4b-\	tu	.	8B-/L	.	8f\L	.	.	.	.
.	.	.	.	16b-/	.	.	.	.	.	.	.	.	.	.	.	.	.	.	.	.	.	.	.	.	.	.
8E-\J	.	8e-\J	.	16g/	.	8gg\J	.	.	.	.	.	.	.	.	.	.	.	.	.	8e-\J	.	8g\J	.	.	.	.
.	.	.	.	16b-/JJ	.	.	.	.	.	.	.	.	.	.	.	.	.	.	.	.	.	.	.	.	.	.
=72	=72	=72	=72	=72	=72	=72	=72	=72	=72	=72	=72	=72	=72	=72	=72	=72	=72	=72	=72	=72	=72	=72	=72	=72	=72	=72
8D\L	.	8d\L	.	16g/LL	.	(8gg\L	.	2D\	so-	.	2B-\	so-	.	2f\	so-	.	2b-\	so-	.	4B-/	.	4f\	.	1b-	.	1ryy
.	.	.	.	16b-/	.	.	.	.	.	.	.	.	.	.	.	.	.	.	.	.	.	.	.	.	.	.
8D\	.	8d\	.	16g/	.	8ff\)	.	.	.	.	.	.	.	.	.	.	.	.	.	.	.	.	.	.	.	.
.	.	.	.	16b-/	.	.	.	.	.	.	.	.	.	.	.	.	.	.	.	.	.	.	.	.	.	.
8D\	.	8d\	.	16g/	.	8ff\	.	.	.	.	.	.	.	.	.	.	.	.	.	2B-/	.	2f\	.	.	.	.
.	.	.	.	16b-/	.	.	.	.	.	.	.	.	.	.	.	.	.	.	.	.	.	.	.	.	.	.
8D\J	.	8d\J	.	16g/	.	8ff\J	.	.	.	.	.	.	.	.	.	.	.	.	.	.	.	.	.	.	.	.
.	.	.	.	16b-/JJ	.	.	.	.	.	.	.	.	.	.	.	.	.	.	.	.	.	.	.	.	.	.
*Xtremolo	*	*Xtremolo	*	*Xtremolo	*	*	*	*	*	*	*	*	*	*	*	*	*	*	*	*	*	*	*	*	*	*
8D\L	.	8d\L	.	16f/LL	.	4ff\	.	4D\	-lus	.	4B-\	-lus	.	4f\	-lus	.	4b-\	-lus	.	.	.	.	.	.	.	.
.	.	.	.	16b-/	.	.	.	.	.	.	.	.	.	.	.	.	.	.	.	.	.	.	.	.	.	.
8D\J	.	8d\	.	16f/	.	.	.	.	.	.	.	.	.	.	.	.	.	.	.	.	.	.	.	.	.	.
.	.	.	.	16b-/JJ	.	.	.	.	.	.	.	.	.	.	.	.	.	.	.	.	.	.	.	.	.	.
8E-\L	.	8e-\	.	16f/LL	.	8gg\L	.	4E-\	tu	.	4B-\	tu	.	4g\	tu	.	4b-\	tu	.	4e-\	.	8g\L	.	.	.	.
.	.	.	.	16b-/	.	.	.	.	.	.	.	.	.	.	.	.	.	.	.	.	.	.	.	.	.	.
8E-\J	.	8e-\J	.	16g/	.	8bb-\J	.	.	.	.	.	.	.	.	.	.	.	.	.	.	.	8b-\J	.	.	.	.
.	.	.	.	16b-/JJ	.	.	.	.	.	.	.	.	.	.	.	.	.	.	.	.	.	.	.	.	.	.
=73	=73	=73	=73	=73	=73	=73	=73	=73	=73	=73	=73	=73	=73	=73	=73	=73	=73	=73	=73	=73	=73	=73	=73	=73	=73	=73
*tremolo	*	*tremolo	*	*tremolo	*	*	*	*	*	*	*	*	*	*	*	*	*	*	*	*	*	*	*	*	*	*
8A-\L	.	8A-/L	.	16f/LL	.	8bb-\L	.	(2A-\	so-	.	2c\	so-	.	8g\L	so-	.	8b-\L	so-	.	8g\L	.	8b-\L	.	8gg\L	.	1ryy
.	.	.	.	16f/	.	.	.	.	.	.	.	.	.	.	.	.	.	.	.	.	.	.	.	.	.	.
8A-\	.	8A-/	.	16f/	.	8aa-\J	.	.	.	.	.	.	.	8f\J	.	.	8a-\J	.	.	8f\J	.	8a-\J	.	8ff\J	.	.
.	.	.	.	16f/JJ	.	.	.	.	.	.	.	.	.	.	.	.	.	.	.	.	.	.	.	.	.	.
8A-\	.	8A-/	.	16e-/LL	.	2gg\	.	.	.	.	.	.	.	2e-\	.	.	2g/	.	.	2e-\	.	2g\	.	2ee-\	.	.
.	.	.	.	16e-/	.	.	.	.	.	.	.	.	.	.	.	.	.	.	.	.	.	.	.	.	.	.
8A-\J	.	8A-/J	.	16e-/	.	.	.	.	.	.	.	.	.	.	.	.	.	.	.	.	.	.	.	.	.	.
.	.	.	.	16e-/	.	.	.	.	.	.	.	.	.	.	.	.	.	.	.	.	.	.	.	.	.	.
*Xtremolo	*	*	*	*	*	*	*	*	*	*	*	*	*	*	*	*	*	*	*	*	*	*	*	*	*	*
8B-\L	.	8B-/L	.	16e-/	.	.	.	4B-\)	-lus	.	2B-\	-lus	.	.	.	.	.	.	.	.	.	.	.	.	.	.
.	.	.	.	16e-/	.	.	.	.	.	.	.	.	.	.	.	.	.	.	.	.	.	.	.	.	.	.
8B-\J	.	8B-/	.	16e-/	.	.	.	.	.	.	.	.	.	.	.	.	.	.	.	.	.	.	.	.	.	.
.	.	.	.	16e-/JJ	.	.	.	.	.	.	.	.	.	.	.	.	.	.	.	.	.	.	.	.	.	.
8BB-/L	.	8B-/	.	16d/LL	.	4ff\	.	4BB-/	.	.	.	.	.	4d\	-lus	.	4f/	-lus	.	4B-/	.	4f\	.	4dd\	.	.
.	.	.	.	16d/	.	.	.	.	.	.	.	.	.	.	.	.	.	.	.	.	.	.	.	.	.	.
8BB-/J	.	8B-/J	.	16d/	.	.	.	.	.	.	.	.	.	.	.	.	.	.	.	.	.	.	.	.	.	.
.	.	.	.	16d/JJ	.	.	.	.	.	.	.	.	.	.	.	.	.	.	.	.	.	.	.	.	.	.
=74	=74	=74	=74	=74	=74	=74	=74	=74	=74	=74	=74	=74	=74	=74	=74	=74	=74	=74	=74	=74	=74	=74	=74	=74	=74	=74
*tremolo	*	*	*	*	*	*	*	*	*	*	*	*	*	*	*	*	*	*	*	*	*	*	*	*	*	*
8E-\L	.	8e-\L	.	16g/LL	.	16ee-\LL	.	4E-\	s(an)c-	.	4B-\	s(an)c-	.	4e-\	s(an)c-	.	4g\	s(an)c-	.	2G/	.	2e-\	.	2ee-\	.	1ryy
.	.	.	.	16b-/	.	16ff\	.	.	.	.	.	.	.	.	.	.	.	.	.	.	.	.	.	.	.	.
8E-\	.	8e-\	.	16g/	.	16gg\	.	.	.	.	.	.	.	.	.	.	.	.	.	.	.	.	.	.	.	.
.	.	.	.	16b-/	.	16ff\JJ	.	.	.	.	.	.	.	.	.	.	.	.	.	.	.	.	.	.	.	.
8E-\	.	8e-\	.	16g/	.	8ee-\L	.	4E-\	-tus	.	4e-\	-tus	.	4g\	-tus	.	4b-\	-tus	.	.	.	.	.	.	.	.
.	.	.	.	16b-/	.	.	.	.	.	.	.	.	.	.	.	.	.	.	.	.	.	.	.	.	.	.
8E-\J	.	8e-\J	.	16g/	.	8ee-\J	.	.	.	.	.	.	.	.	.	.	.	.	.	.	.	.	.	.	.	.
.	.	.	.	16b-/JJ	.	.	.	.	.	.	.	.	.	.	.	.	.	.	.	.	.	.	.	.	.	.
8E-\L	.	8e-\L	.	16g/LL	.	(8ee-\L	.	4E-\	So-	.	4e-\	so-	.	4g\	so-	.	4b-\	so-	.	4G/	.	4e-\	.	2b-\	.	.
.	.	.	.	16b-/	.	.	.	.	.	.	.	.	.	.	.	.	.	.	.	.	.	.	.	.	.	.
8E-\	.	8e-\	.	16g/	.	8ff\)	.	.	.	.	.	.	.	.	.	.	.	.	.	.	.	.	.	.	.	.
.	.	.	.	16b-/	.	.	.	.	.	.	.	.	.	.	.	.	.	.	.	.	.	.	.	.	.	.
!	!	!	!	!	!	!	!	!	!	!	!	!	!	!	!	!	!	!	!	!LO:TX:t=P:problem:mixed beam	!	!	!	!	!	!
8E-\	.	8e-\	.	16g/	.	(8ff\	.	4E-\	-lus	.	4e-\	-lus	.	4g\	-lus	.	4b-\	-lus	.	8B-/L	.	8f\L	.	.	.	.
.	.	.	.	16b-/	.	.	.	.	.	.	.	.	.	.	.	.	.	.	.	.	.	.	.	.	.	.
8E-\J	.	8e-\J	.	16g/	.	8gg\J)	.	.	.	.	.	.	.	.	.	.	.	.	.	8e-\J	.	8g\J	.	.	.	.
.	.	.	.	16b-/JJ	.	.	.	.	.	.	.	.	.	.	.	.	.	.	.	.	.	.	.	.	.	.
=75	=75	=75	=75	=75	=75	=75	=75	=75	=75	=75	=75	=75	=75	=75	=75	=75	=75	=75	=75	=75	=75	=75	=75	=75	=75	=75
8D\L	.	8d\L	.	16f/LL	.	(8gg\L	.	4D\	Do-	.	4B-\	Do-	.	4f\	Do-	.	4.b-\	Do-	.	4B-/	.	4f\	.	1b-	.	1ryy
.	.	.	.	16b-/	.	.	.	.	.	.	.	.	.	.	.	.	.	.	.	.	.	.	.	.	.	.
8D\	.	8d\	.	16f/	.	8ff\)	.	.	.	.	.	.	.	.	.	.	.	.	.	.	.	.	.	.	.	.
.	.	.	.	16b-/	.	.	.	.	.	.	.	.	.	.	.	.	.	.	.	.	.	.	.	.	.	.
8D\	.	8d\	.	16f/	.	(8een\	.	4D\	-mi-	.	4B-\	-mi-	.	4f\	-mi-	.	.	.	.	2B-/	.	2f\	.	.	.	.
.	.	.	.	16b-/	.	.	.	.	.	.	.	.	.	.	.	.	.	.	.	.	.	.	.	.	.	.
8D\J	.	8d\J	.	16f/	.	8ff\J)	.	.	.	.	.	.	.	.	.	.	8b-\	-mi-	.	.	.	.	.	.	.	.
.	.	.	.	16b-/JJ	.	.	.	.	.	.	.	.	.	.	.	.	.	.	.	.	.	.	.	.	.	.
*Xtremolo	*	*Xtremolo	*	*Xtremolo	*	*	*	*	*	*	*	*	*	*	*	*	*	*	*	*	*	*	*	*	*	*
8D\L	.	8d\L	.	16g/LL	.	(8ff\L	.	4D\	-n*us(	.	4B-\	-nus	.	4f\	-nus	.	4b-\	-n(us)	.	.	.	.	.	.	.	.
.	.	.	.	16b-/	.	.	.	.	.	.	.	.	.	.	.	.	.	.	.	.	.	.	.	.	.	.
8D\	.	8d\	.	16g/	.	8aa-\)	.	.	.	.	.	.	.	.	.	.	.	.	.	.	.	.	.	.	.	.
.	.	.	.	16b-/JJ	.	.	.	.	.	.	.	.	.	.	.	.	.	.	.	.	.	.	.	.	.	.
8E-\	.	8e-\	.	16g/LL	.	(8gg\	.	4E-\	tu	.	4B-\	tu	.	4g\	tu	.	4b-\	tu	.	8e-\L	.	8g\L	.	.	.	.
.	.	.	.	16b-/	.	.	.	.	.	.	.	.	.	.	.	.	.	.	.	.	.	.	.	.	.	.
8E-\J	.	8e-\J	.	16g/	.	8bb-\J)	.	.	.	.	.	.	.	.	.	.	.	.	.	8g\J	.	8b-\J	.	.	.	.
.	.	.	.	16b-/JJ	.	.	.	.	.	.	.	.	.	.	.	.	.	.	.	.	.	.	.	.	.	.
=76	=76	=76	=76	=76	=76	=76	=76	=76	=76	=76	=76	=76	=76	=76	=76	=76	=76	=76	=76	=76	=76	=76	=76	=76	=76	=76
*tremolo	*	*tremolo	*	*tremolo	*	*	*	*	*	*	*	*	*	*	*	*	*	*	*	*	*	*	*	*	*	*
8A-\L	.	8A-/L	.	16f/LL	.	8bb-\L	.	4A-\	so-	.	4c\	so-	.	8g\L	so-	.	8b-\L	so-	.	8g\L	.	8b-\L	.	8gg\L	.	1ryy
.	.	.	.	16f/	.	.	.	.	.	.	.	.	.	.	.	.	.	.	.	.	.	.	.	.	.	.
8A-\	.	8A-/	.	16f/	.	8aa-\J	.	.	.	.	.	.	.	8f\J	.	.	8a-\J	.	.	8f\J	.	8a-\J	.	8ff\J	.	.
.	.	.	.	16f/JJ	.	.	.	.	.	.	.	.	.	.	.	.	.	.	.	.	.	.	.	.	.	.
8A-\	.	8A-/	.	16e-/LL	.	2gg\	.	8A-\	-lus	.	8c\	-lus	.	8e-\	-lus	.	8a-\	-lus	.	2e-\	.	2g\	.	2ee-\	.	.
.	.	.	.	16e-/	.	.	.	.	.	.	.	.	.	.	.	.	.	.	.	.	.	.	.	.	.	.
8A-\J	.	8A-/J	.	16e-/	.	.	.	8A-\	al-	.	8c\	al-	.	8e-\	al-	.	8a-\	al-	.	.	.	.	.	.	.	.
.	.	.	.	16e-/	.	.	.	.	.	.	.	.	.	.	.	.	.	.	.	.	.	.	.	.	.	.
*Xtremolo	*	*	*	*	*	*	*	*	*	*	*	*	*	*	*	*	*	*	*	*	*	*	*	*	*	*
8B-\L	.	8B-/L	.	16e-/	.	.	.	4B-\	-tis-	.	4B-\	-tis-	.	4e-\	-tis-	.	4g/	-tis-	.	.	.	.	.	.	.	.
.	.	.	.	16e-/	.	.	.	.	.	.	.	.	.	.	.	.	.	.	.	.	.	.	.	.	.	.
8B-\J	.	8B-/	.	16e-/	.	.	.	.	.	.	.	.	.	.	.	.	.	.	.	.	.	.	.	.	.	.
.	.	.	.	16e-/JJ	.	.	.	.	.	.	.	.	.	.	.	.	.	.	.	.	.	.	.	.	.	.
8BB-/L	.	8B-/	.	16d/LL	.	4ff\	.	4BB-/	-si-	.	4B-\	-si-	.	4d\	-si-	.	4f/	-si-	.	4B-/	.	4f\	.	4dd\	.	.
.	.	.	.	16d/	.	.	.	.	.	.	.	.	.	.	.	.	.	.	.	.	.	.	.	.	.	.
8BB-/J	.	8B-/J	.	16d/	.	.	.	.	.	.	.	.	.	.	.	.	.	.	.	.	.	.	.	.	.	.
.	.	.	.	16d/JJ	.	.	.	.	.	.	.	.	.	.	.	.	.	.	.	.	.	.	.	.	.	.
*	*	*	*	*Xtremolo	*	*	*	*	*	*	*	*	*	*	*	*	*	*	*	*	*	*	*	*	*	*
=77	=77	=77	=77	=77	=77	=77	=77	=77	=77	=77	=77	=77	=77	=77	=77	=77	=77	=77	=77	=77	=77	=77	=77	=77	=77	=77
*tremolo	*	*	*	*	*	*	*	*	*	*	*	*	*	*	*	*	*	*	*	*	*	*	*	*	*	*
8E-\L	.	8e-\L	.	16g/LL	.	16ee-\LL	.	4E-\	-mus	.	4B-\	-mus	.	4e-\	-mus	.	4e-/	-mus	.	2G/	.	2e-\	.	2ee-\	.	1ryy
.	.	.	.	16b-/	.	(16ff\	.	.	.	.	.	.	.	.	.	.	.	.	.	.	.	.	.	.	.	.
8E-\	.	8e-\	.	16g/	.	16gg\)	.	.	.	.	.	.	.	.	.	.	.	.	.	.	.	.	.	.	.	.
.	.	.	.	16b-/JJ	.	16ff\JJ	.	.	.	.	.	.	.	.	.	.	.	.	.	.	.	.	.	.	.	.
8E-\	.	8e-\	.	16g/LL	.	8ee-\L	.	4r	.	.	4r	.	.	4r	.	.	4r	.	.	.	.	.	.	.	.	.
.	.	.	.	16b-/	.	.	.	.	.	.	.	.	.	.	.	.	.	.	.	.	.	.	.	.	.	.
8E-\J	.	8e-\J	.	16g/	.	8ee-\J	.	.	.	.	.	.	.	.	.	.	.	.	.	.	.	.	.	.	.	.
.	.	.	.	16b-/JJ	.	.	.	.	.	.	.	.	.	.	.	.	.	.	.	.	.	.	.	.	.	.
*	*	*	*	*tremolo	*	*	*	*	*	*	*	*	*	*	*	*	*	*	*	*	*	*	*	*	*	*
8G\L	.	8g\L	.	16e-/LL	.	(8ee-\L	.	2r	.	.	2r	.	.	2r	.	.	2r	.	.	2r	.	2r	.	2b-\	.	.
.	.	.	.	16b-/	.	.	.	.	.	.	.	.	.	.	.	.	.	.	.	.	.	.	.	.	.	.
8G\	.	8g\	.	16e-/	.	8gg\)	.	.	.	.	.	.	.	.	.	.	.	.	.	.	.	.	.	.	.	.
.	.	.	.	16b-/	.	.	.	.	.	.	.	.	.	.	.	.	.	.	.	.	.	.	.	.	.	.
8G\	.	8g\	.	16e-/	.	(8gg\	.	.	.	.	.	.	.	.	.	.	.	.	.	.	.	.	.	.	.	.
.	.	.	.	16b-/	.	.	.	.	.	.	.	.	.	.	.	.	.	.	.	.	.	.	.	.	.	.
8G\J	.	8g\J	.	16e-/	.	8bb-\J)	.	.	.	.	.	.	.	.	.	.	.	.	.	.	.	.	.	.	.	.
.	.	.	.	16b-/JJ	.	.	.	.	.	.	.	.	.	.	.	.	.	.	.	.	.	.	.	.	.	.
*Xtremolo	*	*Xtremolo	*	*	*	*	*	*	*	*	*	*	*	*	*	*	*	*	*	*	*	*	*	*	*	*
=78	=78	=78	=78	=78	=78	=78	=78	=78	=78	=78	=78	=78	=78	=78	=78	=78	=78	=78	=78	=78	=78	=78	=78	=78	=78	=78
*	*	*	*	*	*	*tremolo	*	*	*	*	*	*	*	*	*	*	*	*	*	*	*	*	*	*	*	*
4F\	.	8d\L	.	16b-/LL	.	16aa-\LL	.	4F\	Je-	.	4d\	Je-	.	4a-\	Je-	.	4b-\	Je-	.	4f\	.	4a-\	.	2.b-\	.	1ryy
.	.	.	.	16b-/	.	16aa-\	.	.	.	.	.	.	.	.	.	.	.	.	.	.	.	.	.	.	.	.
.	.	8d\	.	16b-/	.	16aa-\	.	.	.	.	.	.	.	.	.	.	.	.	.	.	.	.	.	.	.	.
.	.	.	.	16b-/	.	16aa-\JJ	.	.	.	.	.	.	.	.	.	.	.	.	.	.	.	.	.	.	.	.
4E-\	.	8e-\	.	16b-/	.	16gg\LL	.	4E-\	-su	.	4e-\	-su	.	4g\	-su	.	4b-\	-su	.	4e-\	.	4g\	.	.	.	.
.	.	.	.	16b-/	.	16gg\	.	.	.	.	.	.	.	.	.	.	.	.	.	.	.	.	.	.	.	.
.	.	8e-\J	.	16b-/	.	16gg\	.	.	.	.	.	.	.	.	.	.	.	.	.	.	.	.	.	.	.	.
.	.	.	.	16b-/JJ	.	16gg\JJ	.	.	.	.	.	.	.	.	.	.	.	.	.	.	.	.	.	.	.	.
*	*	*tremolo	*	*	*	*	*	*	*	*	*	*	*	*	*	*	*	*	*	*	*	*	*	*	*	*
4D\	.	8f\L	.	16b-/LL	.	16ff\LL	.	(4D/	Chris-	.	2f\	(Chris)-	.	(4f\	(Chris)-	.	(4b-\	(Chris)-	.	4B-/	.	4f\	.	.	.	.
.	.	.	.	16b-/	.	16ff\	.	.	.	.	.	.	.	.	.	.	.	.	.	.	.	.	.	.	.	.
.	.	8f\	.	16b-/	.	16ff\	.	.	.	.	.	.	.	.	.	.	.	.	.	.	.	.	.	.	.	.
.	.	.	.	16b-/JJ	.	16ff\JJ	.	.	.	.	.	.	.	.	.	.	.	.	.	.	.	.	.	.	.	.
4C/	.	8f\	.	16an/LL	.	16ee-\LL	.	4C/)	.	.	.	.	.	4e-\)	.	.	4an\)	.	.	4e-\	.	4e-\	.	4a\	.	.
.	.	.	.	16an/	.	16ee-\	.	.	.	.	.	.	.	.	.	.	.	.	.	.	.	.	.	.	.	.
.	.	8f\J	.	16an/	.	16ee-\	.	.	.	.	.	.	.	.	.	.	.	.	.	.	.	.	.	.	.	.
.	.	.	.	16an/JJ	.	16ee-\JJ	.	.	.	.	.	.	.	.	.	.	.	.	.	.	.	.	.	.	.	.
*	*	*Xtremolo	*	*	*	*Xtremolo	*	*	*	*	*	*	*	*	*	*	*	*	*	*	*	*	*	*	*	*
=79	=79	=79	=79	=79	=79	=79	=79	=79	=79	=79	=79	=79	=79	=79	=79	=79	=79	=79	=79	=79	=79	=79	=79	=79	=79	=79
4B-\	.	8f\L	.	16b-/LL	.	8dd\L	.	4B-\	-te	.	4f\	-te	.	4d\	-te	.	4b-\	-te	.	4B-/	.	4f\	.	1b-	.	1ryy
.	.	.	.	16b-/	.	.	.	.	.	.	.	.	.	.	.	.	.	.	.	.	.	.	.	.	.	.
.	.	8f\	.	16b-/	.	8b-\	.	.	.	.	.	.	.	.	.	.	.	.	.	.	.	.	.	.	.	.
.	.	.	.	16b-/	.	.	.	.	.	.	.	.	.	.	.	.	.	.	.	.	.	.	.	.	.	.
4G\	.	8e-\	.	16b-/	.	8ee-\	.	4G\	cum	.	4e-\	Cum	.	4e-\	cum	.	4b-\	Cum	.	4G/	.	4e-\	.	.	.	.
.	.	.	.	16b-/	.	.	.	.	.	.	.	.	.	.	.	.	.	.	.	.	.	.	.	.	.	.
.	.	8e-\J	.	16b-/	.	8b-\J	.	.	.	.	.	.	.	.	.	.	.	.	.	.	.	.	.	.	.	.
.	.	.	.	16b-/JJ	.	.	.	.	.	.	.	.	.	.	.	.	.	.	.	.	.	.	.	.	.	.
4D\	.	8d\L	.	16b-/LL	.	8ff\L	.	4D\	s(an)c-	.	4d\	s(an)c-	.	4f\	S(an)-	.	4b-\	S(an)-	.	4B-/	.	4f\	.	.	.	.
.	.	.	.	16b-/	.	.	.	.	.	.	.	.	.	.	.	.	.	.	.	.	.	.	.	.	.	.
.	.	8d\	.	16b-/	.	8b-\	.	.	.	.	.	.	.	.	.	.	.	.	.	.	.	.	.	.	.	.
.	.	.	.	16b-/	.	.	.	.	.	.	.	.	.	.	.	.	.	.	.	.	.	.	.	.	.	.
4E-\	.	8e-\	.	16b-/	.	8gg\	.	4E-\	-to	.	4e-\	-to	.	4g\	-cto	.	4b-\	-cto	.	4e-/	.	4g\	.	.	.	.
.	.	.	.	16b-/	.	.	.	.	.	.	.	.	.	.	.	.	.	.	.	.	.	.	.	.	.	.
.	.	8e-\J	.	16b-/	.	8b-\J	.	.	.	.	.	.	.	.	.	.	.	.	.	.	.	.	.	.	.	.
.	.	.	.	16b-/JJ	.	.	.	.	.	.	.	.	.	.	.	.	.	.	.	.	.	.	.	.	.	.
=80	=80	=80	=80	=80	=80	=80	=80	=80	=80	=80	=80	=80	=80	=80	=80	=80	=80	=80	=80	=80	=80	=80	=80	=80	=80	=80
4F\	.	8d\L	.	16b-/LL	.	16aa-\LL	.	4F\	spi-	.	4d\	Spi-	.	4a-\	Spi-	.	4b-\	Spi-	.	4B-/	.	4f\	.	2.b-\	.	1ryy
.	.	.	.	16b-/	.	16b-\	.	.	.	.	.	.	.	.	.	.	.	.	.	.	.	.	.	.	.	.
.	.	8d\	.	16b-/	.	16aa-\	.	.	.	.	.	.	.	.	.	.	.	.	.	.	.	.	.	.	.	.
.	.	.	.	16b-/	.	16b-\JJ	.	.	.	.	.	.	.	.	.	.	.	.	.	.	.	.	.	.	.	.
4E-\	.	8e-\	.	16b-/	.	16gg\LL	.	4E-\	-ri-	.	4e-\	-ri-	.	4g\	-ri-	.	4b-\	-ri-	.	4e-\	.	4g\	.	.	.	.
.	.	.	.	16b-/	.	16b-\	.	.	.	.	.	.	.	.	.	.	.	.	.	.	.	.	.	.	.	.
.	.	8e-\J	.	16b-/	.	16gg\	.	.	.	.	.	.	.	.	.	.	.	.	.	.	.	.	.	.	.	.
.	.	.	.	16b-/JJ	.	16b-\JJ	.	.	.	.	.	.	.	.	.	.	.	.	.	.	.	.	.	.	.	.
*	*	*tremolo	*	*	*	*	*	*	*	*	*	*	*	*	*	*	*	*	*	*	*	*	*	*	*	*
4D\	.	8f\L	.	16b-/LL	.	16ff\LL	.	4D/	-tu	.	4f\	-tu	.	4f\	-tu	.	4b-\	-tu	.	4B-/	.	4f\	.	.	.	.
.	.	.	.	16b-/	.	16b-\	.	.	.	.	.	.	.	.	.	.	.	.	.	.	.	.	.	.	.	.
.	.	8f\	.	16b-/	.	16ff\	.	.	.	.	.	.	.	.	.	.	.	.	.	.	.	.	.	.	.	.
.	.	.	.	16b-/JJ	.	16b-\JJ	.	.	.	.	.	.	.	.	.	.	.	.	.	.	.	.	.	.	.	.
4C/	.	8f\	.	16an/LL	.	16ee-\LL	.	4C/	in	.	4f\	in	.	4e-\	in	.	4an\	in	.	4e-\	.	4e-\	.	4a\	.	.
.	.	.	.	16an/	.	16an\	.	.	.	.	.	.	.	.	.	.	.	.	.	.	.	.	.	.	.	.
.	.	8f\J	.	16an/	.	16ee-\	.	.	.	.	.	.	.	.	.	.	.	.	.	.	.	.	.	.	.	.
.	.	.	.	16an/JJ	.	16a\JJ	.	.	.	.	.	.	.	.	.	.	.	.	.	.	.	.	.	.	.	.
=81	=81	=81	=81	=81	=81	=81	=81	=81	=81	=81	=81	=81	=81	=81	=81	=81	=81	=81	=81	=81	=81	=81	=81	=81	=81	=81
*tremolo	*	*	*	*	*	*tremolo	*	*	*	*	*	*	*	*	*	*	*	*	*	*	*	*	*	*	*	*
8BB-/L	.	8f\L	.	16b-\LL	.	16dd\LL	.	4BB-/	glo-	.	4f\	glo-	.	4d\	glo-	.	4b-\	glo-	.	4B-/	.	4f\	.	4b-\	.	1ryy
.	.	.	.	16b-\	.	16dd\	.	.	.	.	.	.	.	.	.	.	.	.	.	.	.	.	.	.	.	.
8BB-/	.	8f\	.	16b-\	.	16dd\	.	.	.	.	.	.	.	.	.	.	.	.	.	.	.	.	.	.	.	.
.	.	.	.	16b-\JJ	.	16dd\JJ	.	.	.	.	.	.	.	.	.	.	.	.	.	.	.	.	.	.	.	.
8BB-/	.	8f\	.	16dd\LL	.	16bb-\LL	.	8BB-/	-ri-	.	8d\	-ri-	.	8b-\	-ri-	.	8dd\	-ri-	.	4r	.	4r	.	4dd\	.	.
.	.	.	.	16dd\	.	16bb-\	.	.	.	.	.	.	.	.	.	.	.	.	.	.	.	.	.	.	.	.
8BB-/J	.	8f\J	.	16dd\	.	16bb-\	.	8BB-/	-a	.	8d\	-a	.	8b-\	-a	.	8dd\	-a	.	.	.	.	.	.	.	.
.	.	.	.	16dd\JJ	.	16bb-\JJ	.	.	.	.	.	.	.	.	.	.	.	.	.	.	.	.	.	.	.	.
*Xtremolo	*	*Xtremolo	*	*	*	*	*	*	*	*	*	*	*	*	*	*	*	*	*	*	*	*	*	*	*	*
8C/L	.	8e-\L	.	16ee-\LL	.	16aan\LL	.	4C/	De-	.	4c\	De-	.	4an\	De-	.	4ee-\	De-	.	2r	.	2r	.	4ee-\	.	.
.	.	.	.	16ee-\	.	16aan\	.	.	.	.	.	.	.	.	.	.	.	.	.	.	.	.	.	.	.	.
8C/	.	8e-\	.	16ee-\	.	16aan\	.	.	.	.	.	.	.	.	.	.	.	.	.	.	.	.	.	.	.	.
.	.	.	.	16ee-\JJ	.	16aan\JJ	.	.	.	.	.	.	.	.	.	.	.	.	.	.	.	.	.	.	.	.
8D/	.	8d\	.	16ff\LL	.	16aa-X\LL	.	4D/	-i	.	4B-\	-i	.	4a-X\	-i	.	4ee-\	-i	.	.	.	.	.	4ff\	.	.
.	.	.	.	16ff\	.	16aa-X\	.	.	.	.	.	.	.	.	.	.	.	.	.	.	.	.	.	.	.	.
8D/J	.	8d\J	.	16ff\	.	16aa-X\	.	.	.	.	.	.	.	.	.	.	.	.	.	.	.	.	.	.	.	.
.	.	.	.	16ff\JJ	.	16aa-X\JJ	.	.	.	.	.	.	.	.	.	.	.	.	.	.	.	.	.	.	.	.
*	*	*	*	*	*	*Xtremolo	*	*	*	*	*	*	*	*	*	*	*	*	*	*	*	*	*	*	*	*
=82	=82	=82	=82	=82	=82	=82	=82	=82	=82	=82	=82	=82	=82	=82	=82	=82	=82	=82	=82	=82	=82	=82	=82	=82	=82	=82
*tremolo	*	*tremolo	*	*	*	*	*	*	*	*	*	*	*	*	*	*	*	*	*	*	*	*	*	*	*	*
8E-\L	.	8e-\L	.	16g/LL	.	16gg\LL	.	2E-\	Pa-	.	2B-\	Pa-	.	2g\	Pa-	.	2gg\	Pa-	.	1e-	.	1g	.	1ee-	.	1ryy
.	.	.	.	16b-/	.	16ee-\	.	.	.	.	.	.	.	.	.	.	.	.	.	.	.	.	.	.	.	.
8E-\	.	8e-\	.	16g/	.	16ff\	.	.	.	.	.	.	.	.	.	.	.	.	.	.	.	.	.	.	.	.
.	.	.	.	16b-/	.	16gg\JJ	.	.	.	.	.	.	.	.	.	.	.	.	.	.	.	.	.	.	.	.
8E-\	.	8e-\	.	16g/	.	16aan\LL	.	.	.	.	.	.	.	.	.	.	.	.	.	.	.	.	.	.	.	.
.	.	.	.	16b-/	.	16bb-\	.	.	.	.	.	.	.	.	.	.	.	.	.	.	.	.	.	.	.	.
8E-\J	.	8e-\J	.	16g/	.	16ccc\	.	.	.	.	.	.	.	.	.	.	.	.	.	.	.	.	.	.	.	.
.	.	.	.	16b-/JJ	.	16ddd\JJ	.	.	.	.	.	.	.	.	.	.	.	.	.	.	.	.	.	.	.	.
8G\L	.	8e-\L	.	16e-/LL	.	16eee-\LL	.	2G\	-tris	.	2B-\	-tris	.	2g\	-tris	.	2ee-\	-tris	.	.	.	.	.	.	.	.
.	.	.	.	16b-/	.	16ddd\	.	.	.	.	.	.	.	.	.	.	.	.	.	.	.	.	.	.	.	.
8G\	.	8e-\	.	16e-/	.	16ccc\	.	.	.	.	.	.	.	.	.	.	.	.	.	.	.	.	.	.	.	.
.	.	.	.	16b-/	.	16bb-\JJ	.	.	.	.	.	.	.	.	.	.	.	.	.	.	.	.	.	.	.	.
8G\	.	8e-\	.	16e-/	.	16eee-\LL	.	.	.	.	.	.	.	.	.	.	.	.	.	.	.	.	.	.	.	.
.	.	.	.	16b-/	.	16ddd\	.	.	.	.	.	.	.	.	.	.	.	.	.	.	.	.	.	.	.	.
8G\J	.	8e-\J	.	16e-/	.	16ccc\	.	.	.	.	.	.	.	.	.	.	.	.	.	.	.	.	.	.	.	.
.	.	.	.	16b-/JJ	.	16bb-\JJ	.	.	.	.	.	.	.	.	.	.	.	.	.	.	.	.	.	.	.	.
=83	=83	=83	=83	=83	=83	=83	=83	=83	=83	=83	=83	=83	=83	=83	=83	=83	=83	=83	=83	=83	=83	=83	=83	=83	=83	=83
*	*	*	*	*	*	*^	*	*	*	*	*	*	*	*	*	*	*	*	*	*	*	*	*	*	*	*
8F\L	.	8f\L	.	16d/LL	.	8aa-\	1b-	.	2F\	a-	.	2B-\	a-	.	2a-\	a-	.	2dd\	a-	.	4B-/	.	4f\	.	1dd	.	1ryy
.	.	.	.	16b-/	.	.	.	.	.	.	.	.	.	.	.	.	.	.	.	.	.	.	.	.	.	.	.
8F\	.	8f\	.	16d/	.	4aa-\	.	.	.	.	.	.	.	.	.	.	.	.	.	.	.	.	.	.	.	.	.
.	.	.	.	16b-/	.	.	.	.	.	.	.	.	.	.	.	.	.	.	.	.	.	.	.	.	.	.	.
8F\	.	8f\	.	16d/	.	.	.	.	.	.	.	.	.	.	.	.	.	.	.	.	8B-/L	.	8f\L	.	.	.	.
.	.	.	.	16b-/	.	.	.	.	.	.	.	.	.	.	.	.	.	.	.	.	.	.	.	.	.	.	.
8F\J	.	8f\J	.	16d/	.	4aa-\	.	.	.	.	.	.	.	.	.	.	.	.	.	.	8B-/J	.	8f\J	.	.	.	.
.	.	.	.	16b-/JJ	.	.	.	.	.	.	.	.	.	.	.	.	.	.	.	.	.	.	.	.	.	.	.
8BB-/L	.	8d\L	.	16f/LL	.	.	.	.	2BB-/	-men	.	2B-\	-men	.	2a-\	-men	.	2ff\	-men	.	4B-/	.	4f\	.	.	.	.
.	.	.	.	16b-/	.	.	.	.	.	.	.	.	.	.	.	.	.	.	.	.	.	.	.	.	.	.	.
8BB-/	.	8d\	.	16f/	.	4aa-\	.	.	.	.	.	.	.	.	.	.	.	.	.	.	.	.	.	.	.	.	.
.	.	.	.	16b-/	.	.	.	.	.	.	.	.	.	.	.	.	.	.	.	.	.	.	.	.	.	.	.
8BB-/	.	8d\	.	16f/	.	.	.	.	.	.	.	.	.	.	.	.	.	.	.	.	4B-/	.	4f\	.	.	.	.
.	.	.	.	16b-/	.	.	.	.	.	.	.	.	.	.	.	.	.	.	.	.	.	.	.	.	.	.	.
8BB-/J	.	8d\J	.	16f/	.	8aa-\	.	.	.	.	.	.	.	.	.	.	.	.	.	.	.	.	.	.	.	.	.
.	.	.	.	16b-/JJ	.	.	.	.	.	.	.	.	.	.	.	.	.	.	.	.	.	.	.	.	.	.	.
*	*	*	*	*	*	*v	*v	*	*	*	*	*	*	*	*	*	*	*	*	*	*	*	*	*	*	*	*
=84	=84	=84	=84	=84	=84	=84	=84	=84	=84	=84	=84	=84	=84	=84	=84	=84	=84	=84	=84	=84	=84	=84	=84	=84	=84	=84
8E-\L	.	8e-\L	.	16g/LL	.	16gg\LL	.	2E-\	De-	.	2B-\	De-	.	2g\	De-	.	2gg\	De-	.	1e-	.	1g	.	1ee-	.	1ryy
.	.	.	.	16b-/	.	16ee-\	.	.	.	.	.	.	.	.	.	.	.	.	.	.	.	.	.	.	.	.
8E-\	.	8e-\	.	16g/	.	16ff\	.	.	.	.	.	.	.	.	.	.	.	.	.	.	.	.	.	.	.	.
.	.	.	.	16b-/	.	16gg\JJ	.	.	.	.	.	.	.	.	.	.	.	.	.	.	.	.	.	.	.	.
8E-\	.	8e-\	.	16g/	.	16aa-\LL	.	.	.	.	.	.	.	.	.	.	.	.	.	.	.	.	.	.	.	.
.	.	.	.	16b-/	.	16bb-\	.	.	.	.	.	.	.	.	.	.	.	.	.	.	.	.	.	.	.	.
8E-\J	.	8e-\J	.	16g/	.	16ccc\	.	.	.	.	.	.	.	.	.	.	.	.	.	.	.	.	.	.	.	.
.	.	.	.	16b-/JJ	.	16ddd\JJ	.	.	.	.	.	.	.	.	.	.	.	.	.	.	.	.	.	.	.	.
8G\L	.	8e-\L	.	16f/LL	.	16eee-\LL	.	2G\	-i	.	2B-\	-i	.	2g\	-i	.	2ee-\	-i	.	.	.	.	.	.	.	.
.	.	.	.	16b-/	.	16ddd\	.	.	.	.	.	.	.	.	.	.	.	.	.	.	.	.	.	.	.	.
8G\	.	8e-\	.	16f/	.	16ccc\	.	.	.	.	.	.	.	.	.	.	.	.	.	.	.	.	.	.	.	.
.	.	.	.	16b-/	.	16bb-\JJ	.	.	.	.	.	.	.	.	.	.	.	.	.	.	.	.	.	.	.	.
8G\	.	8e-\	.	16f/	.	16eee-\LL	.	.	.	.	.	.	.	.	.	.	.	.	.	.	.	.	.	.	.	.
.	.	.	.	16b-/	.	16ddd\	.	.	.	.	.	.	.	.	.	.	.	.	.	.	.	.	.	.	.	.
8G\J	.	8e-\J	.	16f/	.	16ccc\	.	.	.	.	.	.	.	.	.	.	.	.	.	.	.	.	.	.	.	.
.	.	.	.	16b-/JJ	.	16bb-\JJ	.	.	.	.	.	.	.	.	.	.	.	.	.	.	.	.	.	.	.	.
=85	=85	=85	=85	=85	=85	=85	=85	=85	=85	=85	=85	=85	=85	=85	=85	=85	=85	=85	=85	=85	=85	=85	=85	=85	=85	=85
*	*	*	*	*	*	*^	*	*	*	*	*	*	*	*	*	*	*	*	*	*	*	*	*	*	*	*
8F\L	.	8f\L	.	16d/LL	.	8aa-\	1b-	.	2F\	Pa-	.	2B-\	Pa-	.	2a-\	Pa-	.	2dd\	Pa-	.	4B-/	.	4f\	.	1dd	.	1ryy
.	.	.	.	16b-/	.	.	.	.	.	.	.	.	.	.	.	.	.	.	.	.	.	.	.	.	.	.	.
8F\	.	8f\	.	16d/	.	4aa-\	.	.	.	.	.	.	.	.	.	.	.	.	.	.	.	.	.	.	.	.	.
.	.	.	.	16b-/	.	.	.	.	.	.	.	.	.	.	.	.	.	.	.	.	.	.	.	.	.	.	.
8F\	.	8f\	.	16d/	.	.	.	.	.	.	.	.	.	.	.	.	.	.	.	.	8B-/L	.	8f\L	.	.	.	.
.	.	.	.	16b-/	.	.	.	.	.	.	.	.	.	.	.	.	.	.	.	.	.	.	.	.	.	.	.
8F\J	.	8f\J	.	16d/	.	4aa-\	.	.	.	.	.	.	.	.	.	.	.	.	.	.	8B-/J	.	8f\J	.	.	.	.
.	.	.	.	16b-/JJ	.	.	.	.	.	.	.	.	.	.	.	.	.	.	.	.	.	.	.	.	.	.	.
8BB-/L	.	8d\L	.	16f/LL	.	.	.	.	2BB-/	-tris	.	2B-\	-tris	.	2a-\	-tris	.	2dd\	-tris	.	4B-/	.	4f\	.	.	.	.
.	.	.	.	16b-/	.	.	.	.	.	.	.	.	.	.	.	.	.	.	.	.	.	.	.	.	.	.	.
8BB-/	.	8d\	.	16f/	.	4aa-\	.	.	.	.	.	.	.	.	.	.	.	.	.	.	.	.	.	.	.	.	.
.	.	.	.	16b-/	.	.	.	.	.	.	.	.	.	.	.	.	.	.	.	.	.	.	.	.	.	.	.
8BB-/	.	8d\	.	16f/	.	.	.	.	.	.	.	.	.	.	.	.	.	.	.	.	4B-/	.	4f\	.	.	.	.
.	.	.	.	16b-/	.	.	.	.	.	.	.	.	.	.	.	.	.	.	.	.	.	.	.	.	.	.	.
8BB-/J	.	8d\J	.	16f/	.	8aa-\	.	.	.	.	.	.	.	.	.	.	.	.	.	.	.	.	.	.	.	.	.
.	.	.	.	16b-/JJ	.	.	.	.	.	.	.	.	.	.	.	.	.	.	.	.	.	.	.	.	.	.	.
*Xtremolo	*	*Xtremolo	*	*	*	*	*	*	*	*	*	*	*	*	*	*	*	*	*	*	*	*	*	*	*	*	*
*	*	*	*	*	*	*v	*v	*	*	*	*	*	*	*	*	*	*	*	*	*	*	*	*	*	*	*	*
=86	=86	=86	=86	=86	=86	=86	=86	=86	=86	=86	=86	=86	=86	=86	=86	=86	=86	=86	=86	=86	=86	=86	=86	=86	=86	=86
*	*	*	*	*	*	*	*	*	*ij	*	*	*	*	*	*	*	*	*ij	*	*	*	*	*	*	*	*
*	*	*	*	*	*	*tremolo	*	*	*	*	*	*	*	*	*	*	*	*	*	*	*	*	*	*	*	*
8E-\L	.	8e-\L	.	16b-\LL	.	16gg\LL	.	4E-\	De-	.	4B-\	De-	.	4g\	De-	.	4ee-\	Pa-	.	4e-\	.	4g\	.	4ee-\	.	1ryy
.	.	.	.	16b-\	.	16gg\	.	.	.	.	.	.	.	.	.	.	.	.	.	.	.	.	.	.	.	.
8E-\	.	8e-\	.	16b-\	.	16gg\	.	.	.	.	.	.	.	.	.	.	.	.	.	.	.	.	.	.	.	.
.	.	.	.	16b-\	.	16gg\JJ	.	.	.	.	.	.	.	.	.	.	.	.	.	.	.	.	.	.	.	.
8D\	.	8f\	.	16b-\	.	16ff\LL	.	4BB-/	-i	.	4d\	-i	.	4f\	-i	.	4b-\	.	.	4B-/	.	4f\	.	4b-\	.	.
.	.	.	.	16b-\	.	16ff\	.	.	.	.	.	.	.	.	.	.	.	.	.	.	.	.	.	.	.	.
8D\J	.	8f\J	.	16b-\	.	16ff\	.	.	.	.	.	.	.	.	.	.	.	.	.	.	.	.	.	.	.	.
.	.	.	.	16b-\JJ	.	16ff\JJ	.	.	.	.	.	.	.	.	.	.	.	.	.	.	.	.	.	.	.	.
8E-\L	.	8e-\L	.	16b-\LL	.	16gg\LL	.	4E-\	Pa-	.	4e-\	Pa-	.	4b-\	Pa-	.	4b-\	-tris	.	4e-\	.	4g\	.	4b-\	.	.
.	.	.	.	16b-\	.	16gg\	.	.	.	.	.	.	.	.	.	.	.	.	.	.	.	.	.	.	.	.
8E-\	.	8e-\	.	16b-\	.	16gg\	.	.	.	.	.	.	.	.	.	.	.	.	.	.	.	.	.	.	.	.
.	.	.	.	16b-\JJ	.	16gg\JJ	.	.	.	.	.	.	.	.	.	.	.	.	.	.	.	.	.	.	.	.
*	*	*	*	*	*	*	*	*	*	*	*	*	*	*	*	*	*	*Xij	*	*	*	*	*	*	*	*
8C\	.	8f\	.	16ee-\LL	.	16aan\LL	.	4C/	-tris	.	4f\	-tris	.	4an\	-tris	.	4ee-\	.	.	4f\	.	4f\	.	4ee-\	.	.
.	.	.	.	16ee-\	.	16aan\	.	.	.	.	.	.	.	.	.	.	.	.	.	.	.	.	.	.	.	.
8C\J	.	8f\J	.	16ee-\	.	16aan\	.	.	.	.	.	.	.	.	.	.	.	.	.	.	.	.	.	.	.	.
.	.	.	.	16ee-\JJ	.	16aan\JJ	.	.	.	.	.	.	.	.	.	.	.	.	.	.	.	.	.	.	.	.
*	*	*	*	*	*	*	*	*	*Xij	*	*	*	*	*	*	*	*	*	*	*	*	*	*	*	*	*
*	*	*	*	*Xtremolo	*	*Xtremolo	*	*	*	*	*	*	*	*	*	*	*	*	*	*	*	*	*	*	*	*
=87	=87	=87	=87	=87	=87	=87	=87	=87	=87	=87	=87	=87	=87	=87	=87	=87	=87	=87	=87	=87	=87	=87	=87	=87	=87	=87
!LO:TX:b:Bi:t=Violonzzello	!	!	!	!	!	!	!	!	!	!	!	!	!	!	!	!	!	!	!	!	!	!	!	!	!	!
4BB-/	.	4B-/	.	4dd\	.	4bb-\	.	2BB-/	a-	.	2f\	a-	.	2b-\	a-	.	2dd\	a-	.	4B-/	.	4f\	.	4dd\	.	1ryy
4B-\	.	8B-/L	.	8b-\L	.	8b-/L	.	.	.	.	.	.	.	.	.	.	.	.	.	4B-/	.	4f\	.	4dd\	.	.
.	.	8B-/J	.	8b-\J	.	8b-/J	.	.	.	.	.	.	.	.	.	.	.	.	.	.	.	.	.	.	.	.
4BB-/	.	4B-/	.	4b-\	.	4b-/	.	4BB-/	-men	.	4f\	-men	.	4b-\	-men	.	4dd\	-men	.	4B-/	.	4f\	.	4dd\	.	.
16B-\LL	.	4r	.	4r	.	4r	.	4r	.	.	4r	.	.	4r	.	.	4r	.	.	4r	.	4r	.	4r	.	.
16A-X\	.	.	.	.	.	.	.	.	.	.	.	.	.	.	.	.	.	.	.	.	.	.	.	.	.	.
16G\	.	.	.	.	.	.	.	.	.	.	.	.	.	.	.	.	.	.	.	.	.	.	.	.	.	.
16F\JJ	.	.	.	.	.	.	.	.	.	.	.	.	.	.	.	.	.	.	.	.	.	.	.	.	.	.
=88	=88	=88	=88	=88	=88	=88	=88	=88	=88	=88	=88	=88	=88	=88	=88	=88	=88	=88	=88	=88	=88	=88	=88	=88	=88	=88
!	!LO:DY:a	!	!	!	!LO:DY:a	!LO:TX:a:Bi:t=Oboi.	!	!	!	!	!	!	!	!	!	!	!	!	!	!LO:TX:a:Bi:t=Solo	!	!LO:TX:a:Bi:t=solo	!	!LO:TX:a:t=6	!	!
4E-\	p	1r	.	4G/	pp	4ee-\	p p	00r	.	.	00r	.	.	00r	.	.	00r	.	.	4G/	.	4e-\	.	00r	.	1ryy
4r	.	.	.	8G/L	.	16ee-\LL	.	.	.	.	.	.	.	.	.	.	.	.	.	8G/L	.	8e-\L	.	.	.	.
.	.	.	.	.	.	16dd\	.	.	.	.	.	.	.	.	.	.	.	.	.	.	.	.	.	.	.	.
.	.	.	.	8G/J	.	16ee-\	.	.	.	.	.	.	.	.	.	.	.	.	.	8G/J	.	8e-\J	.	.	.	.
.	.	.	.	.	.	16ff\JJ	.	.	.	.	.	.	.	.	.	.	.	.	.	.	.	.	.	.	.	.
!	!	!	!	!LO:TX:a:Bi:t=Oboi.	!	!LO:TX:b:t=1.	!	!	!	!	!	!	!	!	!	!	!	!	!	!	!	!	!	!	!	!
2r	.	.	.	4G/	.	8ee-\L	.	.	.	.	.	.	.	.	.	.	.	.	.	4G/	.	4ryy	.	.	.	.
.	.	.	.	.	.	8ee-\	.	.	.	.	.	.	.	.	.	.	.	.	.	.	.	.	.	.	.	.
.	.	.	.	8B-/L	.	8ff\	.	.	.	.	.	.	.	.	.	.	.	.	.	8B-/L	.	8e-\L	.	.	.	.
.	.	.	.	8e-/J	.	8gg\J	.	.	.	.	.	.	.	.	.	.	.	.	.	8e-/J	.	8g\J	.	.	.	.
=89	=89	=89	=89	=89	=89	=89	=89	=89	=89	=89	=89	=89	=89	=89	=89	=89	=89	=89	=89	=89	=89	=89	=89	=89	=89	=89
.	.	.	.	8qqe-/	.	.	.	.	.	.	.	.	.	.	.	.	.	.	.	.	.	.	.	.	.	.
4r	.	1r	.	4d/	.	8gg\L	.	.	.	.	.	.	.	.	.	.	.	.	.	4B-/	.	4f\	.	.	.	1ryy
.	.	.	.	.	.	8ff\J	.	.	.	.	.	.	.	.	.	.	.	.	.	.	.	.	.	.	.	.
!	!	!	!	!LO:TX:a:t=2.	!	!LO:TX:b:t=2.	!	!	!	!	!	!	!	!	!	!	!	!	!	!	!	!	!	!	!	!
4BB-/	.	.	.	2d/	.	2ff\	.	.	.	.	.	.	.	.	.	.	.	.	.	2B-/	.	2f\	.	.	.	.
4D/	.	.	.	.	.	.	.	.	.	.	.	.	.	.	.	.	.	.	.	.	.	.	.	.	.	.
4E-\	.	.	.	8e-/L	.	8gg\L	.	.	.	.	.	.	.	.	.	.	.	.	.	8e-\L	.	8g\L	.	.	.	.
!	!	!	!	!	!	!	!	!	!	!	!	!	!	!	!	!	!	!	!	!LO:TX:a:t=P:problem:w źródle strona urwana, brak taktu	!	!	!	!	!	!
!	!	!	!	!	!	!	!	!	!	!	!	!	!	!	!	!	!	!	!	!LO:TX:b:Bi:t=V	!	!	!	!	!	!
.	.	.	.	8g/J	.	8bb-\J	.	.	.	.	.	.	.	.	.	.	.	.	.	8g\J	.	8b-\J	.	.	.	.
=90	=90	=90	=90	=90	=90	=90	=90	=90	=90	=90	=90	=90	=90	=90	=90	=90	=90	=90	=90	=90	=90	=90	=90	=90	=90	=90
4r	.	1r	.	8g/L	.	8bb-\L	.	.	.	.	.	.	.	.	.	.	.	.	.	1ryy	.	8b-\L	.	.	.	1ryy
.	.	.	.	8f/J	.	8aa-\J	.	.	.	.	.	.	.	.	.	.	.	.	.	.	.	8a-\J	.	.	.	.
!	!	!	!	!LO:TX:a:t=3.	!	!LO:TX:b:t=3.	!	!	!	!	!	!	!	!	!	!	!	!	!	!	!	!	!	!	!	!
4A-\	.	.	.	2e-/	.	2gg\	.	.	.	.	.	.	.	.	.	.	.	.	.	.	.	2g\	.	.	.	.
4B-\	.	.	.	.	.	.	.	.	.	.	.	.	.	.	.	.	.	.	.	.	.	.	.	.	.	.
4BB-/	.	.	.	4d/	.	4ff\	.	.	.	.	.	.	.	.	.	.	.	.	.	.	.	4f\	.	.	.	.
=91	=91	=91	=91	=91	=91	=91	=91	=91	=91	=91	=91	=91	=91	=91	=91	=91	=91	=91	=91	=91	=91	=91	=91	=91	=91	=91
4E-\	.	1r	.	(8e-/L	.	16ee-\LL	.	.	.	.	.	.	.	.	.	.	.	.	.	4G/	.	4e-\	.	.	.	1ryy
.	.	.	.	.	.	16ff\	.	.	.	.	.	.	.	.	.	.	.	.	.	.	.	.	.	.	.	.
.	.	.	.	8B-/)	.	16gg\	.	.	.	.	.	.	.	.	.	.	.	.	.	.	.	.	.	.	.	.
.	.	.	.	.	.	16ff\JJ	.	.	.	.	.	.	.	.	.	.	.	.	.	.	.	.	.	.	.	.
!	!	!	!	!	!	!LO:TX:b:t=4.	!	!	!	!	!	!	!	!	!	!	!	!	!	!	!	!	!	!	!	!
4EE-/	.	.	.	8G`/	.	8ee-\L	.	.	.	.	.	.	.	.	.	.	.	.	.	8G/L	.	8e-\L	.	.	.	.
!	!	!	!	!LO:TX:a:t=4.	!	!	!	!	!	!	!	!	!	!	!	!	!	!	!	!	!	!	!	!	!	!
.	.	.	.	8G`/J	.	8ee-\J	.	.	.	.	.	.	.	.	.	.	.	.	.	8G/J	.	8e-\J	.	.	.	.
2r	.	.	.	(8G/L	.	(8ee-\L	.	.	.	.	.	.	.	.	.	.	.	.	.	8G/L	.	8e-\L	.	.	.	.
.	.	.	.	8B-/)	.	8ff\)	.	.	.	.	.	.	.	.	.	.	.	.	.	8B-/	.	8f\	.	.	.	.
.	.	.	.	(8d/	.	(8ff\	.	.	.	.	.	.	.	.	.	.	.	.	.	8e-/	.	8g\	.	.	.	.
.	.	.	.	8e-/J)	.	8gg\J)	.	.	.	.	.	.	.	.	.	.	.	.	.	8B-/J	.	8e-\J	.	.	.	.
=92	=92	=92	=92	=92	=92	=92	=92	=92	=92	=92	=92	=92	=92	=92	=92	=92	=92	=92	=92	=92	=92	=92	=92	=92	=92	=92
4r	.	1r	.	(8e-/L	.	8gg\L	.	0r	.	.	0r	.	.	0r	.	.	0r	.	.	4B-/	.	4f\	.	0r	.	1ryy
.	.	.	.	8d/)	.	8ff\	.	.	.	.	.	.	.	.	.	.	.	.	.	.	.	.	.	.	.	.
4BB-/	.	.	.	8d`/	.	8ff\	.	.	.	.	.	.	.	.	.	.	.	.	.	4.B-/	.	4f\	.	.	.	.
.	.	.	.	8d`/J	.	8ff\J	.	.	.	.	.	.	.	.	.	.	.	.	.	.	.	.	.	.	.	.
!	!	!	!	!LO:TX:a:t=5.	!	!LO:TX:b:t=5.	!	!	!	!	!	!	!	!	!	!	!	!	!	!	!	!	!	!	!	!
4D\	.	.	.	(8d/L	.	8ff\L	.	.	.	.	.	.	.	.	.	.	.	.	.	.	.	8f\L	.	.	.	.
.	.	.	.	8f/)	.	8aa-\	.	.	.	.	.	.	.	.	.	.	.	.	.	8f\L	.	8a-\	.	.	.	.
4E-\	.	.	.	(8e-/	.	8gg\	.	.	.	.	.	.	.	.	.	.	.	.	.	8e-\	.	8g\	.	.	.	.
.	.	.	.	8g/J)	.	8bb-\J	.	.	.	.	.	.	.	.	.	.	.	.	.	8g\J	.	8b-\J	.	.	.	.
=93	=93	=93	=93	=93	=93	=93	=93	=93	=93	=93	=93	=93	=93	=93	=93	=93	=93	=93	=93	=93	=93	=93	=93	=93	=93	=93
4r	.	1r	.	8g/L	.	8bb-\L	.	.	.	.	.	.	.	.	.	.	.	.	.	8g\L	.	8b-\L	.	.	.	1ryy
.	.	.	.	8f/J	.	8aa-\J	.	.	.	.	.	.	.	.	.	.	.	.	.	8f\J	.	8a-\J	.	.	.	.
!	!	!	!	!LO:TX:a:t=6.	!	!LO:TX:b:t=6.	!	!	!	!	!	!	!	!	!	!	!	!	!	!	!	!	!	!	!	!
4A-\	.	.	.	2e-/	.	2gg\	.	.	.	.	.	.	.	.	.	.	.	.	.	2e-\	.	2g\	.	.	.	.
4B-\	.	.	.	.	.	.	.	.	.	.	.	.	.	.	.	.	.	.	.	.	.	.	.	.	.	.
4BB-/	.	.	.	4d/	.	4ff\	.	.	.	.	.	.	.	.	.	.	.	.	.	4B-/	.	4f\	.	.	.	.
=94	=94	=94	=94	=94	=94	=94	=94	=94	=94	=94	=94	=94	=94	=94	=94	=94	=94	=94	=94	=94	=94	=94	=94	=94	=94	=94
*	*	*	*	*^	*	*	*	*	*	*	*	*	*	*	*	*	*	*	*	*	*	*	*	*	*	*
*	*	*	*	*tremolo	*tremolo	*	*tremolo	*	*	*	*	*	*	*	*	*	*	*	*	*	*	*	*	*	*	*	*
!LO:TX:a:Bi:t=Pleno	!	!	!	!	!	!	!	!	!	!	!	!	!	!	!	!	!	!	!	!	!	!LO:DY:a	!	!LO:DY:a	!	!	!
4E-\	.	4r	.	4e-/	4ryy	.	4ee-\	.	4r	.	.	4r	.	.	4r	.	.	4r	.	.	4G/	f	4e-\	f	4r	.	1ryy
!LO:TX:b:Bi:t=org	!	!	!	!	!	!	!	!LO:DY:a	!	!	!	!	!	!	!	!	!	!	!	!	!	!	!	!	!	!	!
4BB-/	.	8d\L	f	16b-/LL	16f\LL	ff	16ff 16b-\LL	f	4BB-/	a-	.	(4d\	a-	.	(4f\	a-	.	2.b-\	a-	.	4B-/	.	4f\	.	4dd\	.	.
.	.	.	.	16b-/	16f\	.	16ff 16b-\	.	.	.	.	.	.	.	.	.	.	.	.	.	.	.	.	.	.	.	.
.	.	8d\J	.	16b-/	16f\	.	16ff 16b-\	.	.	.	.	.	.	.	.	.	.	.	.	.	.	.	.	.	.	.	.
.	.	.	.	16b-/JJ	16f\JJ	.	16ff 16b-\JJ	.	.	.	.	.	.	.	.	.	.	.	.	.	.	.	.	.	.	.	.
4E-\	.	8e-\L	.	16b-/LL	16g\LL	.	16gg 16b-\LL	.	(4E-\	.	.	4e-\)	.	.	4g\	.	.	.	.	.	4e-\	.	4g\	.	4ee-\	.	.
.	.	.	.	16b-/	16g\	.	16gg 16b-\	.	.	.	.	.	.	.	.	.	.	.	.	.	.	.	.	.	.	.	.
.	.	8e-\	.	16b-/	16g\	.	16gg 16b-\	.	.	.	.	.	.	.	.	.	.	.	.	.	.	.	.	.	.	.	.
.	.	.	.	16b-/JJ	16g\JJ	.	16gg 16b-\JJ	.	.	.	.	.	.	.	.	.	.	.	.	.	.	.	.	.	.	.	.
4D/	.	8f\	.	16b-/LL	16f\LL	.	16aa- 16b-\LL	.	4D\)	.	.	4f\	.	.	4a-X\)	.	.	.	.	.	4f\	.	4a-\	.	4ff\	.	.
.	.	.	.	16b-/	16f\	.	16aa- 16b-\	.	.	.	.	.	.	.	.	.	.	.	.	.	.	.	.	.	.	.	.
.	.	8f\J	.	16b-/	16f\	.	16aa- 16b-\	.	.	.	.	.	.	.	.	.	.	.	.	.	.	.	.	.	.	.	.
.	.	.	.	16b-/JJ	16f\JJ	.	16aa- 16b-\JJ	.	.	.	.	.	.	.	.	.	.	.	.	.	.	.	.	.	.	.	.
*	*	*	*	*Xtremolo	*Xtremolo	*	*	*	*	*	*	*	*	*	*	*	*	*	*	*	*	*	*	*	*	*	*
=95	=95	=95	=95	=95	=95	=95	=95	=95	=95	=95	=95	=95	=95	=95	=95	=95	=95	=95	=95	=95	=95	=95	=95	=95	=95	=95	=95
*	*	*tremolo	*	*tremolo	*tremolo	*	*	*	*	*	*	*	*	*	*	*	*	*	*	*	*	*	*	*	*	*	*
4E-\	.	8e-\L	.	16b-/LL	16g\LL	.	16gg\LL	.	4E-\	-men	.	4e-\	-men	.	4g\	-men	.	4b-\	-men	.	4e-\	.	4g\	.	4ee-\	.	1ryy
.	.	.	.	16b-/	16g\	.	16gg\	.	.	.	.	.	.	.	.	.	.	.	.	.	.	.	.	.	.	.	.
.	.	8e-\	.	16b-/	16g\	.	16gg\	.	.	.	.	.	.	.	.	.	.	.	.	.	.	.	.	.	.	.	.
.	.	.	.	16b-/JJ	16g\JJ	.	16gg\JJ	.	.	.	.	.	.	.	.	.	.	.	.	.	.	.	.	.	.	.	.
*	*	*	*	*	*Xtremolo	*	*	*	*	*	*	*	*	*	*	*	*	*	*	*	*	*	*	*	*	*	*
*	*	*	*	*	*	*	*	*	*	*ij	*	*	*ij	*	*	*	*	*	*ij	*	*	*	*	*	*	*	*
4c\	.	8e-\	.	16g/LL	4ryy	.	16ee-\LL	.	4c\	a-	.	(4e-\	a-	.	(4g\	a-	.	4ee-\	a-	.	4e-\	.	4g\	.	4g/	.	.
.	.	.	.	16g/	.	.	16ee-\	.	.	.	.	.	.	.	.	.	.	.	.	.	.	.	.	.	.	.	.
.	.	8e-\J	.	16g/	.	.	16ee-\	.	.	.	.	.	.	.	.	.	.	.	.	.	.	.	.	.	.	.	.
.	.	.	.	16g/JJ	.	.	16ee-\JJ	.	.	.	.	.	.	.	.	.	.	.	.	.	.	.	.	.	.	.	.
*	*	*Xtremolo	*	*	*	*	*	*	*	*	*	*	*	*	*	*	*	*	*	*	*	*	*	*	*	*	*
4A-\	.	8c/L	.	16a-/LL	2ryy	.	16ff\LL	.	4A-\	.	.	4c\)	.	.	4a-\)	.	.	(4ff\	.	.	4f\	.	4a-\	.	4a-/	.	.
.	.	.	.	16a-/	.	.	16ff\	.	.	.	.	.	.	.	.	.	.	.	.	.	.	.	.	.	.	.	.
.	.	8c/	.	16a-/	.	.	16ff\	.	.	.	.	.	.	.	.	.	.	.	.	.	.	.	.	.	.	.	.
.	.	.	.	16a-/JJ	.	.	16ff\JJ	.	.	.	.	.	.	.	.	.	.	.	.	.	.	.	.	.	.	.	.
4B-\	.	8B-/	.	16f/LL	.	.	16dd\LL	.	4B-\	.	.	4B-\	.	.	4f\	.	.	4dd\)	.	.	4B-/	.	4f\	.	4f/	.	.
.	.	.	.	16f/	.	.	16dd\	.	.	.	.	.	.	.	.	.	.	.	.	.	.	.	.	.	.	.	.
.	.	8B-/J	.	16f/	.	.	16dd\	.	.	.	.	.	.	.	.	.	.	.	.	.	.	.	.	.	.	.	.
.	.	.	.	16f/JJ	.	.	16dd\JJ	.	.	.	.	.	.	.	.	.	.	.	.	.	.	.	.	.	.	.	.
*	*	*	*	*Xtremolo	*	*	*Xtremolo	*	*	*	*	*	*	*	*	*	*	*	*	*	*	*	*	*	*	*	*
*	*	*	*	*v	*v	*	*	*	*	*	*	*	*	*	*	*	*	*	*	*	*	*	*	*	*	*	*
=96	=96	=96	=96	=96	=96	=96	=96	=96	=96	=96	=96	=96	=96	=96	=96	=96	=96	=96	=96	=96	=96	=96	=96	=96	=96	=96
4E-\	.	4B-/	.	4g 4B-/	.	4ee-\	.	4E-\	-men	.	4B-\	-men	.	4g\	-men.	.	4ee-\	-men	.	4e-\	.	4g\	.	4g/	.	1ryy
*	*	*	*	*	*	*	*	*Xij	*	*	*Xij	*	*	*	*	*	*Xij	*	*	*	*	*	*	*	*	*
4E-\	.	4B-/	.	4g 4B-/	.	4ee- 4e- 4G/	.	4r	.	.	4r	.	.	4r	.	.	4r	.	.	4e-\	.	4g\	.	4g/	.	.
4E-\	.	4B-/	.	4g 4B-/	.	4ee- 4e- 4G/	.	2r	.	.	2r	.	.	2r	.	.	2r	.	.	4e-\	.	4g\	.	4g/	.	.
!	!	!	!	!	!	!	!	!	!	!	!	!	!	!	!	!	!	!	!	!	!	!	!	!LO:TX:b:Bi:t=Volti Subito Credo.	!	!
4r	.	4r	.	4r	.	4r	.	.	.	.	.	.	.	.	.	.	.	.	.	4r	.	4r	.	4r	.	.
==	==	==	==	==	==	==	==	==	==	==	==	==	==	==	==	==	==	==	==	==	==	==	==	==	==	==
*-	*-	*-	*-	*-	*-	*-	*-	*-	*-	*-	*-	*-	*-	*-	*-	*-	*-	*-	*-	*-	*-	*-	*-	*-	*-	*-
!!title: @{OTL};
!!!RDF**kern: > = above
!!!RDF**kern: < = below
!!!RDF**kern: | = vertical stroke
!!!RDF**kern: N = linked
!!!RDF**kern: i = editorial accidental
!!!RDF**kern: l = terminal long
!!!AIN: 1 alto 1 bass 4 empty 1 organ 1 tenor 1 viola 2 violn 1 vox
!!!ENC: Andrzej Gręziak
!!!END: 2020-09-28
!!!EED: Wojciech Jakubiak-Danek
!!!EST: 2022-02-02
!!!URL-scan: http://repozytorium.nifc.pl/skany/pl-cz-nut--iii-563
!!!ONB-nifc: UWAGA: części Mszy: Kyrie, Gloria, Credo, Et incarnatus, Et resurrexit, Sanctus, Pleni sunt, Benedictus, Agnus Dei, Dona nobis
